; generated by PrusaSlicer 2.4.2+win64 on 2022-08-13 at 23:34:56 UTC


;
;

;
;
; 

; external perimeters extrusion width = 0.45mm
; perimeters extrusion width = 0.45mm
; infill extrusion width = 0.45mm
; solid infill extrusion width = 0.45mm
; top infill extrusion width = 0.40mm
; first layer extrusion width = 0.42mm

M73 P0 R91
M201 X2500 Y2500 Z400 E5000 ; sets maximum accelerations, mm/sec^2
M203 X180 Y180 Z12 E80 ; sets maximum feedrates, mm / sec
M204 P1250 R1250 T2500 ; sets acceleration (P, T) and retract acceleration (R), mm/sec^2
M205 X8.00 Y8.00 Z2.00 E10.00 ; sets the jerk limits, mm/sec
M205 S0 T0 ; sets the minimum extruding and travel feed rate, mm/sec
M107
;TYPE:Custom
M862.3 P "MINI" ; printer model check
G90 ; use absolute coordinates
M83 ; extruder relative mode
M104 S170 ; set extruder temp for bed leveling
M140 S85 ; set bed temp
M109 R170 ; wait for bed leveling temp
M190 S85 ; wait for bed temp
M204 T1250 ; set travel acceleration
G28 ; home all without mesh bed level
G29 ; mesh bed leveling 
M204 T2500 ; restore travel acceleration
M104 S240 ; set extruder temp
G92 E0
G1 Y-2 X179 F2400
G1 Z3 F720
M109 S240 ; wait for extruder temp

; intro line
G1 X170 F1000
G1 Z0.2 F720
G1 X110 E8 F900
G1 X40 E10 F700
G92 E0

M221 S95 ; set flow
G21 ; set units to millimeters
G90 ; use absolute coordinates
M83 ; use relative distances for extrusion
M900 K0.2 ; Filament gcode
M107
;LAYER_CHANGE
;Z:0.2
;HEIGHT:0.2
;BEFORE_LAYER_CHANGE
G92 E0.0
;0.2


G1 E-3.2 F2400
G1 Z.2 F720
;AFTER_LAYER_CHANGE
;0.2
G1 Z.4
G1 X68.011 Y73.046 F9000
G1 Z.2 F720
G1 E3.2 F1500
M204 P800
;TYPE:Skirt/Brim
;WIDTH:0.42
G1 F1200
G1 X69.765 Y72.274 E.06007
G1 X118.732 Y72.279 E1.53535
G1 X120.485 Y72.51 E.05543
G1 X121.792 Y72.958 E.04331
G1 X122.688 Y73.423 E.03165
G1 X123.542 Y74.017 E.03262
G1 X124.792 Y75.267 E.05543
G1 X125.386 Y76.121 E.03262
G1 X125.865 Y77.045 E.03262
G1 X126.299 Y78.324 E.04235
G1 X126.53 Y80.077 E.05543
G1 X126.441 Y81.424 E.04235
G1 X125.984 Y83.132 E.05543
G1 X125.395 Y84.33 E.04185
G1 X117.928 Y95.67 E.42573
G1 X116.407 Y97.917 E.08506
G1 X114.916 Y98.911 E.05619
G1 X69.565 Y108.176 E1.45133
G1 X68.094 Y108.345 E.0464
G1 X65.768 Y108.289 E.07295
G1 X64.273 Y108.042 E.04752
G1 X63.065 Y107.717 E.03924
G1 X61.87 Y107.274 E.03995
G1 X59.813 Y106.188 E.07295
G1 X58.601 Y105.315 E.04682
G1 X56.92 Y103.707 E.07295
G1 X55.981 Y102.518 E.04752
G1 X55.307 Y101.463 E.03924
G1 X54.722 Y100.331 E.03994
G1 X54.245 Y99.15 E.03994
G1 X53.661 Y96.898 E.07295
G1 X53.505 Y95.634 E.03994
G1 X53.471 Y94.141 E.04682
G1 X53.74 Y91.83 E.07295
G1 X54.051 Y90.594 E.03994
G1 X54.475 Y89.393 E.03994
G1 X55.11 Y88.042 E.04682
G1 X55.764 Y86.949 E.03994
G1 X56.517 Y85.921 E.03995
G1 X67.971 Y73.091 E.53926
M204 P1000
; printing object sunglasses-car-clip id:0 copy 0
G1 E-2.24 F2400
;WIPE_START
G1 F7200
G1 X69.765 Y72.274 E-.62406
G1 X70.674 Y72.274 E-.28794
;WIPE_END
G1 E-.048 F2400
G1 Z.4 F720
G1 X70.466 Y76.505 F9000
M73 P0 R90
G1 Z.2 F720
G1 E3.2 F1500
M204 P800
;TYPE:Perimeter
G1 F1200
G1 X70.732 Y76.268 E.01117
G1 X71.506 Y75.438 E.03557
G1 X118.552 Y75.438 E1.4751
G1 X119.202 Y75.481 E.02044
G1 X119.817 Y75.603 E.01965
G1 X120.411 Y75.805 E.01965
G1 X120.973 Y76.082 E.01965
G1 X121.494 Y76.43 E.01965
G1 X121.965 Y76.844 E.01965
G1 X122.379 Y77.315 E.01965
G1 X122.727 Y77.836 E.01965
G1 X123.004 Y78.398 E.01965
G1 X123.206 Y78.992 E.01965
G1 X123.328 Y79.607 E.01965
G1 X123.369 Y80.232 E.01965
G1 X123.328 Y80.858 E.01965
G1 X123.206 Y81.472 E.01965
G1 X123.004 Y82.066 E.01965
G1 X122.727 Y82.628 E.01965
G1 X122.379 Y83.149 E.01965
G1 X121.965 Y83.621 E.01965
G1 X121.494 Y84.034 E.01965
G1 X120.973 Y84.382 E.01965
G1 X120.411 Y84.659 E.01965
G1 X119.817 Y84.861 E.01965
G1 X119.202 Y84.983 E.01965
G1 X118.551 Y85.026 E.02046
G1 X68.615 Y85.026 E1.56571
G1 X67.688 Y84.936 E.0292
G1 X66.677 Y84.944 E.03169
G1 X65.673 Y85.058 E.03169
G1 X64.686 Y85.276 E.03169
G1 X63.727 Y85.596 E.03169
G1 X62.807 Y86.015 E.03169
G1 X61.936 Y86.527 E.03169
G1 X61.123 Y87.128 E.03169
G1 X60.378 Y87.811 E.03169
G1 X59.708 Y88.568 E.03169
G1 X59.121 Y89.391 E.03169
G1 X58.623 Y90.271 E.03169
G1 X58.22 Y91.198 E.03169
G1 X57.916 Y92.162 E.03169
G1 X57.715 Y93.153 E.03169
G1 X57.619 Y94.159 E.03169
G1 X57.628 Y95.17 E.03169
G1 X57.743 Y96.174 E.03169
G1 X57.962 Y97.161 E.03169
G1 X58.284 Y98.119 E.03169
G1 X58.704 Y99.039 E.03169
G1 X59.218 Y99.909 E.03169
G1 X59.82 Y100.721 E.03169
G1 X60.503 Y101.465 E.03169
G1 X61.261 Y102.134 E.03169
G1 X62.085 Y102.72 E.03169
G1 X62.965 Y103.217 E.03169
G1 X63.894 Y103.619 E.03171
G1 X64.873 Y103.924 E.03217
G1 X65.848 Y104.121 E.03121
G1 X66.855 Y104.216 E.03169
G1 X67.866 Y104.206 E.03169
G1 X68.87 Y104.089 E.03169
G1 X69.856 Y103.868 E.03169
G1 X70.742 Y103.57 E.02931
G1 X107.634 Y94.668 E1.18992
G1 X108.653 Y94.461 E.03261
G1 X109.671 Y94.331 E.03216
G1 X110.695 Y94.276 E.03216
G1 X111.72 Y94.296 E.03216
G1 X112.742 Y94.391 E.03216
G1 X113.631 Y94.541 E.02826
G1 X113.01 Y95.455 E.03465
G1 X112.405 Y95.361 E.01918
G1 X111.273 Y95.281 E.03561
G1 X110.134 Y95.302 E.03571
G1 X109.001 Y95.421 E.03571
G1 X107.9 Y95.636 E.03517
G1 X70.92 Y104.56 E1.19278
G1 X69.923 Y104.868 E.0327
G1 X68.963 Y105.07 E.03079
G1 X67.987 Y105.182 E.03079
G1 X67.006 Y105.204 E.03079
G1 X66.026 Y105.135 E.03079
G1 X65.057 Y104.977 E.03078
G1 X64.107 Y104.729 E.03079
G1 X63.184 Y104.395 E.03079
G1 X62.295 Y103.977 E.03079
G1 X61.449 Y103.479 E.03079
G1 X60.652 Y102.905 E.03078
G1 X59.912 Y102.26 E.03079
G1 X59.234 Y101.55 E.03079
G1 X58.625 Y100.78 E.03079
G1 X58.09 Y99.957 E.03078
G1 X57.632 Y99.088 E.03079
G1 X57.257 Y98.181 E.03079
G1 X56.967 Y97.243 E.03079
G1 X56.765 Y96.282 E.03079
G1 X56.652 Y95.307 E.03079
G1 X56.63 Y94.325 E.03078
G1 X56.698 Y93.346 E.03079
G1 X56.857 Y92.377 E.03079
G1 X57.104 Y91.426 E.03078
G1 X57.438 Y90.503 E.03079
G1 X57.856 Y89.614 E.03079
G1 X58.353 Y88.768 E.03078
G1 X58.927 Y87.971 E.03079
G1 X59.572 Y87.231 E.03079
G1 X60.282 Y86.553 E.03079
G1 X61.052 Y85.944 E.03078
G1 X61.875 Y85.408 E.03079
G1 X62.744 Y84.95 E.03078
G1 X63.651 Y84.575 E.03079
G1 X64.589 Y84.284 E.03079
G1 X65.549 Y84.082 E.03079
G1 X66.525 Y83.969 E.03079
G1 X67.506 Y83.947 E.03079
G1 X68.549 Y84.019 E.03278
G1 X118.611 Y84.019 E1.56965
G1 X119.235 Y83.965 E.01963
G1 X119.873 Y83.794 E.02071
G1 X120.472 Y83.514 E.02071
G1 X121.013 Y83.136 E.02071
G1 X121.48 Y82.668 E.02071
G1 X121.859 Y82.127 E.02071
G1 X122.138 Y81.528 E.02071
G1 X122.309 Y80.89 E.02071
G1 X122.367 Y80.232 E.02071
G1 X122.309 Y79.574 E.02071
G1 X122.138 Y78.936 E.02071
G1 X121.859 Y78.337 E.02071
G1 X121.48 Y77.796 E.02071
G1 X121.013 Y77.329 E.02071
G1 X120.472 Y76.95 E.02071
G1 X119.873 Y76.671 E.02071
G1 X119.235 Y76.5 E.02071
G1 X118.611 Y76.445 E.01963
G1 X71.811 Y76.445 E1.46739
G1 X70.78 Y76.466 E.03235
G1 X70.526 Y76.498 E.00802
M204 P1000
G1 E-2.24 F2400
;WIPE_START
G1 F7200
G1 X70.732 Y76.268 E-.09774
G1 X71.506 Y75.438 E-.35927
G1 X72.943 Y75.438 E-.45499
;WIPE_END
G1 E-.048 F2400
G1 Z.4 F720
G1 X69.305 Y77.017 F9000
G1 Z.2 F720
G1 E3.2 F1500
M204 P800
;TYPE:External perimeter
G1 F1200
G1 X69.496 Y76.803 E.00899
G1 X69.758 Y76.556 E.01128
G1 X70.087 Y76.338 E.01236
G1 X70.468 Y75.998 E.01603
G1 X71.342 Y75.061 E.04016
G1 X118.564 Y75.061 E1.48063
G1 X119.252 Y75.106 E.0216
G1 X119.915 Y75.238 E.0212
G1 X120.555 Y75.456 E.0212
G1 X121.162 Y75.755 E.0212
G1 X121.724 Y76.131 E.0212
G1 X122.233 Y76.576 E.0212
G1 X122.678 Y77.085 E.0212
G1 X123.054 Y77.647 E.0212
G1 X123.353 Y78.254 E.0212
G1 X123.571 Y78.894 E.0212
G1 X123.703 Y79.557 E.0212
G1 X123.747 Y80.232 E.0212
G1 X123.703 Y80.907 E.0212
G1 X123.571 Y81.57 E.0212
G1 X123.353 Y82.211 E.0212
G1 X123.054 Y82.817 E.0212
G1 X122.678 Y83.379 E.0212
G1 X122.233 Y83.888 E.0212
G1 X121.724 Y84.334 E.0212
G1 X121.162 Y84.709 E.0212
G1 X120.555 Y85.009 E.0212
G1 X119.915 Y85.226 E.0212
G1 X119.252 Y85.358 E.0212
G1 X118.563 Y85.403 E.02163
G1 X68.597 Y85.403 E1.56667
G1 X67.671 Y85.313 E.02916
G1 X66.7 Y85.321 E.03045
G1 X65.735 Y85.43 E.03045
G1 X64.786 Y85.64 E.03045
G1 X63.865 Y85.947 E.03045
G1 X62.981 Y86.35 E.03045
G1 X62.144 Y86.842 E.03045
G1 X61.363 Y87.42 E.03045
G1 X60.647 Y88.076 E.03045
G1 X60.003 Y88.803 E.03045
G1 X59.439 Y89.594 E.03045
G1 X58.961 Y90.439 E.03045
G1 X58.574 Y91.33 E.03045
G1 X58.282 Y92.256 E.03045
G1 X58.089 Y93.208 E.03045
G1 X57.996 Y94.175 E.03045
G1 X58.005 Y95.146 E.03045
G1 X58.115 Y96.111 E.03045
G1 X58.326 Y97.06 E.03045
G1 X58.635 Y97.98 E.03045
G1 X59.039 Y98.864 E.03045
G1 X59.532 Y99.7 E.03045
G1 X60.111 Y100.48 E.03045
G1 X60.768 Y101.196 E.03045
G1 X61.496 Y101.839 E.03045
G1 X62.288 Y102.402 E.03045
G1 X63.134 Y102.879 E.03045
G1 X64.025 Y103.265 E.03046
G1 X64.967 Y103.558 E.03093
G1 X65.904 Y103.747 E.02997
G1 X66.871 Y103.839 E.03045
G1 X67.842 Y103.829 E.03045
G1 X68.807 Y103.717 E.03045
G1 X69.755 Y103.505 E.03045
G1 X70.637 Y103.207 E.02921
G1 X107.552 Y94.299 E1.19066
G1 X108.592 Y94.089 E.03326
M73 P1 R90
G1 X109.637 Y93.955 E.03302
G1 X110.689 Y93.899 E.03303
G1 X111.742 Y93.92 E.03302
G1 X112.79 Y94.017 E.03303
G1 X113.832 Y94.192 E.03311
G1 X114.255 Y94.292 E.01363
G1 X113.188 Y95.864 E.05957
G1 X112.363 Y95.736 E.02617
G1 X111.263 Y95.659 E.03459
G1 X110.157 Y95.678 E.03467
G1 X109.057 Y95.795 E.03467
G1 X107.981 Y96.005 E.03439
G1 X71.02 Y104.924 E1.19215
G1 X70.018 Y105.233 E.03288
G1 X69.023 Y105.442 E.03188
G1 X68.013 Y105.559 E.03188
G1 X66.997 Y105.582 E.03188
G1 X65.982 Y105.51 E.03188
G1 X64.979 Y105.346 E.03188
G1 X63.995 Y105.09 E.03188
G1 X63.039 Y104.744 E.03188
G1 X62.119 Y104.311 E.03188
G1 X61.243 Y103.795 E.03188
G1 X60.418 Y103.201 E.03188
G1 X59.651 Y102.533 E.03188
G1 X58.95 Y101.798 E.03188
G1 X58.319 Y101 E.03188
G1 X57.764 Y100.148 E.03188
G1 X57.291 Y99.248 E.03188
G1 X56.902 Y98.309 E.03188
G1 X56.602 Y97.337 E.03188
G1 X56.392 Y96.343 E.03188
G1 X56.276 Y95.333 E.03188
G1 X56.253 Y94.316 E.03188
G1 X56.324 Y93.302 E.03188
G1 X56.488 Y92.299 E.03188
G1 X56.744 Y91.315 E.03188
G1 X57.089 Y90.358 E.03188
G1 X57.522 Y89.438 E.03188
G1 X58.037 Y88.562 E.03188
G1 X58.631 Y87.737 E.03188
G1 X59.299 Y86.97 E.03188
G1 X60.034 Y86.268 E.03188
G1 X60.832 Y85.637 E.03188
G1 X61.684 Y85.082 E.03188
G1 X62.583 Y84.608 E.03188
G1 X63.523 Y84.22 E.03188
G1 X64.494 Y83.919 E.03188
G1 X65.489 Y83.709 E.03188
G1 X66.499 Y83.593 E.03188
G1 X67.515 Y83.569 E.03188
G1 X68.563 Y83.642 E.03292
G1 X118.595 Y83.642 E1.56872
G1 X119.169 Y83.592 E.01808
G1 X119.744 Y83.438 E.01865
G1 X120.283 Y83.187 E.01865
G1 X120.77 Y82.846 E.01865
G1 X121.19 Y82.425 E.01865
G1 X121.531 Y81.938 E.01865
G1 X121.783 Y81.399 E.01865
G1 X121.937 Y80.825 E.01865
G1 X121.988 Y80.232 E.01865
G1 X121.937 Y79.64 E.01865
G1 X121.783 Y79.065 E.01865
G1 X121.531 Y78.526 E.01865
G1 X121.19 Y78.039 E.01865
G1 X120.77 Y77.619 E.01865
G1 X120.283 Y77.278 E.01865
G1 X119.744 Y77.026 E.01865
G1 X119.169 Y76.872 E.01865
G1 X118.595 Y76.822 E.01808
G1 X71.815 Y76.822 E1.46675
G1 X70.807 Y76.843 E.03161
G1 X70.287 Y76.908 E.01642
G1 X69.803 Y77.022 E.01561
G1 X69.365 Y77.022 E.01373
M204 P1000
G1 X69.542 Y76.855 F9000
G1 X69.781 Y76.802
M204 P800
;TYPE:Gap fill
;WIDTH:0.188557
G1 F1200
G1 X69.918 Y76.743 E.00181
M204 P1000
M204 P800
;WIDTH:0.224655
G1 X70.056 Y76.684 E.00226
M204 P1000
M204 P800
;WIDTH:0.260752
G1 X70.194 Y76.624 E.00271
M204 P1000
M204 P800
;WIDTH:0.260752
G1 X70.215 Y76.634 E.00042
M204 P1000
M204 P800
;WIDTH:0.230973
G1 X70.236 Y76.645 E.00037
M204 P1000
M204 P800
;WIDTH:0.201192
G1 X70.35 Y76.705 E.00169
M204 P1000
G1 E-2.24 F2400
;WIPE_START
G1 F7200
G1 X70.236 Y76.645 E-.04076
;WIPE_END
G1 E-.91924 F2400
G1 Z.4 F720
G1 X122.644 Y77.923 F9000
G1 Z.2 F720
G1 E3.2 F1500
M204 P800
;TYPE:Solid infill
;WIDTH:0.421213
G1 F1200
G1 X121.762 Y77.041 E.03922
G1 X121.322 Y76.655 E.01843
G1 X120.831 Y76.327 E.01855
G1 X120.227 Y76.041 E.02105
G1 X122.768 Y78.582 E.11305
G1 X122.932 Y79.065 E.01604
G1 X122.986 Y79.335 E.00865
G1 X122.331 Y78.681 E.0291
G1 X122.105 Y78.195 E.01686
G1 X121.698 Y77.613 E.02234
G1 X121.196 Y77.111 E.02234
G1 X120.614 Y76.704 E.02234
G1 X120.128 Y76.478 E.01686
G1 X119.258 Y75.607 E.0387
M204 P1000
G1 X119.594 Y76.479 F9000
M204 P800
G1 F1200
G1 X118.857 Y75.742 E.03279
G1 X118.543 Y75.721 E.00993
G1 X118.302 Y75.721 E.00757
G1 X118.754 Y76.174 E.02013
G1 X118.208 Y76.162 E.01719
G1 X117.767 Y75.721 E.01962
G1 X117.232 Y75.721 E.01683
G1 X117.673 Y76.162 E.01962
G1 X117.138 Y76.162 E.01683
G1 X116.697 Y75.721 E.01962
G1 X116.162 Y75.721 E.01683
G1 X116.603 Y76.162 E.01962
G1 X116.068 Y76.162 E.01683
G1 X115.627 Y75.721 E.01962
G1 X115.092 Y75.721 E.01683
G1 X115.533 Y76.162 E.01962
G1 X114.998 Y76.162 E.01683
G1 X114.557 Y75.721 E.01962
G1 X114.022 Y75.721 E.01683
G1 X114.463 Y76.162 E.01962
G1 X113.928 Y76.162 E.01683
G1 X113.487 Y75.721 E.01962
G1 X112.952 Y75.721 E.01683
G1 X113.393 Y76.162 E.01962
G1 X112.858 Y76.162 E.01683
G1 X112.417 Y75.721 E.01962
G1 X111.882 Y75.721 E.01683
G1 X112.323 Y76.162 E.01962
G1 X111.788 Y76.162 E.01683
G1 X111.347 Y75.721 E.01962
G1 X110.812 Y75.721 E.01683
G1 X111.253 Y76.162 E.01962
G1 X110.718 Y76.162 E.01683
G1 X110.277 Y75.721 E.01962
G1 X109.742 Y75.721 E.01683
G1 X110.183 Y76.162 E.01962
G1 X109.648 Y76.162 E.01683
G1 X109.207 Y75.721 E.01962
G1 X108.672 Y75.721 E.01683
G1 X109.113 Y76.162 E.01962
G1 X108.578 Y76.162 E.01683
G1 X108.137 Y75.721 E.01962
G1 X107.602 Y75.721 E.01683
G1 X108.043 Y76.162 E.01962
G1 X107.508 Y76.162 E.01683
G1 X107.067 Y75.721 E.01962
G1 X106.532 Y75.721 E.01683
G1 X106.973 Y76.162 E.01962
G1 X106.438 Y76.162 E.01683
G1 X105.997 Y75.721 E.01962
G1 X105.462 Y75.721 E.01683
G1 X105.903 Y76.162 E.01962
G1 X105.368 Y76.162 E.01683
G1 X104.927 Y75.721 E.01962
G1 X104.392 Y75.721 E.01683
G1 X104.833 Y76.162 E.01962
G1 X104.298 Y76.162 E.01683
G1 X103.857 Y75.721 E.01962
G1 X103.322 Y75.721 E.01683
G1 X103.763 Y76.162 E.01962
G1 X103.228 Y76.162 E.01683
G1 X102.787 Y75.721 E.01962
G1 X102.252 Y75.721 E.01683
G1 X102.693 Y76.162 E.01962
G1 X102.158 Y76.162 E.01683
G1 X101.717 Y75.721 E.01962
G1 X101.182 Y75.721 E.01683
G1 X101.623 Y76.162 E.01962
G1 X101.088 Y76.162 E.01683
G1 X100.647 Y75.721 E.01962
G1 X100.112 Y75.721 E.01683
G1 X100.553 Y76.162 E.01962
G1 X100.018 Y76.162 E.01683
G1 X99.577 Y75.721 E.01962
G1 X99.042 Y75.721 E.01683
G1 X99.483 Y76.162 E.01962
G1 X98.948 Y76.162 E.01683
G1 X98.507 Y75.721 E.01962
G1 X97.972 Y75.721 E.01683
G1 X98.413 Y76.162 E.01962
G1 X97.878 Y76.162 E.01683
G1 X97.437 Y75.721 E.01962
G1 X96.902 Y75.721 E.01683
G1 X97.343 Y76.162 E.01962
G1 X96.808 Y76.162 E.01683
G1 X96.367 Y75.721 E.01962
G1 X95.832 Y75.721 E.01683
G1 X96.274 Y76.162 E.01962
G1 X95.739 Y76.162 E.01683
G1 X95.297 Y75.721 E.01962
G1 X94.762 Y75.721 E.01683
G1 X95.204 Y76.162 E.01962
G1 X94.669 Y76.162 E.01683
G1 X94.227 Y75.721 E.01962
G1 X93.692 Y75.721 E.01683
G1 X94.134 Y76.162 E.01963
G1 X93.599 Y76.162 E.01683
G1 X93.157 Y75.721 E.01963
G1 X92.622 Y75.721 E.01683
G1 X93.064 Y76.162 E.01963
G1 X92.529 Y76.162 E.01683
G1 X92.087 Y75.721 E.01963
G1 X91.552 Y75.721 E.01683
G1 X91.994 Y76.162 E.01963
G1 X91.459 Y76.162 E.01683
G1 X91.017 Y75.721 E.01963
G1 X90.482 Y75.721 E.01683
G1 X90.924 Y76.162 E.01963
G1 X90.389 Y76.162 E.01683
G1 X89.947 Y75.721 E.01963
G1 X89.412 Y75.721 E.01683
G1 X89.854 Y76.162 E.01963
G1 X89.319 Y76.162 E.01683
G1 X88.878 Y75.721 E.01963
G1 X88.343 Y75.721 E.01683
G1 X88.784 Y76.162 E.01963
G1 X88.249 Y76.162 E.01683
G1 X87.808 Y75.721 E.01963
G1 X87.273 Y75.721 E.01683
G1 X87.714 Y76.162 E.01963
G1 X87.179 Y76.162 E.01683
G1 X86.738 Y75.721 E.01963
G1 X86.203 Y75.721 E.01683
G1 X86.644 Y76.162 E.01963
G1 X86.109 Y76.162 E.01683
G1 X85.668 Y75.721 E.01963
G1 X85.133 Y75.721 E.01683
G1 X85.574 Y76.162 E.01963
G1 X85.039 Y76.162 E.01683
G1 X84.598 Y75.721 E.01963
G1 X84.063 Y75.721 E.01683
G1 X84.504 Y76.162 E.01963
G1 X83.969 Y76.162 E.01683
G1 X83.528 Y75.721 E.01963
G1 X82.993 Y75.721 E.01683
G1 X83.434 Y76.162 E.01963
G1 X82.899 Y76.162 E.01683
G1 X82.458 Y75.721 E.01963
G1 X81.923 Y75.721 E.01683
G1 X82.364 Y76.162 E.01963
