; generated by PrusaSlicer 2.4.2+win64 on 2022-08-13 at 21:22:48 UTC


;
;

;
;
; 

; external perimeters extrusion width = 0.45mm
; perimeters extrusion width = 0.45mm
; infill extrusion width = 0.45mm
; solid infill extrusion width = 0.45mm
; top infill extrusion width = 0.40mm
; first layer extrusion width = 0.42mm

M73 P0 R145
M201 X2500 Y2500 Z400 E5000 ; sets maximum accelerations, mm/sec^2
M203 X180 Y180 Z12 E80 ; sets maximum feedrates, mm / sec
M204 P1250 R1250 T2500 ; sets acceleration (P, T) and retract acceleration (R), mm/sec^2
M205 X8.00 Y8.00 Z2.00 E10.00 ; sets the jerk limits, mm/sec
M205 S0 T0 ; sets the minimum extruding and travel feed rate, mm/sec
M107
;TYPE:Custom
M862.3 P "MINI" ; printer model check
G90 ; use absolute coordinates
M83 ; extruder relative mode
M104 S170 ; set extruder temp for bed leveling
M140 S60 ; set bed temp
M109 R170 ; wait for bed leveling temp
M190 S60 ; wait for bed temp
M204 T1250 ; set travel acceleration
G28 ; home all without mesh bed level
G29 ; mesh bed leveling 
M204 T2500 ; restore travel acceleration
M104 S215 ; set extruder temp
G92 E0
G1 Y-2 X179 F2400
G1 Z3 F720
M109 S215 ; wait for extruder temp

; intro line
G1 X170 F1000
G1 Z0.2 F720
G1 X110 E8 F900
G1 X40 E10 F700
G92 E0

M221 S95 ; set flow
G21 ; set units to millimeters
G90 ; use absolute coordinates
M83 ; use relative distances for extrusion
M900 K0.2 ; Filament gcode LA 1.5
; ; Filament gcode LA 1.0
M107
;LAYER_CHANGE
;Z:0.2
;HEIGHT:0.2
;BEFORE_LAYER_CHANGE
G92 E0.0
;0.2


M73 P0 R144
G1 E-3.2 F4200
G1 Z.2 F720
;AFTER_LAYER_CHANGE
;0.2
G1 Z.4
G1 X65.275 Y83.395 F9000
G1 Z.2 F720
G1 E3.2 F2400
M204 P800
;TYPE:Skirt/Brim
;WIDTH:0.42
G1 F1200
G1 X66.341 Y82.779 E.03858
G1 X67.902 Y82.445 E.05007
G1 X112.098 Y82.445 E1.38573
G1 X112.713 Y82.526 E.01946
G1 X113.659 Y82.779 E.03071
G1 X114.725 Y83.395 E.03858
G1 X115.418 Y84.087 E.03071
G1 X116.033 Y85.153 E.03858
G1 X116.367 Y86.714 E.05007
G1 X116.367 Y97.89 E.35042
G1 X116.286 Y98.506 E.01946
G1 X116.033 Y99.452 E.03071
G1 X115.418 Y100.517 E.03858
G1 X114.725 Y101.21 E.03071
G1 X113.659 Y101.825 E.03858
G1 X112.098 Y102.16 E.05007
G1 X67.902 Y102.16 E1.38573
G1 X66.341 Y101.825 E.05007
G1 X65.275 Y101.21 E.03858
G1 X64.582 Y100.517 E.03071
G1 X63.967 Y99.452 E.03858
G1 X63.633 Y97.89 E.05007
G1 X63.633 Y86.714 E.35042
G1 X63.714 Y86.099 E.01946
G1 X63.967 Y85.153 E.03071
G1 X64.582 Y84.087 E.03858
G1 X65.233 Y83.437 E.02883
M204 P1000
; printing object appletvremoteholder-gen4 id:0 copy 0
G1 E-2.24 F4200
;WIPE_START
G1 F7200
G1 X66.341 Y82.779 E-.71405
G1 X66.69 Y82.705 E-.19795
;WIPE_END
G1 E-.048 F4200
G1 Z.4 F720
G1 X67.547 Y86.099 F9000
G1 Z.2 F720
G1 E3.2 F2400
M204 P800
;TYPE:Perimeter
G1 F1200
G1 X67.998 Y85.99 E.01456
G1 X112.021 Y85.99 E1.38029
G1 X112.441 Y86.091 E.01357
G1 X112.497 Y86.129 E.00211
G1 X112.713 Y86.359 E.00991
G1 X112.822 Y86.811 E.01456
G1 X112.822 Y97.801 E.3446
G1 X112.717 Y98.24 E.01416
G1 X112.453 Y98.506 E.01173
G1 X112.002 Y98.615 E.01456
G1 X67.991 Y98.615 E1.37992
G1 X67.552 Y98.509 E.01416
G1 X67.287 Y98.246 E.01173
G1 X67.178 Y97.794 E.01456
G1 X67.178 Y86.804 E.3446
G1 X67.283 Y86.365 E.01416
G1 X67.498 Y86.134 E.00988
M204 P1000
G1 X67.393 Y85.748 F9000
M204 P800
;TYPE:External perimeter
G1 F1200
G1 X67.953 Y85.613 E.01807
G1 X112.058 Y85.613 E1.38286
G1 X112.599 Y85.743 E.01745
G1 X112.738 Y85.836 E.00522
G1 X112.977 Y86.075 E.01061
G1 X113.064 Y86.206 E.00493
G1 X113.199 Y86.766 E.01807
G1 X113.199 Y97.846 E.34741
G1 X113.068 Y98.394 E.01767
G1 X112.977 Y98.53 E.00514
G1 X112.738 Y98.769 E.01061
G1 X112.607 Y98.856 E.00493
G1 X112.047 Y98.992 E.01807
G1 X67.947 Y98.992 E1.38273
G1 X67.399 Y98.86 E.01767
G1 X67.262 Y98.769 E.00514
G1 X67.023 Y98.53 E.01061
G1 X66.936 Y98.399 E.00493
G1 X66.801 Y97.839 E.01807
G1 X66.801 Y86.759 E.34741
G1 X66.932 Y86.211 E.01767
G1 X67.023 Y86.075 E.00514
G1 X67.262 Y85.836 E.01061
G1 X67.343 Y85.782 E.00305
M204 P1000
G1 X67.712 Y85.99 F9000
G1 E-2.24 F4200
;WIPE_START
G1 F7200
G1 X67.953 Y85.613 E-.35077
G1 X68.966 Y85.613 E-.56123
;WIPE_END
G1 E-.048 F4200
G1 Z.4 F720
G1 X111.539 Y86.103 F9000
G1 Z.2 F720
G1 E3.2 F2400
M204 P800
;TYPE:Solid infill
;WIDTH:0.420007
G1 F1200
G1 X112.54 Y87.104 E.04437
G1 X112.54 Y87.637 E.01672
G1 X111.175 Y86.273 E.06049
G1 X110.642 Y86.273 E.01672
G1 X112.54 Y88.17 E.08414
G1 X112.54 Y88.704 E.01672
G1 X110.109 Y86.273 E.10779
G1 X109.575 Y86.273 E.01672
G1 X112.54 Y89.237 E.13143
G1 X112.54 Y89.77 E.01672
G1 X109.042 Y86.273 E.15508
G1 X108.509 Y86.273 E.01672
G1 X112.54 Y90.304 E.17873
G1 X112.54 Y90.837 E.01672
G1 X107.976 Y86.273 E.20238
G1 X107.442 Y86.273 E.01672
G1 X112.54 Y91.37 E.22602
G1 X112.54 Y91.903 E.01672
G1 X106.909 Y86.273 E.24967
G1 X106.376 Y86.273 E.01672
G1 X112.54 Y92.437 E.27332
G1 X112.54 Y92.97 E.01672
G1 X105.843 Y86.273 E.29696
G1 X105.309 Y86.273 E.01672
G1 X112.54 Y93.503 E.32061
G1 X112.54 Y94.036 E.01672
G1 X104.776 Y86.273 E.34426
G1 X104.243 Y86.273 E.01672
G1 X112.54 Y94.57 E.3679
G1 X112.54 Y95.103 E.01672
G1 X103.709 Y86.273 E.39155
G1 X103.176 Y86.273 E.01672
G1 X112.54 Y95.636 E.4152
G1 X112.54 Y96.17 E.01672
G1 X102.643 Y86.273 E.43885
G1 X102.11 Y86.273 E.01672
G1 X112.54 Y96.703 E.46249
G1 X112.54 Y97.236 E.01672
G1 X101.576 Y86.273 E.48614
G1 X101.043 Y86.273 E.01672
G1 X112.539 Y97.769 E.50977
G1 X112.46 Y98.097 E.01058
G1 X112.397 Y98.161 E.0028
G1 X100.51 Y86.273 E.52713
G1 X99.976 Y86.273 E.01672
G1 X112.022 Y98.319 E.53415
G1 X111.968 Y98.332 E.00175
G1 X111.502 Y98.332 E.01461
G1 X99.443 Y86.273 E.53473
G1 X98.91 Y86.273 E.01672
G1 X110.969 Y98.332 E.53473
G1 X110.436 Y98.332 E.01672
G1 X98.377 Y86.273 E.53473
G1 X97.843 Y86.273 E.01672
G1 X109.902 Y98.332 E.53473
G1 X109.369 Y98.332 E.01672
G1 X97.31 Y86.273 E.53473
G1 X96.777 Y86.273 E.01672
G1 X108.836 Y98.332 E.53473
G1 X108.303 Y98.332 E.01672
G1 X96.243 Y86.273 E.53473
G1 X95.71 Y86.273 E.01672
G1 X107.769 Y98.332 E.53473
G1 X107.236 Y98.332 E.01672
G1 X95.177 Y86.273 E.53473
G1 X94.644 Y86.273 E.01672
G1 X106.703 Y98.332 E.53473
G1 X106.169 Y98.332 E.01672
G1 X94.11 Y86.273 E.53473
G1 X93.577 Y86.273 E.01672
G1 X105.636 Y98.332 E.53473
G1 X105.103 Y98.332 E.01672
G1 X93.044 Y86.273 E.53473
G1 X92.51 Y86.273 E.01672
G1 X104.57 Y98.332 E.53473
G1 X104.036 Y98.332 E.01672
G1 X91.977 Y86.273 E.53473
G1 X91.444 Y86.273 E.01672
G1 X103.503 Y98.332 E.53473
G1 X102.97 Y98.332 E.01672
G1 X90.911 Y86.273 E.53473
G1 X90.377 Y86.273 E.01672
G1 X102.436 Y98.332 E.53473
G1 X101.903 Y98.332 E.01672
G1 X89.844 Y86.273 E.53473
G1 X89.311 Y86.273 E.01672
G1 X101.37 Y98.332 E.53473
G1 X100.837 Y98.332 E.01672
G1 X88.777 Y86.273 E.53473
G1 X88.244 Y86.273 E.01672
G1 X100.303 Y98.332 E.53473
G1 X99.77 Y98.332 E.01672
G1 X87.711 Y86.273 E.53473
G1 X87.178 Y86.273 E.01672
M73 P0 R143
G1 X99.237 Y98.332 E.53473
G1 X98.703 Y98.332 E.01672
G1 X86.644 Y86.273 E.53473
G1 X86.111 Y86.273 E.01672
G1 X98.17 Y98.332 E.53473
G1 X97.637 Y98.332 E.01672
G1 X85.578 Y86.273 E.53473
G1 X85.045 Y86.273 E.01672
G1 X97.104 Y98.332 E.53473
G1 X96.57 Y98.332 E.01672
G1 X84.511 Y86.273 E.53473
G1 X83.978 Y86.273 E.01672
G1 X96.037 Y98.332 E.53473
G1 X95.504 Y98.332 E.01672
G1 X83.445 Y86.273 E.53473
G1 X82.911 Y86.273 E.01672
G1 X94.97 Y98.332 E.53473
G1 X94.437 Y98.332 E.01672
G1 X82.378 Y86.273 E.53473
G1 X81.845 Y86.273 E.01672
G1 X93.904 Y98.332 E.53473
G1 X93.371 Y98.332 E.01672
G1 X81.312 Y86.273 E.53473
G1 X80.778 Y86.273 E.01672
G1 X92.837 Y98.332 E.53473
G1 X92.304 Y98.332 E.01672
G1 X80.245 Y86.273 E.53473
G1 X79.712 Y86.273 E.01672
G1 X91.771 Y98.332 E.53473
G1 X91.238 Y98.332 E.01672
G1 X79.178 Y86.273 E.53473
G1 X78.645 Y86.273 E.01672
G1 X90.704 Y98.332 E.53473
G1 X90.171 Y98.332 E.01672
G1 X78.112 Y86.273 E.53473
G1 X77.579 Y86.273 E.01672
G1 X89.638 Y98.332 E.53473
G1 X89.104 Y98.332 E.01672
G1 X77.045 Y86.273 E.53473
G1 X76.512 Y86.273 E.01672
G1 X88.571 Y98.332 E.53473
G1 X88.038 Y98.332 E.01672
G1 X75.979 Y86.273 E.53473
M73 P1 R143
G1 X75.445 Y86.273 E.01672
G1 X87.505 Y98.332 E.53473
G1 X86.971 Y98.332 E.01672
G1 X74.912 Y86.273 E.53473
G1 X74.379 Y86.273 E.01672
G1 X86.438 Y98.332 E.53473
G1 X85.905 Y98.332 E.01672
G1 X73.846 Y86.273 E.53473
G1 X73.312 Y86.273 E.01672
G1 X85.371 Y98.332 E.53473
G1 X84.838 Y98.332 E.01672
G1 X72.779 Y86.273 E.53473
G1 X72.246 Y86.273 E.01672
G1 X84.305 Y98.332 E.53473
G1 X83.772 Y98.332 E.01672
G1 X71.712 Y86.273 E.53473
G1 X71.179 Y86.273 E.01672
G1 X83.238 Y98.332 E.53473
G1 X82.705 Y98.332 E.01672
G1 X70.646 Y86.273 E.53473
G1 X70.113 Y86.273 E.01672
G1 X82.172 Y98.332 E.53473
G1 X81.638 Y98.332 E.01672
G1 X69.579 Y86.273 E.53473
G1 X69.046 Y86.273 E.01672
G1 X81.105 Y98.332 E.53473
G1 X80.572 Y98.332 E.01672
G1 X68.513 Y86.273 E.53473
G1 X67.99 Y86.283 E.0164
G1 X80.039 Y98.332 E.53428
G1 X79.505 Y98.332 E.01672
G1 X67.61 Y86.437 E.52746
G1 X67.54 Y86.508 E.00313
G1 X67.464 Y86.824 E.01019
G1 X78.972 Y98.332 E.51031
G1 X78.439 Y98.332 E.01672
G1 X67.46 Y87.354 E.48681
G1 X67.46 Y87.887 E.01672
G1 X77.905 Y98.332 E.46316
G1 X77.372 Y98.332 E.01672
G1 X67.46 Y88.42 E.43951
G1 X67.46 Y88.954 E.01672
G1 X76.839 Y98.332 E.41586
G1 X76.306 Y98.332 E.01672
G1 X67.46 Y89.487 E.39222
G1 X67.46 Y90.02 E.01672
G1 X75.772 Y98.332 E.36857
G1 X75.239 Y98.332 E.01672
G1 X67.46 Y90.553 E.34492
G1 X67.46 Y91.087 E.01672
G1 X74.706 Y98.332 E.32128
G1 X74.173 Y98.332 E.01672
G1 X67.46 Y91.62 E.29763
G1 X67.46 Y92.153 E.01672
G1 X73.639 Y98.332 E.27398
G1 X73.106 Y98.332 E.01672
G1 X67.46 Y92.686 E.25034
G1 X67.46 Y93.22 E.01672
G1 X72.573 Y98.332 E.22669
G1 X72.039 Y98.332 E.01672
G1 X67.46 Y93.753 E.20304
G1 X67.46 Y94.286 E.01672
G1 X71.506 Y98.332 E.17939
G1 X70.973 Y98.332 E.01672
G1 X67.46 Y94.82 E.15575
G1 X67.46 Y95.353 E.01672
G1 X70.44 Y98.332 E.1321
G1 X69.906 Y98.332 E.01672
G1 X67.46 Y95.886 E.10845
G1 X67.46 Y96.419 E.01672
G1 X69.373 Y98.332 E.08481
G1 X68.84 Y98.332 E.01672
G1 X67.46 Y96.953 E.06116
G1 X67.46 Y97.486 E.01672
G1 X68.476 Y98.502 E.04504
M204 P1000
; stop printing object appletvremoteholder-gen4 id:0 copy 0
M106 S84.15
;LAYER_CHANGE
;Z:0.35
;HEIGHT:0.15
;BEFORE_LAYER_CHANGE
G92 E0.0
;0.35


G1 E-2.24 F4200
;WIPE_START
G1 F7200
G1 X67.46 Y97.486 E-.79597
G1 X67.46 Y97.277 E-.11603
;WIPE_END
G1 E-.048 F4200
G1 Z.4 F720
;AFTER_LAYER_CHANGE
;0.35
G1 X63.633 Y97.277 F9000
G1 Z.35 F720
G1 E3.2 F2400
;TYPE:Skirt/Brim
;WIDTH:0.42
G1 X63.633 Y86.714 E.25545
G1 X63.714 Y86.099 E.01501
G1 X63.967 Y85.153 E.02369
G1 X64.582 Y84.087 E.02976
G1 X65.275 Y83.395 E.02369
G1 X66.341 Y82.779 E.02976
G1 X67.902 Y82.445 E.03862
G1 X112.098 Y82.445 E1.06888
G1 X112.713 Y82.526 E.01501
G1 X113.659 Y82.779 E.02369
G1 X114.725 Y83.395 E.02976
G1 X115.418 Y84.087 E.02369
G1 X116.033 Y85.153 E.02976
G1 X116.367 Y86.714 E.03862
G1 X116.367 Y97.89 E.27029
G1 X116.286 Y98.506 E.01501
G1 X116.033 Y99.452 E.02369
G1 X115.418 Y100.517 E.02976
G1 X114.725 Y101.21 E.02369
G1 X113.659 Y101.825 E.02976
G1 X112.098 Y102.16 E.03862
G1 X67.902 Y102.16 E1.06888
G1 X66.341 Y101.825 E.03862
G1 X65.275 Y101.21 E.02976
G1 X64.582 Y100.517 E.02369
G1 X63.967 Y99.452 E.02976
G1 X63.633 Y97.89 E.03862
G1 X63.633 Y97.337 E.01339
; printing object appletvremoteholder-gen4 id:0 copy 0
G1 E-2.24 F4200
;WIPE_START
G1 F7200
G1 X63.633 Y95.691 E-.912
;WIPE_END
G1 E-.048 F4200
G1 Z.55 F720
G1 X66.893 Y98.473 F9000
G1 Z.35 F720
G1 E3.2 F2400
M204 P800
;TYPE:Perimeter
;WIDTH:0.45
G1 X66.715 Y97.806 E.01799
G1 X66.715 Y86.799 E.28679
G1 X66.893 Y86.132 E.01799
G1 X67.32 Y85.706 E.01571
G1 X67.987 Y85.527 E.01799
G1 X112.013 Y85.527 E1.14715
G1 X112.68 Y85.706 E.01799
G1 X113.107 Y86.132 E.01571
G1 X113.285 Y86.799 E.01799
G1 X113.285 Y97.806 E.28679
G1 X113.107 Y98.473 E.01799
G1 X112.68 Y98.899 E.01571
G1 X112.013 Y99.078 E.01799
G1 X67.987 Y99.078 E1.14715
G1 X67.32 Y98.899 E.01799
G1 X66.936 Y98.515 E.01415
M204 P1000
G1 X66.519 Y98.689 F9000
M204 P800
;TYPE:External perimeter
G1 F1800
G1 X66.297 Y97.861 E.02234
G1 X66.297 Y86.744 E.28966
G1 X66.519 Y85.916 E.02234
G1 X67.103 Y85.331 E.02154
G1 X67.932 Y85.109 E.02234
G1 X112.068 Y85.109 E1.15002
G1 X112.897 Y85.331 E.02234
G1 X113.481 Y85.916 E.02154
G1 X113.703 Y86.744 E.02234
G1 X113.703 Y97.861 E.28966
G1 X113.481 Y98.689 E.02234
G1 X112.897 Y99.274 E.02154
G1 X112.068 Y99.496 E.02234
G1 X67.932 Y99.496 E1.15002
G1 X67.103 Y99.274 E.02234
G1 X66.561 Y98.732 E.01998
M204 P1000
G1 X66.718 Y98.342 F9000
G1 E-2.24 F4200
;WIPE_START
G1 F7200
G1 X66.297 Y97.861 E-.50427
G1 X66.297 Y97.125 E-.40773
;WIPE_END
G1 E-.048 F4200
G1 Z.55 F720
G1 X113.092 Y98.042 F9000
G1 Z.35 F720
G1 E3.2 F2400
;TYPE:Solid infill
;WIDTH:0.452549
G1 F4800
G1 X112.516 Y98.619 E.02138
G1 X111.972 Y98.765 E.01475
G1 X111.776 Y98.765 E.00515
G1 X112.972 Y97.568 E.04436
G1 X112.972 Y96.973 E.01558
G1 X111.181 Y98.765 E.0664
G1 X110.587 Y98.765 E.01558
G1 X112.972 Y96.379 E.08844
G1 X112.972 Y95.785 E.01558
G1 X109.992 Y98.765 E.11048
G1 X109.398 Y98.765 E.01558
G1 X112.972 Y95.19 E.13252
G1 X112.972 Y94.596 E.01558
G1 X108.803 Y98.765 E.15456
G1 X108.209 Y98.765 E.01558
G1 X112.972 Y94.001 E.1766
G1 X112.972 Y93.407 E.01558
G1 X107.614 Y98.765 E.19864
G1 X107.02 Y98.765 E.01558
G1 X112.972 Y92.812 E.22068
G1 X112.972 Y92.218 E.01558
G1 X106.425 Y98.765 E.24271
G1 X105.831 Y98.765 E.01558
G1 X112.972 Y91.623 E.26475
G1 X112.972 Y91.029 E.01558
G1 X105.236 Y98.765 E.28679
G1 X104.642 Y98.765 E.01558
G1 X112.972 Y90.434 E.30883
G1 X112.972 Y89.84 E.01558
G1 X104.047 Y98.765 E.33087
G1 X103.453 Y98.765 E.01558
G1 X112.972 Y89.245 E.35291
G1 X112.972 Y88.651 E.01558
G1 X102.858 Y98.765 E.37495
G1 X102.264 Y98.765 E.01558
G1 X112.972 Y88.056 E.39699
G1 X112.972 Y87.462 E.01558
G1 X101.669 Y98.765 E.41903
G1 X101.075 Y98.765 E.01558
M73 P1 R142
G1 X112.972 Y86.867 E.44107
G1 X112.852 Y86.393 E.01283
G1 X100.48 Y98.765 E.45866
G1 X99.886 Y98.765 E.01558
G1 X112.591 Y86.059 E.47102
G1 X112.518 Y85.987 E.0027
G1 X112.164 Y85.892 E.00961
G1 X99.291 Y98.765 E.47723
G1 X98.697 Y98.765 E.01558
G1 X111.621 Y85.84 E.47914
G1 X111.027 Y85.84 E.01558
G1 X98.103 Y98.765 E.47914
G1 X97.508 Y98.765 E.01558
G1 X110.432 Y85.84 E.47914
G1 X109.838 Y85.84 E.01558
G1 X96.914 Y98.765 E.47914
G1 X96.319 Y98.765 E.01558
G1 X109.243 Y85.84 E.47914
G1 X108.649 Y85.84 E.01558
G1 X95.725 Y98.765 E.47914
G1 X95.13 Y98.765 E.01558
G1 X108.054 Y85.84 E.47914
G1 X107.46 Y85.84 E.01558
G1 X94.536 Y98.765 E.47914
G1 X93.941 Y98.765 E.01558
G1 X106.865 Y85.84 E.47914
G1 X106.271 Y85.84 E.01558
G1 X93.347 Y98.765 E.47914
G1 X92.752 Y98.765 E.01558
G1 X105.676 Y85.84 E.47914
G1 X105.082 Y85.84 E.01558
G1 X92.158 Y98.765 E.47914
G1 X91.563 Y98.765 E.01558
G1 X104.488 Y85.84 E.47914
G1 X103.893 Y85.84 E.01558
G1 X90.969 Y98.765 E.47914
G1 X90.374 Y98.765 E.01558
G1 X103.299 Y85.84 E.47914
G1 X102.704 Y85.84 E.01558
G1 X89.78 Y98.765 E.47914
G1 X89.185 Y98.765 E.01558
G1 X102.11 Y85.84 E.47914
G1 X101.515 Y85.84 E.01558
G1 X88.591 Y98.765 E.47914
G1 X87.996 Y98.765 E.01558
G1 X100.921 Y85.84 E.47914
G1 X100.326 Y85.84 E.01558
G1 X87.402 Y98.765 E.47914
G1 X86.807 Y98.765 E.01558
G1 X99.732 Y85.84 E.47914
G1 X99.137 Y85.84 E.01558
G1 X86.213 Y98.765 E.47914
G1 X85.619 Y98.765 E.01558
G1 X98.543 Y85.84 E.47914
G1 X97.948 Y85.84 E.01558
G1 X85.024 Y98.765 E.47914
G1 X84.43 Y98.765 E.01558
G1 X97.354 Y85.84 E.47914
G1 X96.759 Y85.84 E.01558
G1 X83.835 Y98.765 E.47914
G1 X83.241 Y98.765 E.01558
G1 X96.165 Y85.84 E.47914
G1 X95.57 Y85.84 E.01558
G1 X82.646 Y98.765 E.47914
G1 X82.052 Y98.765 E.01558
G1 X94.976 Y85.84 E.47914
G1 X94.381 Y85.84 E.01558
G1 X81.457 Y98.765 E.47914
G1 X80.863 Y98.765 E.01558
G1 X93.787 Y85.84 E.47914
G1 X93.192 Y85.84 E.01558
G1 X80.268 Y98.765 E.47914
G1 X79.674 Y98.765 E.01558
G1 X92.598 Y85.84 E.47914
G1 X92.003 Y85.84 E.01558
G1 X79.079 Y98.765 E.47914
G1 X78.485 Y98.765 E.01558
G1 X91.409 Y85.84 E.47914
G1 X90.815 Y85.84 E.01558
G1 X77.89 Y98.765 E.47914
G1 X77.296 Y98.765 E.01558
G1 X90.22 Y85.84 E.47914
G1 X89.626 Y85.84 E.01558
G1 X76.701 Y98.765 E.47914
G1 X76.107 Y98.765 E.01558
G1 X89.031 Y85.84 E.47914
G1 X88.437 Y85.84 E.01558
