; generated by PrusaSlicer 2.4.2+win64 on 2022-06-04 at 20:04:17 UTC


;
;

;
;
; 

; external perimeters extrusion width = 0.45mm
; perimeters extrusion width = 0.45mm
; infill extrusion width = 0.45mm
; solid infill extrusion width = 0.45mm
; top infill extrusion width = 0.40mm
; first layer extrusion width = 0.42mm

; external perimeters extrusion width = 0.45mm
; perimeters extrusion width = 0.45mm
; infill extrusion width = 0.45mm
; solid infill extrusion width = 0.45mm
; top infill extrusion width = 0.40mm
; first layer extrusion width = 0.42mm

; external perimeters extrusion width = 0.45mm
; perimeters extrusion width = 0.45mm
; infill extrusion width = 0.45mm
; solid infill extrusion width = 0.45mm
; top infill extrusion width = 0.40mm
; first layer extrusion width = 0.42mm

; external perimeters extrusion width = 0.45mm
; perimeters extrusion width = 0.45mm
; infill extrusion width = 0.45mm
; solid infill extrusion width = 0.45mm
; top infill extrusion width = 0.40mm
; first layer extrusion width = 0.42mm

; external perimeters extrusion width = 0.45mm
; perimeters extrusion width = 0.45mm
; infill extrusion width = 0.45mm
; solid infill extrusion width = 0.45mm
; top infill extrusion width = 0.40mm
; first layer extrusion width = 0.42mm

; external perimeters extrusion width = 0.45mm
; perimeters extrusion width = 0.45mm
; infill extrusion width = 0.45mm
; solid infill extrusion width = 0.45mm
; top infill extrusion width = 0.40mm
; first layer extrusion width = 0.42mm

; external perimeters extrusion width = 0.45mm
; perimeters extrusion width = 0.45mm
; infill extrusion width = 0.45mm
; solid infill extrusion width = 0.45mm
; top infill extrusion width = 0.40mm
; first layer extrusion width = 0.42mm

; external perimeters extrusion width = 0.45mm
; perimeters extrusion width = 0.45mm
; infill extrusion width = 0.45mm
; solid infill extrusion width = 0.45mm
; top infill extrusion width = 0.40mm
; first layer extrusion width = 0.42mm

M73 P0 R6
M201 X2500 Y2500 Z400 E5000 ; sets maximum accelerations, mm/sec^2
M203 X180 Y180 Z12 E80 ; sets maximum feedrates, mm / sec
M204 P1250 R1250 T2500 ; sets acceleration (P, T) and retract acceleration (R), mm/sec^2
M205 X8.00 Y8.00 Z2.00 E10.00 ; sets the jerk limits, mm/sec
M205 S0 T0 ; sets the minimum extruding and travel feed rate, mm/sec
M107
;TYPE:Custom
M862.3 P "MINI" ; printer model check
G90 ; use absolute coordinates
M83 ; extruder relative mode
M104 S170 ; set extruder temp for bed leveling
M140 S60 ; set bed temp
M109 R170 ; wait for bed leveling temp
M190 S60 ; wait for bed temp
M204 T1250 ; set travel acceleration
G28 ; home all without mesh bed level
G29 ; mesh bed leveling 
M204 T2500 ; restore travel acceleration
M104 S215 ; set extruder temp
G92 E0
G1 Y-2 X179 F2400
G1 Z3 F720
M109 S215 ; wait for extruder temp

; intro line
M73 P1 R6
G1 X170 F1000
G1 Z0.2 F720
G1 X110 E8 F900
G1 X40 E10 F700
G92 E0

M221 S95 ; set flow
G21 ; set units to millimeters
G90 ; use absolute coordinates
M83 ; use relative distances for extrusion
M900 K0.2 ; Filament gcode LA 1.5
; ; Filament gcode LA 1.0
M107
;LAYER_CHANGE
;Z:0.2
;HEIGHT:0.2
;BEFORE_LAYER_CHANGE
G92 E0.0
;0.2


M73 P2 R6
G1 E-3.2 F4200
M73 P4 R6
G1 Z.2 F720
;AFTER_LAYER_CHANGE
;0.2
G1 Z.4
G1 X75.718 Y71.111 F9000
G1 Z.2 F720
M73 P4 R5
G1 E3.2 F2400
M204 P800
;TYPE:Skirt/Brim
;WIDTH:0.42
G1 F1200
G1 X76.593 Y70.233 E.03883
G1 X79.181 Y68.739 E.09373
G1 X80.36 Y68.42 E.03827
G1 X101.12 Y68.33 E.65093
G1 X102.319 Y68.649 E.03889
G1 X104.908 Y70.143 E.09373
G1 X105.834 Y71.117 E.04214
G1 X114.264 Y87.548 E.57901
G1 X114.526 Y88.633 E.035
M73 P5 R5
G1 X114.526 Y91.622 E.09373
G1 X114.126 Y92.942 E.04324
G1 X103.259 Y109.132 E.61137
G1 X94.405 Y117.869 E.39002
G1 X93.924 Y118.236 E.01897
G1 X91.335 Y119.73 E.09373
G1 X90.007 Y120.045 E.04278
G1 X88.958 Y119.73 E.03435
G1 X86.369 Y118.236 E.09373
G1 X85.827 Y117.806 E.02169
G1 X76.558 Y107.891 E.42556
G1 X66.773 Y92.243 E.57868
G1 X66.411 Y90.982 E.04111
M73 P6 R5
G1 X66.411 Y87.993 E.09373
G1 X66.725 Y86.812 E.03833
G1 X75.689 Y71.163 E.56545
M204 P1000
; printing object handlehexinsert id:4 copy 0
G1 E-2.24 F4200
;WIPE_START
G1 F7200
G1 X76.593 Y70.233 E-.71842
G1 X76.895 Y70.059 E-.19358
;WIPE_END
G1 E-.048 F4200
G1 Z.4 F720
G1 X78.641 Y72.788 F9000
G1 Z.2 F720
G1 E3.2 F2400
M204 P800
;TYPE:External perimeter
G1 F1200
G1 X80.37 Y71.79 E.06259
G1 X82.099 Y72.788 E.06259
G1 X82.099 Y74.785 E.06259
G1 X80.37 Y75.783 E.06259
G1 X78.641 Y74.785 E.06259
G1 X78.641 Y72.848 E.06071
M204 P1000
G1 X78.441 Y72.442 F9000
G1 X78.191 Y72.529
M204 P800
G1 F1200
G1 X80.37 Y71.271 E.07888
G1 X82.549 Y72.529 E.07888
G1 X82.549 Y75.045 E.07888
G1 X80.37 Y76.303 E.07888
G1 X78.191 Y75.045 E.07888
G1 X78.191 Y72.589 E.077
M204 P1000
G1 X78.591 Y72.529 F9000
G1 X78.419 Y72.66
M204 P800
;TYPE:Gap fill
;WIDTH:0.121078
G1 F1200
G1 X78.434 Y72.648 E.00013
;WIDTH:0.115842
G1 X79.988 Y71.751 E.01087
;WIDTH:0.115844
G1 X80.352 Y71.541 E.00255
;WIDTH:0.121078
G1 X80.37 Y71.534 E.00013
;WIDTH:0.121079
G1 X80.388 Y71.541 E.00013
;WIDTH:0.115843
G1 X80.46 Y71.582 E.0005
;WIDTH:0.115844
G1 X82.306 Y72.648 E.01292
;WIDTH:0.121077
G1 X82.321 Y72.66 E.00013
;WIDTH:0.121078
G1 X82.324 Y72.68 E.00013
;WIDTH:0.115842
G1 X82.324 Y74.894 E.01342
;WIDTH:0.121077
G1 X82.321 Y74.913 E.00013
;WIDTH:0.121078
G1 X82.306 Y74.925 E.00013
;WIDTH:0.115842
G1 X80.388 Y76.032 E.01342
;WIDTH:0.121076
G1 X80.37 Y76.04 E.00013
;WIDTH:0.121077
M73 P7 R5
G1 X80.352 Y76.032 E.00013
;WIDTH:0.115842
G1 X78.434 Y74.925 E.01342
;WIDTH:0.121077
G1 X78.419 Y74.913 E.00013
;WIDTH:0.121078
G1 X78.416 Y74.894 E.00013
;WIDTH:0.115842
G1 X78.416 Y72.72 E.01318
M204 P1000
; stop printing object handlehexinsert id:4 copy 0
; printing object handlehexinsert id:7 copy 0
G1 E-2.24 F4200
;WIPE_START
G1 F7200
G1 X78.434 Y72.648 E-.04109
;WIPE_END
G1 E-.91891 F4200
G1 Z.4 F720
G1 X71.377 Y87.491 F9000
G1 Z.2 F720
G1 E3.2 F2400
M204 P800
;TYPE:External perimeter
;WIDTH:0.42
G1 F1200
G1 X73.106 Y88.49 E.06259
G1 X73.106 Y90.486 E.06259
G1 X71.377 Y91.484 E.06259
G1 X69.648 Y90.486 E.06259
G1 X69.648 Y88.49 E.06259
G1 X71.325 Y87.521 E.06071
M204 P1000
G1 X71.577 Y87.145 F9000
G1 X71.377 Y86.972
M204 P800
G1 F1200
G1 X73.556 Y88.23 E.07888
G1 X73.556 Y90.746 E.07888
G1 X71.377 Y92.004 E.07888
G1 X69.198 Y90.746 E.07888
G1 X69.198 Y88.23 E.07888
G1 X71.325 Y87.002 E.077
M204 P1000
G1 X71.577 Y87.318 F9000
G1 X71.377 Y87.235
M204 P800
;TYPE:Gap fill
;WIDTH:0.121078
G1 F1200
G1 X71.377 Y87.235 E0
;WIDTH:0.121079
G1 X71.395 Y87.242 E.00013
;WIDTH:0.115843
G1 X71.467 Y87.283 E.0005
;WIDTH:0.115844
G1 X73.312 Y88.349 E.01292
;WIDTH:0.121077
G1 X73.328 Y88.361 E.00013
;WIDTH:0.121078
G1 X73.331 Y88.381 E.00013
;WIDTH:0.115842
G1 X73.331 Y90.595 E.01342
;WIDTH:0.121077
G1 X73.328 Y90.614 E.00013
;WIDTH:0.121078
G1 X73.312 Y90.626 E.00013
;WIDTH:0.115842
G1 X71.395 Y91.733 E.01342
;WIDTH:0.121076
G1 X71.377 Y91.741 E.00013
;WIDTH:0.121077
G1 X71.359 Y91.733 E.00013
;WIDTH:0.115842
G1 X69.441 Y90.626 E.01342
;WIDTH:0.121077
G1 X69.426 Y90.614 E.00013
;WIDTH:0.121078
G1 X69.423 Y90.595 E.00013
;WIDTH:0.115842
G1 X69.423 Y88.381 E.01342
;WIDTH:0.121077
G1 X69.426 Y88.361 E.00013
;WIDTH:0.121078
G1 X69.441 Y88.349 E.00013
;WIDTH:0.115842
G1 X70.994 Y87.452 E.01087
;WIDTH:0.115844
G1 X71.324 Y87.262 E.00231
M204 P1000
; stop printing object handlehexinsert id:7 copy 0
; printing object handlehexinsert id:0 copy 0
G1 E-2.24 F4200
;WIPE_START
G1 F7200
G1 X71.377 Y87.235 E-.03318
;WIPE_END
G1 E-.92682 F4200
G1 Z.4 F720
G1 X88.271 Y89.481 F9000
G1 Z.2 F720
G1 E3.2 F2400
M204 P800
;TYPE:External perimeter
;WIDTH:0.42
G1 F1200
G1 X90 Y88.482 E.06259
G1 X91.729 Y89.481 E.06259
G1 X91.729 Y91.477 E.06259
G1 X90 Y92.475 E.06259
G1 X88.271 Y91.477 E.06259
M73 P8 R5
G1 X88.271 Y89.541 E.06071
M204 P1000
G1 X88.071 Y89.134 F9000
G1 X87.821 Y89.221
M204 P800
G1 F1200
G1 X90 Y87.963 E.07888
G1 X92.179 Y89.221 E.07888
G1 X92.179 Y91.737 E.07888
G1 X90 Y92.995 E.07888
G1 X87.821 Y91.737 E.07888
G1 X87.821 Y89.281 E.077
M204 P1000
G1 X88.221 Y89.221 F9000
G1 X88.049 Y89.352
M204 P800
;TYPE:Gap fill
;WIDTH:0.121078
G1 F1200
G1 X88.064 Y89.34 E.00013
;WIDTH:0.115842
G1 X89.618 Y88.443 E.01087
;WIDTH:0.115844
G1 X89.982 Y88.233 E.00255
;WIDTH:0.121078
G1 X90 Y88.226 E.00013
;WIDTH:0.121079
G1 X90.018 Y88.233 E.00013
;WIDTH:0.115843
G1 X90.09 Y88.274 E.0005
;WIDTH:0.115844
G1 X91.936 Y89.34 E.01292
;WIDTH:0.121077
G1 X91.951 Y89.352 E.00013
;WIDTH:0.121078
G1 X91.954 Y89.372 E.00013
;WIDTH:0.115842
G1 X91.954 Y91.586 E.01342
;WIDTH:0.121077
G1 X91.951 Y91.605 E.00013
;WIDTH:0.121078
G1 X91.936 Y91.617 E.00013
;WIDTH:0.115842
G1 X90.018 Y92.724 E.01342
;WIDTH:0.121076
G1 X90 Y92.732 E.00013
;WIDTH:0.121077
G1 X89.982 Y92.724 E.00013
;WIDTH:0.115842
G1 X88.064 Y91.617 E.01342
;WIDTH:0.121077
G1 X88.049 Y91.605 E.00013
;WIDTH:0.121078
G1 X88.046 Y91.586 E.00013
;WIDTH:0.115842
G1 X88.046 Y89.412 E.01318
M204 P1000
; stop printing object handlehexinsert id:0 copy 0
; printing object handlehexinsert id:3 copy 0
G1 E-2.24 F4200
;WIPE_START
G1 F7200
G1 X88.064 Y89.34 E-.04109
;WIPE_END
G1 E-.91891 F4200
G1 Z.4 F720
G1 X81.162 Y103.14 F9000
G1 Z.2 F720
G1 E3.2 F2400
M204 P800
;TYPE:External perimeter
;WIDTH:0.42
G1 F1200
G1 X82.891 Y104.138 E.06259
G1 X82.891 Y106.135 E.06259
G1 X81.162 Y107.133 E.06259
G1 X79.433 Y106.135 E.06259
G1 X79.433 Y104.138 E.06259
G1 X81.11 Y103.17 E.06071
M204 P1000
G1 X81.362 Y102.794 F9000
G1 X81.162 Y102.62
M204 P800
G1 F1200
G1 X83.341 Y103.878 E.07888
G1 X83.341 Y106.394 E.07888
G1 X81.162 Y107.652 E.07888
G1 X78.983 Y106.394 E.07888
G1 X78.983 Y103.878 E.07888
G1 X81.11 Y102.65 E.077
M204 P1000
G1 X81.362 Y102.967 F9000
G1 X81.162 Y102.883
M204 P800
;TYPE:Gap fill
;WIDTH:0.121078
G1 F1200
G1 X81.162 Y102.883 E0
;WIDTH:0.121079
G1 X81.18 Y102.891 E.00013
;WIDTH:0.115843
G1 X81.252 Y102.932 E.0005
;WIDTH:0.115844
G1 X83.098 Y103.998 E.01292
;WIDTH:0.121077
G1 X83.113 Y104.01 E.00013
;WIDTH:0.121078
M73 P9 R5
G1 X83.116 Y104.029 E.00013
;WIDTH:0.115842
G1 X83.116 Y106.243 E.01342
;WIDTH:0.121077
G1 X83.113 Y106.263 E.00013
;WIDTH:0.121078
G1 X83.098 Y106.275 E.00013
;WIDTH:0.115842
G1 X81.18 Y107.382 E.01342
;WIDTH:0.121076
G1 X81.162 Y107.389 E.00013
;WIDTH:0.121077
G1 X81.144 Y107.382 E.00013
;WIDTH:0.115842
G1 X79.226 Y106.275 E.01342
;WIDTH:0.121077
G1 X79.211 Y106.263 E.00013
;WIDTH:0.121078
G1 X79.208 Y106.243 E.00013
;WIDTH:0.115842
G1 X79.208 Y104.029 E.01342
;WIDTH:0.121077
G1 X79.211 Y104.01 E.00013
;WIDTH:0.121078
G1 X79.226 Y103.998 E.00013
;WIDTH:0.115842
G1 X80.78 Y103.101 E.01087
;WIDTH:0.115844
G1 X81.109 Y102.911 E.00231
M204 P1000
; stop printing object handlehexinsert id:3 copy 0
; printing object handlehexinsert id:6 copy 0
G1 E-2.24 F4200
;WIPE_START
G1 F7200
G1 X81.162 Y102.883 E-.03318
;WIPE_END
G1 E-.92682 F4200
G1 Z.4 F720
G1 X88.418 Y113.684 F9000
G1 Z.2 F720
G1 E3.2 F2400
M204 P800
;TYPE:External perimeter
;WIDTH:0.42
G1 F1200
G1 X90.146 Y112.686 E.06259
G1 X91.875 Y113.684 E.06259
G1 X91.875 Y115.681 E.06259
G1 X90.146 Y116.679 E.06259
G1 X88.418 Y115.681 E.06259
G1 X88.418 Y113.744 E.06071
M204 P1000
G1 X88.218 Y113.338 F9000
G1 X87.968 Y113.425
M204 P800
G1 F1200
G1 X90.146 Y112.167 E.07888
G1 X92.325 Y113.425 E.07888
G1 X92.325 Y115.94 E.07888
G1 X90.146 Y117.198 E.07888
G1 X87.968 Y115.94 E.07888
G1 X87.968 Y113.485 E.077
M204 P1000
G1 X88.368 Y113.425 F9000
G1 X88.195 Y113.556
M204 P800
;TYPE:Gap fill
;WIDTH:0.121078
G1 F1200
G1 X88.211 Y113.544 E.00013
;WIDTH:0.115842
G1 X89.764 Y112.647 E.01087
;WIDTH:0.115844
G1 X90.128 Y112.437 E.00255
;WIDTH:0.121078
G1 X90.146 Y112.429 E.00013
;WIDTH:0.121079
G1 X90.165 Y112.437 E.00013
;WIDTH:0.115843
G1 X90.236 Y112.478 E.0005
;WIDTH:0.115844
G1 X92.082 Y113.544 E.01292
;WIDTH:0.121077
G1 X92.098 Y113.556 E.00013
;WIDTH:0.121078
G1 X92.1 Y113.576 E.00013
;WIDTH:0.115842
G1 X92.1 Y115.79 E.01342
;WIDTH:0.121077
G1 X92.098 Y115.809 E.00013
;WIDTH:0.121078
G1 X92.082 Y115.821 E.00013
;WIDTH:0.115842
G1 X90.165 Y116.928 E.01342
;WIDTH:0.121076
G1 X90.146 Y116.936 E.00013
;WIDTH:0.121077
G1 X90.128 Y116.928 E.00013
;WIDTH:0.115842
G1 X88.211 Y115.821 E.01342
;WIDTH:0.121077
G1 X88.195 Y115.809 E.00013
;WIDTH:0.121078
G1 X88.193 Y115.79 E.00013
;WIDTH:0.115842
G1 X88.193 Y113.616 E.01318
M204 P1000
; stop printing object handlehexinsert id:6 copy 0
; printing object handlehexinsert id:2 copy 0
G1 E-2.24 F4200
;WIPE_START
G1 F7200
G1 X88.211 Y113.544 E-.04109
;WIPE_END
G1 E-.91891 F4200
G1 Z.4 F720
G1 X97.271 Y106.943 F9000
G1 Z.2 F720
G1 E3.2 F2400
M204 P800
;TYPE:External perimeter
;WIDTH:0.42
G1 F1200
G1 X97.271 Y104.947 E.06259
G1 X98.73 Y104.105 E.05282
G1 X99 Y103.949 E.00977
M73 P10 R5
G1 X100.729 Y104.947 E.06259
G1 X100.729 Y106.943 E.06259
G1 X99 Y107.941 E.06259
G1 X97.323 Y106.973 E.06071
M204 P1000
G1 X96.871 Y106.943 F9000
G1 X96.821 Y107.203
M204 P800
G1 F1200
G1 X96.821 Y104.687 E.07888
G1 X99 Y103.429 E.07888
G1 X101.179 Y104.687 E.07888
G1 X101.179 Y107.203 E.07888
G1 X99 Y108.461 E.07888
G1 X96.873 Y107.233 E.077
M204 P1000
G1 X97.021 Y106.857 F9000
G1 X97.049 Y107.072
M204 P800
;TYPE:Gap fill
;WIDTH:0.121077
G1 F1200
G1 X97.049 Y107.072 E0
;WIDTH:0.121078
G1 X97.046 Y107.052 E.00013
;WIDTH:0.115842
G1 X97.046 Y104.838 E.01342
;WIDTH:0.121077
G1 X97.049 Y104.818 E.00013
;WIDTH:0.121078
G1 X97.064 Y104.806 E.00013
;WIDTH:0.115842
G1 X98.618 Y103.91 E.01087
;WIDTH:0.115844
G1 X98.982 Y103.699 E.00255
;WIDTH:0.121078
G1 X99 Y103.692 E.00013
;WIDTH:0.121079
G1 X99.018 Y103.699 E.00013
;WIDTH:0.115843
G1 X99.09 Y103.741 E.0005
;WIDTH:0.115844
G1 X100.936 Y104.806 E.01292
;WIDTH:0.121077
G1 X100.951 Y104.818 E.00013
;WIDTH:0.121078
G1 X100.954 Y104.838 E.00013
;WIDTH:0.115842
G1 X100.954 Y107.052 E.01342
;WIDTH:0.121077
G1 X100.951 Y107.072 E.00013
;WIDTH:0.121078
G1 X100.936 Y107.084 E.00013
;WIDTH:0.115842
G1 X99.018 Y108.191 E.01342
;WIDTH:0.121076
G1 X99 Y108.198 E.00013
;WIDTH:0.121077
G1 X98.982 Y108.191 E.00013
;WIDTH:0.115842
G1 X97.099 Y107.104 E.01318
M204 P1000
; stop printing object handlehexinsert id:2 copy 0
; printing object handlehexinsert id:1 copy 0
G1 E-2.24 F4200
;WIPE_START
G1 F7200
G1 X97.049 Y107.072 E-.03319
;WIPE_END
G1 E-.92681 F4200
G1 Z.4 F720
G1 X107.831 Y91.125 F9000
G1 Z.2 F720
G1 E3.2 F2400
M204 P800
;TYPE:External perimeter
;WIDTH:0.42
G1 F1200
G1 X107.831 Y89.129 E.06259
G1 X109.29 Y88.287 E.05282
G1 X109.56 Y88.131 E.00977
G1 X111.289 Y89.129 E.06259
G1 X111.289 Y91.125 E.06259
G1 X109.56 Y92.124 E.06259
G1 X107.883 Y91.155 E.06071
M204 P1000
G1 X107.431 Y91.125 F9000
G1 X107.381 Y91.385
M204 P800
G1 F1200
G1 X107.381 Y88.869 E.07888
G1 X109.56 Y87.611 E.07888
G1 X111.739 Y88.869 E.07888
G1 X111.739 Y91.385 E.07888
G1 X109.56 Y92.643 E.07888
G1 X107.433 Y91.415 E.077
M204 P1000
M73 P11 R5
G1 X107.581 Y91.039 F9000
G1 X107.609 Y91.254
M204 P800
;TYPE:Gap fill
;WIDTH:0.121077
G1 F1200
G1 X107.609 Y91.254 E0
;WIDTH:0.121078
G1 X107.606 Y91.234 E.00013
;WIDTH:0.115842
G1 X107.606 Y89.02 E.01342
;WIDTH:0.121077
G1 X107.609 Y89.001 E.00013
;WIDTH:0.121078
G1 X107.624 Y88.989 E.00013
;WIDTH:0.115842
G1 X109.177 Y88.092 E.01087
;WIDTH:0.115844
G1 X109.542 Y87.882 E.00255
;WIDTH:0.121078
G1 X109.56 Y87.874 E.00013
;WIDTH:0.121079
G1 X109.578 Y87.882 E.00013
;WIDTH:0.115843
G1 X109.649 Y87.923 E.0005
;WIDTH:0.115844
G1 X111.495 Y88.989 E.01292
;WIDTH:0.121077
G1 X111.511 Y89.001 E.00013
;WIDTH:0.121078
G1 X111.514 Y89.02 E.00013
;WIDTH:0.115842
G1 X111.514 Y91.234 E.01342
;WIDTH:0.121077
G1 X111.511 Y91.254 E.00013
;WIDTH:0.121078
G1 X111.495 Y91.266 E.00013
;WIDTH:0.115842
G1 X109.578 Y92.373 E.01342
;WIDTH:0.121076
G1 X109.56 Y92.38 E.00013
;WIDTH:0.121077
G1 X109.542 Y92.373 E.00013
;WIDTH:0.115842
G1 X107.659 Y91.286 E.01318
M204 P1000
; stop printing object handlehexinsert id:1 copy 0
; printing object handlehexinsert id:5 copy 0
G1 E-2.24 F4200
;WIPE_START
G1 F7200
G1 X107.609 Y91.254 E-.03319
;WIPE_END
G1 E-.92681 F4200
G1 Z.4 F720
G1 X101.13 Y75.693 F9000
G1 Z.2 F720
G1 E3.2 F2400
M204 P800
