; generated by PrusaSlicer 2.4.2+win64 on 2022-07-30 at 22:20:56 UTC


;
;

;
;
; 

; external perimeters extrusion width = 0.45mm
; perimeters extrusion width = 0.45mm
; infill extrusion width = 0.45mm
; solid infill extrusion width = 0.45mm
; top infill extrusion width = 0.40mm
; first layer extrusion width = 0.42mm

M73 P0 R24
M201 X2500 Y2500 Z400 E5000 ; sets maximum accelerations, mm/sec^2
M203 X180 Y180 Z12 E80 ; sets maximum feedrates, mm / sec
M204 P1250 R1250 T2500 ; sets acceleration (P, T) and retract acceleration (R), mm/sec^2
M205 X8.00 Y8.00 Z2.00 E10.00 ; sets the jerk limits, mm/sec
M205 S0 T0 ; sets the minimum extruding and travel feed rate, mm/sec
M107
;TYPE:Custom
M862.3 P "MINI" ; printer model check
G90 ; use absolute coordinates
M83 ; extruder relative mode
M104 S170 ; set extruder temp for bed leveling
M140 S85 ; set bed temp
M109 R170 ; wait for bed leveling temp
M190 S85 ; wait for bed temp
M204 T1250 ; set travel acceleration
G28 ; home all without mesh bed level
G29 ; mesh bed leveling 
M204 T2500 ; restore travel acceleration
M104 S240 ; set extruder temp
G92 E0
G1 Y-2 X179 F2400
G1 Z3 F720
M109 S240 ; wait for extruder temp

; intro line
G1 X170 F1000
G1 Z0.2 F720
G1 X110 E8 F900
G1 X40 E10 F700
G92 E0

M221 S95 ; set flow
G21 ; set units to millimeters
G90 ; use absolute coordinates
M83 ; use relative distances for extrusion
M900 K0.2 ; Filament gcode
M107
;LAYER_CHANGE
;Z:0.2
;HEIGHT:0.2
;BEFORE_LAYER_CHANGE
G92 E0.0
;0.2


G1 E-3.2 F2400
M73 P1 R24
G1 Z.2 F720
;AFTER_LAYER_CHANGE
;0.2
G1 Z.4
G1 X84.564 Y79.03 F9000
G1 Z.2 F720
G1 E3.2 F1500
M204 P800
;TYPE:Skirt/Brim
;WIDTH:0.42
G1 F1200
G1 X85.309 Y78.59 E.02715
G1 X86.211 Y78.217 E.03058
G1 X87.409 Y77.979 E.03831
G1 X92.591 Y77.979 E.16247
G1 X93.787 Y78.216 E.03825
G1 X94.687 Y78.589 E.03055
G1 X95.941 Y79.534 E.04923
G1 X96.383 Y80.288 E.02739
G1 X96.754 Y81.185 E.03046
G1 X96.991 Y82.373 E.03797
G1 X96.992 Y87.46 E.1595
G1 X96.757 Y88.649 E.03801
G1 X96.382 Y89.556 E.03077
G1 X95.436 Y90.81 E.04923
G1 X94.691 Y91.25 E.02715
G1 X93.789 Y91.623 E.03058
G1 X92.591 Y91.861 E.03831
G1 X87.409 Y91.861 E.16247
G1 X86.215 Y91.624 E.03819
G1 X85.313 Y91.251 E.03061
G1 X84.059 Y90.306 E.04923
G1 X83.617 Y89.553 E.02738
G1 X83.246 Y88.655 E.03046
G1 X83.009 Y87.467 E.03797
G1 X83.008 Y82.38 E.1595
G1 X83.243 Y81.191 E.03801
G1 X83.618 Y80.284 E.03078
G1 X84.527 Y79.078 E.04735
M204 P1000
G1 X84.922 Y79.472 F9000
M204 P800
G1 F1200
G1 X85.454 Y78.939 E.02363
G1 X86.355 Y78.565 E.03057
G1 X87.409 Y78.356 E.03369
G1 X92.591 Y78.356 E.16247
G1 X93.643 Y78.565 E.03364
G1 X94.543 Y78.938 E.03054
G1 X96.035 Y80.431 E.0662
G1 X96.405 Y81.329 E.03046
G1 X96.614 Y82.374 E.03339
G1 X96.615 Y87.46 E.15947
G1 X96.408 Y88.506 E.03343
G1 X96.033 Y89.412 E.03074
G1 X94.546 Y90.901 E.066
G1 X93.645 Y91.275 E.03057
G1 X92.591 Y91.484 E.03369
G1 X87.409 Y91.484 E.16247
G1 X86.359 Y91.276 E.03359
G1 X85.457 Y90.903 E.03059
G1 X83.965 Y89.409 E.06619
G1 X83.595 Y88.511 E.03046
G1 X83.386 Y87.466 E.0334
G1 X83.385 Y82.38 E.15947
G1 X83.592 Y81.334 E.03343
G1 X83.967 Y80.428 E.03074
G1 X84.879 Y79.514 E.04049
M204 P1000
G1 X85.126 Y79.761 F9000
M204 P800
G1 F1200
G1 X85.599 Y79.287 E.02099
G1 X86.499 Y78.914 E.03056
G1 X87.409 Y78.733 E.02908
G1 X92.591 Y78.733 E.16247
G1 X93.499 Y78.913 E.02904
G1 X94.399 Y79.286 E.03053
G1 X95.686 Y80.575 E.05713
G1 X96.057 Y81.473 E.03046
G1 X96.237 Y82.375 E.02882
G1 X96.238 Y87.46 E.15945
G1 X96.059 Y88.363 E.02886
G1 X95.685 Y89.268 E.0307
G1 X94.401 Y90.553 E.05696
G1 X93.501 Y90.926 E.03056
G1 X92.591 Y91.107 E.02908
G1 X87.409 Y91.107 E.16247
G1 X86.502 Y90.927 E.02899
G1 X85.601 Y90.554 E.03058
G1 X84.314 Y89.265 E.05713
G1 X83.943 Y88.367 E.03046
G1 X83.763 Y87.465 E.02883
G1 X83.762 Y82.38 E.15945
G1 X83.94 Y81.477 E.02886
G1 X84.315 Y80.572 E.0307
G1 X85.083 Y79.803 E.03409
M204 P1000
; printing object rustlerbatteryhinge id:0 copy 0
G1 E-2.24 F2400
;WIPE_START
G1 F7200
G1 X85.599 Y79.287 E-.23099
G1 X86.499 Y78.914 E-.30861
G1 X87.409 Y78.733 E-.29371
G1 X87.657 Y78.733 E-.07869
;WIPE_END
G1 E-.048 F2400
G1 Z.4 F720
G1 X88.692 Y82.658 F9000
G1 Z.2 F720
G1 E3.2 F1500
M204 P800
;TYPE:Perimeter
G1 F1200
G1 X91.308 Y82.658 E.08201
G1 X92.614 Y84.92 E.08192
G1 X91.308 Y87.183 E.08192
G1 X88.692 Y87.183 E.08201
G1 X87.386 Y84.92 E.08192
G1 X88.662 Y82.709 E.08004
M204 P1000
G1 X88.91 Y83.035 F9000
M204 P800
G1 F1200
G1 X91.09 Y83.035 E.06836
G1 X92.179 Y84.92 E.06826
G1 X91.09 Y86.805 E.06826
G1 X88.91 Y86.805 E.06836
G1 X87.821 Y84.92 E.06826
G1 X88.88 Y83.087 E.06638
M204 P1000
G1 X89.128 Y83.412 F9000
M204 P800
;TYPE:External perimeter
G1 F1200
G1 X90.872 Y83.412 E.05471
G1 X91.743 Y84.92 E.05461
G1 X90.872 Y86.428 E.05461
G1 X89.128 Y86.428 E.05471
G1 X88.257 Y84.92 E.05461
G1 X89.098 Y83.464 E.05273
M204 P1000
G1 X89.128 Y83.012 F9000
G1 E-2.24 F2400
;WIPE_START
G1 F7200
G1 X90.872 Y83.412 E-.5623
G1 X91.425 Y84.368 E-.3497
;WIPE_END
G1 E-.048 F2400
G1 Z.4 F720
G1 X87.442 Y82.373 F9000
G1 Z.2 F720
G1 E3.2 F1500
M204 P800
;TYPE:Perimeter
G1 F1200
G1 X87.68 Y82.274 E.00809
G1 X92.319 Y82.274 E.14545
G1 X92.558 Y82.373 E.00809
G1 X92.657 Y82.612 E.00812
G1 X92.657 Y87.228 E.14474
G1 X92.558 Y87.467 E.0081
G1 X92.32 Y87.566 E.00809
G1 X87.681 Y87.566 E.14545
G1 X87.442 Y87.467 E.00809
G1 X87.343 Y87.228 E.00812
G1 X87.343 Y82.612 E.14474
G1 X87.419 Y82.428 E.00622
M204 P1000
G1 X87.153 Y82.084 F9000
M204 P800
G1 F1200
G1 X87.605 Y81.897 E.01534
G1 X92.394 Y81.897 E.15015
G1 X92.846 Y82.084 E.01533
G1 X93.034 Y82.537 E.01537
G1 X93.034 Y87.303 E.14944
G1 X92.847 Y87.756 E.01535
G1 X92.395 Y87.943 E.01534
G1 X87.606 Y87.943 E.15015
G1 X87.154 Y87.756 E.01534
G1 X86.966 Y87.303 E.01537
G1 X86.966 Y82.537 E.14944
G1 X87.13 Y82.14 E.01346
M204 P1000
G1 X86.865 Y81.796 F9000
M204 P800
;TYPE:External perimeter
G1 F1200
G1 X87.53 Y81.52 E.02259
G1 X92.469 Y81.52 E.15486
G1 X93.135 Y81.796 E.02258
G1 X93.411 Y82.489 E.02339
G1 X93.411 Y87.378 E.15332
G1 X93.135 Y88.044 E.02259
G1 X92.47 Y88.32 E.02259
G1 X87.531 Y88.32 E.15486
M73 P1 R23
G1 X86.865 Y88.044 E.02258
M73 P2 R23
G1 X86.589 Y87.378 E.02261
G1 X86.589 Y82.462 E.15415
G1 X86.842 Y81.851 E.02071
M204 P1000
G1 X87.249 Y81.906 F9000
G1 E-2.24 F2400
;WIPE_START
G1 F7200
G1 X87.53 Y81.52 E-.24199
G1 X89.646 Y81.52 E-.67001
;WIPE_END
G1 E-.048 F2400
G1 Z.4 F720
G1 X87.956 Y82.387 F9000
G1 Z.2 F720
G1 E3.2 F1500
M204 P800
;TYPE:Solid infill
;WIDTH:0.426043
G1 F1200
G1 X88.315 Y82.746 E.01615
G1 X88.116 Y83.089 E.01264
G1 X87.646 Y82.619 E.02118
G1 X87.626 Y82.668 E.00168
G1 X87.626 Y83.141 E.01506
G1 X87.918 Y83.433 E.01316
G1 X87.72 Y83.776 E.01264
G1 X87.456 Y83.513 E.01187
M204 P1000
G1 E-2.24 F2400
;WIPE_START
G1 F7200
G1 X87.72 Y83.776 E-.11795
G1 X87.918 Y83.433 E-.1256
G1 X87.626 Y83.141 E-.13079
G1 X87.626 Y82.668 E-.14972
G1 X87.646 Y82.619 E-.01673
G1 X88.116 Y83.089 E-.21056
G1 X88.315 Y82.746 E-.1256
G1 X88.236 Y82.667 E-.03506
;WIPE_END
G1 E-.048 F2400
G1 Z.4 F720
G1 X88.609 Y87.453 F9000
G1 Z.2 F720
G1 E3.2 F1500
M204 P800
;WIDTH:0.495415
G1 F1200
G1 X87.626 Y86.469 E.05233
G1 X87.626 Y87.109 E.02408
G1 X87.969 Y87.453 E.01828
M204 P1000
G1 E-2.24 F2400
;WIPE_START
G1 F7200
G1 X87.626 Y87.109 E-.15382
G1 X87.626 Y86.469 E-.20264
G1 X88.609 Y87.453 E-.4404
;WIPE_END
G1 E-.16313 F2400
G1 Z.4 F720
G1 X92.544 Y86.327 F9000
G1 Z.2 F720
G1 E3.2 F1500
M204 P800
;WIDTH:0.426043
G1 F1200
G1 X92.28 Y86.064 E.01187
G1 X92.082 Y86.407 E.01264
G1 X92.374 Y86.7 E.01316
G1 X92.374 Y87.172 E.01506
G1 X92.354 Y87.221 E.00169
G1 X91.884 Y86.751 E.02118
G1 X91.685 Y87.094 E.01264
G1 X92.044 Y87.453 E.01614
M204 P1000
G1 E-2.24 F2400
;WIPE_START
G1 F7200
G1 X91.685 Y87.094 E-.16046
G1 X91.884 Y86.751 E-.1256
G1 X92.354 Y87.221 E-.21056
G1 X92.374 Y87.172 E-.01676
G1 X92.374 Y86.7 E-.14967
G1 X92.082 Y86.407 E-.13081
G1 X92.268 Y86.084 E-.11813
;WIPE_END
G1 E-.048 F2400
G1 Z.4 F720
G1 X92.544 Y82.823 F9000
G1 Z.2 F720
G1 E3.2 F1500
M204 P800
;WIDTH:0.495415
G1 F1200
G1 X92.263 Y82.557 E.01455
G1 X91.638 Y82.557 E.02354
G1 X92.374 Y83.293 E.03919
G1 X92.374 Y83.933 E.02408
G1 X91.903 Y83.463 E.02504
M204 P1000
; stop printing object rustlerbatteryhinge id:0 copy 0
;LAYER_CHANGE
;Z:0.35
;HEIGHT:0.15
;BEFORE_LAYER_CHANGE
G92 E0.0
;0.35


G1 E-2.24 F2400
;WIPE_START
G1 F7200
G1 X92.374 Y83.933 E-.21074
G1 X92.374 Y83.293 E-.20264
G1 X91.638 Y82.557 E-.32981
G1 X92.171 Y82.557 E-.1688
;WIPE_END
G1 E-.048 F2400
G1 Z.4 F720
;AFTER_LAYER_CHANGE
;0.35
M104 S250 ; set temperature
M140 S90 ; set bed temperature
G1 X93.061 Y78.072 F9000
G1 Z.35 F720
G1 E3.2 F1500
;TYPE:Skirt/Brim
;WIDTH:0.42
G1 F1274
G1 X93.787 Y78.216 E.0179
G1 X94.687 Y78.589 E.02356
G1 X95.941 Y79.534 E.03797
G1 X96.383 Y80.288 E.02113
G1 X96.754 Y81.185 E.02349
G1 X96.991 Y82.373 E.02928
G1 X96.992 Y87.46 E.12303
G1 X96.757 Y88.649 E.02932
G1 X96.382 Y89.556 E.02374
G1 X95.436 Y90.81 E.03797
G1 X94.691 Y91.25 E.02094
G1 X93.789 Y91.623 E.02359
G1 X92.591 Y91.861 E.02955
G1 X87.409 Y91.861 E.12532
G1 X86.215 Y91.624 E.02946
G1 X85.313 Y91.251 E.02361
G1 X84.059 Y90.306 E.03797
G1 X83.617 Y89.553 E.02112
G1 X83.246 Y88.655 E.0235
G1 X83.009 Y87.467 E.02929
G1 X83.008 Y82.38 E.12303
G1 X83.243 Y81.191 E.02932
G1 X83.618 Y80.284 E.02374
G1 X84.564 Y79.03 E.03797
G1 X85.309 Y78.59 E.02094
G1 X86.211 Y78.217 E.02359
G1 X87.409 Y77.979 E.02955
G1 X92.591 Y77.979 E.12532
G1 X93.002 Y78.061 E.01016
G1 X92.93 Y78.423 F9000
G1 F1274
G1 X93.643 Y78.565 E.01757
G1 X94.543 Y78.938 E.02356
G1 X96.035 Y80.431 E.05106
G1 X96.405 Y81.329 E.02349
G1 X96.614 Y82.374 E.02576
G1 X96.615 Y87.46 E.12301
G1 X96.408 Y88.506 E.02579
G1 X96.033 Y89.412 E.02371
G1 X94.546 Y90.901 E.05091
G1 X93.645 Y91.275 E.02358
G1 X92.591 Y91.484 E.02599
G1 X87.409 Y91.484 E.12532
G1 X86.359 Y91.276 E.02591
G1 X85.457 Y90.903 E.0236
G1 X83.965 Y89.409 E.05106
G1 X83.595 Y88.511 E.0235
G1 X83.386 Y87.466 E.02576
G1 X83.385 Y82.38 E.12301
G1 X83.592 Y81.334 E.02579
G1 X83.967 Y80.428 E.02371
G1 X85.454 Y78.939 E.05091
G1 X86.355 Y78.565 E.02358
G1 X87.409 Y78.356 E.02599
G1 X92.591 Y78.356 E.12532
G1 X92.872 Y78.412 E.00693
G1 X92.8 Y78.774 F9000
G1 F1274
G1 X93.499 Y78.913 E.01725
G1 X94.399 Y79.286 E.02355
G1 X95.686 Y80.575 E.04407
G1 X96.057 Y81.473 E.02349
G1 X96.237 Y82.375 E.02223
G1 X96.238 Y87.46 E.12299
G1 X96.059 Y88.363 E.02226
G1 X95.685 Y89.268 E.02368
G1 X94.401 Y90.553 E.04394
G1 X93.501 Y90.926 E.02357
G1 X92.591 Y91.107 E.02243
G1 X87.409 Y91.107 E.12532
G1 X86.502 Y90.927 E.02236
G1 X85.601 Y90.554 E.02359
G1 X84.314 Y89.265 E.04407
G1 X83.943 Y88.367 E.0235
G1 X83.763 Y87.465 E.02224
G1 X83.762 Y82.38 E.12299
G1 X83.94 Y81.477 E.02226
G1 X84.315 Y80.572 E.02368
G1 X85.599 Y79.287 E.04394
G1 X86.499 Y78.914 E.02357
G1 X87.409 Y78.733 E.02243
G1 X92.591 Y78.733 E.12532
G1 X92.741 Y78.763 E.0037
; printing object rustlerbatteryhinge id:0 copy 0
G1 E-2.24 F2400
;WIPE_START
G1 F7200
G1 X93.499 Y78.913 E-.24483
G1 X94.399 Y79.286 E-.30836
G1 X95.199 Y80.088 E-.35881
;WIPE_END
G1 E-.048 F2400
G1 Z.55 F720
G1 X91.248 Y82.761 F9000
G1 Z.35 F720
G1 E3.2 F1500
M204 P800
;TYPE:Perimeter
;WIDTH:0.45
G1 F1274
G1 X92.495 Y84.92 E.06496
G1 X91.248 Y87.079 E.06496
G1 X88.752 Y87.079 E.06504
G1 X87.505 Y84.92 E.06496
G1 X88.752 Y82.761 E.06496
G1 X91.188 Y82.761 E.06347
M204 P1000
G1 X91.007 Y83.179 F9000
M204 P800
G1 F1274
G1 X92.012 Y84.92 E.05239
G1 X91.007 Y86.661 E.05239
G1 X88.993 Y86.661 E.05247
G1 X87.988 Y84.92 E.05239
G1 X88.993 Y83.179 E.05239
G1 X90.947 Y83.179 E.0509
M204 P1000
G1 X90.766 Y83.597 F9000
M204 P800
;TYPE:External perimeter
G1 F1274
G1 X91.53 Y84.92 E.03982
G1 X90.766 Y86.243 E.03982
G1 X89.234 Y86.243 E.0399
G1 X88.47 Y84.92 E.03982
G1 X89.234 Y83.597 E.03982
G1 X90.706 Y83.597 E.03834
M204 P1000
G1 X91.112 Y83.397 F9000
G1 E-2.24 F2400
;WIPE_START
G1 F7200
G1 X91.53 Y84.92 E-.4937
G1 X90.869 Y86.064 E-.4183
;WIPE_END
G1 E-.048 F2400
G1 Z.55 F720
G1 X92.658 Y82.294 F9000
G1 Z.35 F720
G1 E3.2 F1500
M204 P800
;TYPE:Perimeter
G1 F1274
G1 X92.781 Y82.591 E.00837
G1 X92.782 Y87.249 E.12138
G1 X92.659 Y87.546 E.00838
G1 X92.362 Y87.669 E.00838
G1 X87.639 Y87.669 E.12306
G1 X87.342 Y87.546 E.00837
G1 X87.219 Y87.248 E.0084
G1 X87.218 Y87.161 E.00227
G1 X87.218 Y82.591 E.11909
G1 X87.341 Y82.294 E.00838
G1 X87.638 Y82.171 E.00838
G1 X92.361 Y82.171 E.12306
G1 X92.603 Y82.271 E.00681
M204 P1000
G1 X92.978 Y81.974 F9000
M204 P800
G1 F1274
G1 X93.199 Y82.508 E.01505
G1 X93.199 Y87.332 E.12571
G1 X92.978 Y87.866 E.01505
G1 X92.445 Y88.087 E.01505
G1 X87.556 Y88.087 E.12739
G1 X87.022 Y87.866 E.01505
G1 X86.801 Y87.332 E.01507
G1 X86.801 Y87.162 E.00443
G1 X86.801 Y82.508 E.12126
G1 X87.022 Y81.974 E.01506
M73 P3 R23
G1 X87.555 Y81.753 E.01505
G1 X92.445 Y81.753 E.12739
G1 X92.923 Y81.951 E.01349
M204 P1000
G1 X93.298 Y81.654 F9000
M204 P800
;TYPE:External perimeter
G1 F1274
G1 X93.617 Y82.425 E.02172
G1 X93.617 Y87.415 E.13003
G1 X93.298 Y88.186 E.02173
G1 X92.528 Y88.505 E.02173
G1 X87.472 Y88.505 E.13172
G1 X86.702 Y88.186 E.02173
G1 X86.383 Y87.415 E.02173
G1 X86.383 Y87.162 E.00659
G1 X86.383 Y82.425 E.12344
G1 X86.702 Y81.654 E.02173
G1 X87.472 Y81.335 E.02173
G1 X92.528 Y81.335 E.13172
G1 X93.243 Y81.631 E.02017
M204 P1000
G1 X93.187 Y82.039 F9000
G1 E-2.24 F2400
;WIPE_START
G1 F7200
G1 X93.617 Y82.425 E-.27774
G1 X93.617 Y84.428 E-.63426
;WIPE_END
G1 E-.048 F2400
G1 Z.55 F720
G1 X92.656 Y83.486 F9000
G1 Z.35 F720
G1 E3.2 F1500
;TYPE:Solid infill
;WIDTH:0.525893
G1 F1274
G1 X92.258 Y83.884 E.01731
G1 X92.003 Y83.441 E.01574
G1 X92.468 Y82.976 E.02025
G1 X92.468 Y82.653 E.00995
G1 X92.418 Y82.533 E.00398
G1 X92.299 Y82.484 E.00397
G1 X92.262 Y82.484 E.00115
G1 X91.609 Y83.136 E.0284
G1 X91.319 Y82.466 F9000
;TYPE:Gap fill
;WIDTH:0.204768
G1 F1274
G1 X88.681 Y82.466 E.02839
G1 X88.581 Y82.694 F9000
;TYPE:Solid infill
;WIDTH:0.450613
G1 F1274
G1 X87.532 Y83.743 E.03871
G1 X87.532 Y83.151 E.01544
G1 X88.387 Y82.296 E.03155
G1 E-2.24 F2400
;WIPE_START
G1 F7200
G1 X87.532 Y83.151 E-.38282
G1 X87.532 Y83.743 E-.18738
G1 X88.295 Y82.979 E-.34179
;WIPE_END
G1 E-.048 F2400
G1 Z.55 F720
G1 X88.39 Y86.704 F9000
G1 Z.35 F720
G1 E3.2 F1500
;WIDTH:0.526054
G1 F1274
G1 X87.738 Y87.356 E.02842
G1 X87.701 Y87.356 E.00114
G1 X87.582 Y87.307 E.00398
G1 X87.532 Y87.186 E.00403
G1 X87.532 Y86.864 E.00992
G1 X87.997 Y86.398 E.02027
G1 X87.741 Y85.956 E.01575
G1 X87.344 Y86.353 E.01733
G1 E-2.24 F2400
;WIPE_START
G1 F7200
G1 X87.741 Y85.956 E-.17815
G1 X87.997 Y86.398 E-.1619
G1 X87.532 Y86.864 E-.20845
G1 X87.532 Y87.186 E-.10194
G1 X87.582 Y87.307 E-.0414
G1 X87.701 Y87.356 E-.04089
G1 X87.738 Y87.356 E-.01171
G1 X88.112 Y86.982 E-.16756
;WIPE_END
G1 E-.048 F2400
G1 Z.55 F720
G1 X88.681 Y87.374 F9000
G1 Z.35 F720
G1 E3.2 F1500
;TYPE:Gap fill
;WIDTH:0.204768
G1 F1274
G1 X91.319 Y87.374 E.02839
G1 X91.613 Y87.544 F9000
;TYPE:Solid infill
;WIDTH:0.450582
G1 F1274
G1 X92.468 Y86.689 E.03154
G1 X92.468 Y86.098 E.01544
G1 X91.419 Y87.146 E.0387
; stop printing object rustlerbatteryhinge id:0 copy 0
;LAYER_CHANGE
;Z:0.5
;HEIGHT:0.15
;BEFORE_LAYER_CHANGE
G92 E0.0
;0.5


G1 E-2.24 F2400
;WIPE_START
G1 F7200
G1 X92.468 Y86.098 E-.4697
G1 X92.468 Y86.689 E-.18735
G1 X91.899 Y87.259 E-.25495
;WIPE_END
G1 E-.048 F2400
G1 Z.55 F720
;AFTER_LAYER_CHANGE
;0.5
G1 X91.899 Y91.861 F9000
G1 Z.5 F720
G1 E3.2 F1500
;TYPE:Skirt/Brim
;WIDTH:0.42
G1 F1277
G1 X87.409 Y91.861 E.10858
G1 X86.215 Y91.624 E.02946
G1 X85.313 Y91.251 E.02361
G1 X84.059 Y90.306 E.03797
G1 X83.617 Y89.553 E.02112
G1 X83.246 Y88.655 E.0235
G1 X83.009 Y87.467 E.02929
G1 X83.008 Y82.38 E.12303
G1 X83.243 Y81.191 E.02932
G1 X83.618 Y80.284 E.02374
G1 X84.564 Y79.03 E.03797
G1 X85.309 Y78.59 E.02094
G1 X86.211 Y78.217 E.02359
G1 X87.409 Y77.979 E.02955
G1 X92.591 Y77.979 E.12532
G1 X93.787 Y78.216 E.0295
G1 X94.687 Y78.589 E.02356
G1 X95.941 Y79.534 E.03797
G1 X96.383 Y80.288 E.02113
G1 X96.754 Y81.185 E.02349
G1 X96.991 Y82.373 E.02928
G1 X96.992 Y87.46 E.12303
G1 X96.757 Y88.649 E.02932
G1 X96.382 Y89.556 E.02374
G1 X95.436 Y90.81 E.03797
G1 X94.691 Y91.25 E.02094
G1 X93.789 Y91.623 E.02359
