; generated by PrusaSlicer 2.4.2+win64 on 2022-08-13 at 19:11:49 UTC


;
;

;
;
; 

; external perimeters extrusion width = 0.45mm
; perimeters extrusion width = 0.45mm
; infill extrusion width = 0.45mm
; solid infill extrusion width = 0.45mm
; top infill extrusion width = 0.40mm
; first layer extrusion width = 0.42mm

; external perimeters extrusion width = 0.45mm
; perimeters extrusion width = 0.45mm
; infill extrusion width = 0.45mm
; solid infill extrusion width = 0.45mm
; top infill extrusion width = 0.40mm
; first layer extrusion width = 0.42mm

; external perimeters extrusion width = 0.45mm
; perimeters extrusion width = 0.45mm
; infill extrusion width = 0.45mm
; solid infill extrusion width = 0.45mm
; top infill extrusion width = 0.40mm
; first layer extrusion width = 0.42mm

; external perimeters extrusion width = 0.45mm
; perimeters extrusion width = 0.45mm
; infill extrusion width = 0.45mm
; solid infill extrusion width = 0.45mm
; top infill extrusion width = 0.40mm
; first layer extrusion width = 0.42mm

M73 P0 R109
M201 X2500 Y2500 Z400 E5000 ; sets maximum accelerations, mm/sec^2
M203 X180 Y180 Z12 E80 ; sets maximum feedrates, mm / sec
M204 P1250 R1250 T2500 ; sets acceleration (P, T) and retract acceleration (R), mm/sec^2
M205 X8.00 Y8.00 Z2.00 E10.00 ; sets the jerk limits, mm/sec
M205 S0 T0 ; sets the minimum extruding and travel feed rate, mm/sec
M107
;TYPE:Custom
M862.3 P "MINI" ; printer model check
G90 ; use absolute coordinates
M83 ; extruder relative mode
M104 S170 ; set extruder temp for bed leveling
M140 S60 ; set bed temp
M109 R170 ; wait for bed leveling temp
M190 S60 ; wait for bed temp
M204 T1250 ; set travel acceleration
G28 ; home all without mesh bed level
G29 ; mesh bed leveling 
M204 T2500 ; restore travel acceleration
M104 S215 ; set extruder temp
G92 E0
G1 Y-2 X179 F2400
G1 Z3 F720
M109 S215 ; wait for extruder temp

; intro line
G1 X170 F1000
G1 Z0.2 F720
G1 X110 E8 F900
G1 X40 E10 F700
G92 E0

M221 S95 ; set flow
G21 ; set units to millimeters
G90 ; use absolute coordinates
M83 ; use relative distances for extrusion
M900 K0.2 ; Filament gcode LA 1.5
; ; Filament gcode LA 1.0
M107
;LAYER_CHANGE
;Z:0.2
;HEIGHT:0.2
;BEFORE_LAYER_CHANGE
G92 E0.0
;0.2


G1 E-3.2 F4200
G1 Z.2 F720
;AFTER_LAYER_CHANGE
;0.2
G1 Z.4
G1 X75.626 Y57.516 F9000
G1 Z.2 F720
G1 E3.2 F2400
M204 P800
;TYPE:Skirt/Brim
;WIDTH:0.42
G1 F1200
G1 X76.209 Y56.75 E.03019
G1 X76.797 Y56.402 E.02143
G1 X77.611 Y56.064 E.02763
G1 X78.57 Y55.873 E.03066
G1 X84.019 Y55.902 E.17085
G1 X90.132 Y56.882 E.19413
G1 X90.619 Y57.066 E.01632
G1 X96.316 Y60.019 E.2012
G1 X128.54 Y85.327 E1.28471
G1 X132.955 Y89.72 E.19527
G1 X133.398 Y90.329 E.02361
G1 X136.112 Y95.657 E.18748
G1 X136.331 Y96.343 E.02258
G1 X137.265 Y102.238 E.18715
G1 X137.293 Y107.682 E.17069
G1 X137.121 Y108.571 E.02839
G1 X136.552 Y109.854 E.044
G1 X99.624 Y165.809 E2.10206
G1 X98.577 Y166.684 E.04278
G1 X96.827 Y166.733 E.0549
G1 X95.852 Y166.284 E.03363
G1 X69.447 Y147.297 E1.01973
G1 X68.681 Y146.372 E.03768
G1 X67.162 Y143.116 E.11263
G1 X66.951 Y141.883 E.03923
G1 X74.934 Y59.291 E2.60167
G1 X75.103 Y58.613 E.02191
G1 X75.472 Y57.718 E.03035
G1 X75.589 Y57.564 E.00608
M204 P1000
; printing object rearspikes id:0 copy 0
G1 E-2.24 F4200
;WIPE_START
G1 F7200
G1 X76.209 Y56.75 E-.56678
G1 X76.745 Y56.433 E-.34522
;WIPE_END
G1 E-.048 F4200
G1 Z.4 F720
G1 X78.276 Y59.222 F9000
G1 Z.2 F720
G1 E3.2 F2400
M204 P800
;TYPE:Perimeter
G1 F1200
G1 X78.721 Y59.037 E.01512
G1 X83.588 Y59.037 E.1526
G1 X89.291 Y59.94 E.18104
G1 X94.363 Y62.524 E.17847
G1 X98.419 Y66.573 E.1797
G1 X101.009 Y71.659 E.17893
G1 X101.913 Y77.362 E.18105
G1 X101.913 Y82.223 E.15244
G1 X101.725 Y82.676 E.01536
G1 X101.274 Y82.863 E.01531
G1 X90.157 Y82.863 E.34858
G1 X89.702 Y82.674 E.01544
G1 X89.517 Y82.229 E.01512
G1 X89.517 Y77.748 E.14048
G1 X89.375 Y77.033 E.02287
G1 X88.97 Y76.426 E.02286
G1 X84.524 Y71.981 E.19714
G1 X83.917 Y71.575 E.02287
G1 X83.202 Y71.433 E.02287
G1 X78.727 Y71.433 E.14031
G1 X78.274 Y71.245 E.01536
G1 X78.087 Y70.794 E.01531
G1 X78.087 Y59.677 E.34858
G1 X78.253 Y59.277 E.01356
M204 P1000
G1 X77.987 Y58.933 F9000
M204 P800
;TYPE:External perimeter
G1 F1200
G1 X78.646 Y58.66 E.02237
G1 X83.618 Y58.66 E.15588
G1 X89.409 Y59.577 E.18384
G1 X94.587 Y62.215 E.18221
G1 X98.728 Y66.349 E.18344
G1 X101.372 Y71.541 E.18268
G1 X102.29 Y77.332 E.18385
G1 X102.29 Y82.298 E.15572
G1 X102.014 Y82.965 E.02261
G1 X101.349 Y83.24 E.02256
G1 X90.082 Y83.24 E.35329
G1 X89.413 Y82.963 E.02269
G1 X89.14 Y82.304 E.02237
G1 X89.14 Y77.786 E.14167
G1 X89.019 Y77.18 E.01936
G1 X88.677 Y76.667 E.01935
G1 X84.283 Y72.273 E.19481
G1 X83.77 Y71.931 E.01936
G1 X83.164 Y71.81 E.01936
G1 X78.652 Y71.81 E.1415
G1 X77.985 Y71.534 E.02261
G1 X77.71 Y70.869 E.02256
G1 X77.71 Y59.602 E.35329
G1 X77.964 Y58.989 E.02081
M204 P1000
G1 X78.373 Y59.04 F9000
G1 E-2.24 F4200
;WIPE_START
G1 F7200
G1 X78.646 Y58.66 E-.4195
G1 X79.535 Y58.66 E-.4925
;WIPE_END
G1 E-.048 F4200
G1 Z.4 F720
G1 X93.819 Y62.374 F9000
G1 Z.2 F720
G1 E3.2 F2400
M204 P800
;TYPE:Solid infill
;WIDTH:0.42015
G1 F1200
G1 X98.187 Y66.742 E.19376
G1 X98.741 Y67.83 E.03828
G1 X93.12 Y62.208 E.24935
G1 X92.033 Y61.654 E.03828
G1 X99.295 Y68.917 E.32216
G1 X99.849 Y70.004 E.03828
G1 X90.945 Y61.1 E.39497
G1 X89.858 Y60.546 E.03828
G1 X100.403 Y71.092 E.46778
G1 X100.737 Y71.747 E.02307
G1 X100.777 Y71.999 E.008
G1 X88.951 Y60.173 E.5246
G1 X88.317 Y60.072 E.02013
G1 X100.877 Y72.633 E.55717
G1 X100.978 Y73.267 E.02013
G1 X87.683 Y59.972 E.58975
G1 X87.049 Y59.872 E.02013
G1 X101.078 Y73.901 E.62233
G1 X101.179 Y74.535 E.02013
G1 X86.415 Y59.771 E.6549
G1 X85.781 Y59.671 E.02013
G1 X101.279 Y75.169 E.68748
G1 X101.38 Y75.803 E.02013
G1 X85.147 Y59.57 E.72005
G1 X84.513 Y59.47 E.02013
G1 X101.48 Y76.437 E.75263
G1 X101.58 Y77.071 E.02013
G1 X83.879 Y59.37 E.78521
G1 X83.566 Y59.32 E.00996
G1 X83.296 Y59.32 E.00845
G1 X101.63 Y77.654 E.81328
G1 X101.63 Y78.187 E.01673
G1 X82.763 Y59.32 E.83695
G1 X82.229 Y59.32 E.01673
G1 X101.63 Y78.721 E.86061
G1 X101.63 Y79.254 E.01673
M73 P0 R108
G1 X81.696 Y59.32 E.88428
G1 X81.162 Y59.32 E.01673
G1 X101.63 Y79.788 E.90794
G1 X101.63 Y80.321 E.01673
G1 X80.629 Y59.32 E.93161
G1 X80.095 Y59.32 E.01673
G1 X101.63 Y80.855 E.95527
G1 X101.63 Y81.388 E.01673
G1 X79.562 Y59.32 E.97894
G1 X79.028 Y59.32 E.01673
G1 X101.63 Y81.922 E1.0026
G1 X101.63 Y82.167 E.0077
G1 X101.546 Y82.371 E.00692
G1 X78.578 Y59.403 E1.01885
G1 X78.492 Y59.438 E.00291
M73 P1 R108
G1 X78.371 Y59.73 E.0099
G1 X101.221 Y82.579 E1.01358
G1 X100.688 Y82.58 E.0167
G1 X78.37 Y60.262 E.99002
G1 X78.37 Y60.795 E.01673
G1 X100.155 Y82.58 E.96636
G1 X99.621 Y82.58 E.01673
G1 X78.37 Y61.329 E.94269
G1 X78.37 Y61.862 E.01673
G1 X99.088 Y82.58 E.91903
G1 X98.554 Y82.58 E.01673
G1 X78.37 Y62.396 E.89536
G1 X78.37 Y62.929 E.01673
G1 X98.021 Y82.58 E.8717
G1 X97.487 Y82.58 E.01673
G1 X78.37 Y63.463 E.84803
G1 X78.37 Y63.996 E.01673
G1 X96.954 Y82.58 E.82437
G1 X96.42 Y82.58 E.01673
G1 X78.37 Y64.53 E.8007
G1 X78.37 Y65.063 E.01673
G1 X95.887 Y82.58 E.77704
G1 X95.353 Y82.58 E.01673
G1 X78.37 Y65.597 E.75337
G1 X78.37 Y66.13 E.01673
G1 X83.43 Y71.19 E.22445
G1 X83.23 Y71.15 E.0064
G1 X82.856 Y71.15 E.0117
G1 X78.37 Y66.664 E.19902
G1 X78.37 Y67.197 E.01673
G1 X82.323 Y71.15 E.17535
G1 X81.789 Y71.15 E.01673
G1 X78.37 Y67.731 E.15169
G1 X78.37 Y68.264 E.01673
G1 X81.256 Y71.15 E.12802
G1 X80.722 Y71.15 E.01673
G1 X78.37 Y68.798 E.10436
G1 X78.37 Y69.331 E.01673
G1 X80.189 Y71.15 E.08069
G1 X79.655 Y71.15 E.01673
G1 X78.37 Y69.865 E.05703
G1 X78.37 Y70.398 E.01673
G1 X79.292 Y71.32 E.04089
M204 P1000
G1 E-2.24 F4200
;WIPE_START
G1 F7200
G1 X78.37 Y70.398 E-.7224
G1 X78.37 Y70.056 E-.1896
;WIPE_END
G1 E-.048 F4200
G1 Z.4 F720
G1 X89.544 Y77.304 F9000
G1 Z.2 F720
G1 E3.2 F2400
M204 P800
G1 F1200
G1 X94.82 Y82.58 E.23404
G1 X94.286 Y82.58 E.01673
G1 X89.8 Y78.094 E.19902
G1 X89.8 Y78.627 E.01673
G1 X93.753 Y82.58 E.17535
G1 X93.219 Y82.58 E.01673
G1 X89.8 Y79.161 E.15169
G1 X89.8 Y79.694 E.01673
G1 X92.686 Y82.58 E.12802
G1 X92.152 Y82.58 E.01673
G1 X89.8 Y80.228 E.10436
G1 X89.8 Y80.761 E.01673
G1 X91.619 Y82.58 E.08069
G1 X91.085 Y82.58 E.01673
G1 X89.8 Y81.295 E.05703
G1 X89.8 Y81.828 E.01673
G1 X90.722 Y82.75 E.04089
M204 P1000
; stop printing object rearspikes id:0 copy 0
; printing object rearspikes id:1 copy 0
G1 E-2.24 F4200
;WIPE_START
G1 F7200
G1 X89.8 Y81.828 E-.7224
G1 X89.8 Y81.486 E-.1896
;WIPE_END
G1 E-.048 F4200
G1 Z.4 F720
G1 X110.492 Y84.523 F9000
G1 Z.2 F720
G1 E3.2 F2400
M204 P800
;TYPE:Perimeter
;WIDTH:0.42
G1 F1200
G1 X110.937 Y84.339 E.01512
G1 X115.804 Y84.339 E.1526
G1 X121.507 Y85.242 E.18104
G1 X126.579 Y87.826 E.17847
G1 X130.635 Y91.875 E.1797
G1 X133.225 Y96.96 E.17893
G1 X134.129 Y102.663 E.18105
G1 X134.129 Y107.525 E.15244
G1 X133.941 Y107.978 E.01536
G1 X133.49 Y108.165 E.01531
G1 X122.373 Y108.165 E.34858
G1 X121.918 Y107.976 E.01544
G1 X121.733 Y107.531 E.01512
G1 X121.733 Y103.05 E.14048
G1 X121.591 Y102.335 E.02287
G1 X121.186 Y101.728 E.02286
G1 X116.74 Y97.282 E.19714
G1 X116.133 Y96.877 E.02287
G1 X115.418 Y96.735 E.02287
G1 X110.943 Y96.735 E.14031
G1 X110.49 Y96.547 E.01536
G1 X110.303 Y96.096 E.01531
G1 X110.303 Y84.978 E.34858
G1 X110.469 Y84.579 E.01356
M204 P1000
G1 X110.203 Y84.235 F9000
M204 P800
;TYPE:External perimeter
G1 F1200
G1 X110.862 Y83.962 E.02237
G1 X115.834 Y83.962 E.15588
G1 X121.625 Y84.879 E.18384
G1 X126.803 Y87.517 E.18221
G1 X130.944 Y91.651 E.18344
G1 X133.588 Y96.842 E.18268
G1 X134.506 Y102.634 E.18385
G1 X134.506 Y107.6 E.15572
G1 X134.23 Y108.266 E.02261
G1 X133.566 Y108.542 E.02256
G1 X122.298 Y108.542 E.35329
G1 X121.629 Y108.265 E.02269
G1 X121.356 Y107.606 E.02237
G1 X121.356 Y103.087 E.14167
G1 X121.236 Y102.482 E.01936
G1 X120.893 Y101.969 E.01935
G1 X116.499 Y97.575 E.19481
G1 X115.986 Y97.232 E.01936
G1 X115.381 Y97.112 E.01936
G1 X110.868 Y97.112 E.1415
G1 X110.202 Y96.836 E.02261
G1 X109.926 Y96.171 E.02256
G1 X109.926 Y84.903 E.35329
G1 X110.18 Y84.29 E.02081
M204 P1000
G1 X110.589 Y84.341 F9000
G1 E-2.24 F4200
;WIPE_START
G1 F7200
G1 X110.862 Y83.962 E-.4195
G1 X111.751 Y83.962 E-.4925
;WIPE_END
G1 E-.048 F4200
G1 Z.4 F720
G1 X126.035 Y87.676 F9000
G1 Z.2 F720
G1 E3.2 F2400
M204 P800
;TYPE:Solid infill
;WIDTH:0.42015
G1 F1200
G1 X130.403 Y92.044 E.19376
G1 X130.957 Y93.131 E.03828
G1 X125.336 Y87.51 E.24935
G1 X124.249 Y86.956 E.03828
G1 X131.511 Y94.219 E.32216
G1 X132.065 Y95.306 E.03828
G1 X123.161 Y86.402 E.39497
G1 X122.074 Y85.848 E.03828
G1 X132.619 Y96.393 E.46778
G1 X132.953 Y97.049 E.02307
G1 X132.993 Y97.301 E.008
G1 X121.167 Y85.475 E.5246
G1 X120.533 Y85.374 E.02013
G1 X133.093 Y97.935 E.55717
G1 X133.194 Y98.569 E.02013
G1 X119.899 Y85.274 E.58975
G1 X119.265 Y85.173 E.02013
G1 X133.294 Y99.203 E.62233
G1 X133.395 Y99.837 E.02013
G1 X118.631 Y85.073 E.6549
G1 X117.997 Y84.973 E.02013
G1 X133.495 Y100.47 E.68748
G1 X133.596 Y101.104 E.02013
G1 X117.363 Y84.872 E.72005
G1 X116.73 Y84.772 E.02013
G1 X133.696 Y101.738 E.75263
G1 X133.797 Y102.372 E.02013
G1 X116.096 Y84.671 E.78521
G1 X115.782 Y84.622 E.00996
G1 X115.512 Y84.622 E.00845
G1 X133.846 Y102.956 E.81328
G1 X133.846 Y103.489 E.01673
G1 X114.979 Y84.622 E.83695
G1 X114.445 Y84.622 E.01673
G1 X133.846 Y104.022 E.86061
G1 X133.846 Y104.556 E.01673
G1 X113.912 Y84.622 E.88428
G1 X113.378 Y84.622 E.01673
M73 P1 R107
G1 X133.846 Y105.089 E.90794
G1 X133.846 Y105.623 E.01673
G1 X112.845 Y84.622 E.93161
G1 X112.312 Y84.622 E.01673
G1 X133.846 Y106.156 E.95527
G1 X133.846 Y106.69 E.01673
G1 X111.778 Y84.622 E.97894
G1 X111.245 Y84.622 E.01673
G1 X133.846 Y107.223 E1.0026
G1 X133.846 Y107.469 E.0077
G1 X133.762 Y107.672 E.00692
G1 X110.794 Y84.704 E1.01885
G1 X110.708 Y84.74 E.00291
G1 X110.587 Y85.031 E.0099
G1 X133.437 Y107.881 E1.01358
G1 X132.904 Y107.882 E.0167
G1 X110.586 Y85.564 E.99002
G1 X110.586 Y86.097 E.01673
G1 X132.371 Y107.882 E.96636
G1 X131.837 Y107.882 E.01673
G1 X110.586 Y86.631 E.94269
G1 X110.586 Y87.164 E.01673
M73 P2 R107
G1 X131.304 Y107.882 E.91903
G1 X130.77 Y107.882 E.01673
G1 X110.586 Y87.698 E.89536
G1 X110.586 Y88.231 E.01673
G1 X130.237 Y107.882 E.8717
G1 X129.703 Y107.882 E.01673
G1 X110.586 Y88.764 E.84803
G1 X110.586 Y89.298 E.01673
G1 X129.17 Y107.882 E.82437
G1 X128.636 Y107.882 E.01673
G1 X110.586 Y89.831 E.8007
G1 X110.586 Y90.365 E.01673
G1 X128.103 Y107.882 E.77704
G1 X127.57 Y107.882 E.01673
G1 X110.586 Y90.898 E.75337
G1 X110.586 Y91.432 E.01673
G1 X115.646 Y96.492 E.22445
G1 X115.446 Y96.452 E.0064
G1 X115.073 Y96.452 E.0117
G1 X110.586 Y91.965 E.19902
G1 X110.586 Y92.499 E.01673
G1 X114.539 Y96.452 E.17535
G1 X114.006 Y96.452 E.01673
G1 X110.586 Y93.032 E.15169
G1 X110.586 Y93.566 E.01673
G1 X113.472 Y96.452 E.12802
G1 X112.939 Y96.452 E.01673
G1 X110.586 Y94.099 E.10436
G1 X110.586 Y94.633 E.01673
G1 X112.405 Y96.452 E.08069
G1 X111.872 Y96.452 E.01673
G1 X110.586 Y95.166 E.05703
G1 X110.586 Y95.7 E.01673
G1 X111.508 Y96.622 E.04089
M204 P1000
G1 E-2.24 F4200
;WIPE_START
G1 F7200
G1 X110.586 Y95.7 E-.7224
G1 X110.586 Y95.358 E-.1896
;WIPE_END
G1 E-.048 F4200
G1 Z.4 F720
G1 X121.76 Y102.606 F9000
G1 Z.2 F720
G1 E3.2 F2400
M204 P800
G1 F1200
G1 X127.036 Y107.882 E.23404
G1 X126.503 Y107.882 E.01673
G1 X122.016 Y103.395 E.19902
G1 X122.016 Y103.929 E.01673
G1 X125.969 Y107.882 E.17535
G1 X125.436 Y107.882 E.01673
G1 X122.016 Y104.462 E.15169
G1 X122.016 Y104.996 E.01673
G1 X124.902 Y107.882 E.12802
G1 X124.369 Y107.882 E.01673
G1 X122.016 Y105.529 E.10436
G1 X122.016 Y106.063 E.01673
G1 X123.835 Y107.882 E.08069
G1 X123.302 Y107.882 E.01673
G1 X122.016 Y106.596 E.05703
G1 X122.016 Y107.13 E.01673
G1 X122.938 Y108.052 E.04089
M204 P1000
; stop printing object rearspikes id:1 copy 0
; printing object braavaspikes id:3 copy 0
G1 E-2.24 F4200
;WIPE_START
G1 F7200
G1 X122.016 Y107.13 E-.7224
G1 X122.016 Y106.788 E-.1896
;WIPE_END
G1 E-.048 F4200
G1 Z.4 F720
G1 X104.098 Y110.588 F9000
G1 Z.2 F720
G1 E3.2 F2400
M204 P800
;TYPE:Perimeter
;WIDTH:0.42
G1 F1200
G1 X105.164 Y112.434 E.06684
G1 X105.164 Y139.094 E.8359
G1 X105.036 Y140.552 E.0459
G1 X104.657 Y141.966 E.0459
G1 X97.435 Y161.819 E.66237
G1 X97.271 Y162.322 E.01659
G1 X97.22 Y162.551 E.00734
G1 X97.008 Y162.003 E.01842
G1 X96.573 Y161.062 E.03249
G1 X103.45 Y142.169 E.63041
G1 X103.935 Y140.358 E.05876
G1 X104.098 Y138.491 E.05876
G1 X104.098 Y110.648 E.87299
M204 P1000
G1 X103.951 Y109.58 F9000
M204 P800
;TYPE:External perimeter
G1 F1200
G1 X105.541 Y112.333 E.09968
G1 X105.541 Y139.111 E.83958
G1 X105.409 Y140.618 E.04745
G1 X105.017 Y142.08 E.04745
G1 X97.791 Y161.941 E.66268
G1 X97.635 Y162.422 E.01585
G1 X97.521 Y162.926 E.0162
G1 X97.465 Y163.415 E.01544
G1 X97.276 Y163.899 E.01628
G1 X97.061 Y163.473 E.01495
G1 X96.97 Y163.037 E.01397
G1 X96.836 Y162.584 E.01483
G1 X96.662 Y162.153 E.01458
G1 X96.165 Y161.079 E.03708
G1 X103.09 Y142.055 E.63477
G1 X103.562 Y140.292 E.05721
G1 X103.721 Y138.475 E.05721
G1 X103.721 Y109.58 E.90597
G1 X103.891 Y109.58 E.00534
M204 P1000
G1 X104.087 Y109.956 F9000
G1 E-2.24 F4200
;WIPE_START
G1 F7200
G1 X104.737 Y110.992 E-.912
;WIPE_END
G1 E-.048 F4200
G1 Z.4 F720
G1 X105.051 Y112.721 F9000
G1 Z.2 F720
G1 E3.2 F2400
M204 P800
;TYPE:Solid infill
;WIDTH:0.42004
G1 F1200
G1 X104.381 Y112.052 E.02971
G1 X104.381 Y112.585 E.01672
G1 X104.881 Y113.085 E.02218
G1 X104.881 Y113.618 E.01672
G1 X104.381 Y113.118 E.02218
G1 X104.381 Y113.652 E.01672
G1 X104.881 Y114.152 E.02218
G1 X104.881 Y114.685 E.01672
G1 X104.381 Y114.185 E.02218
G1 X104.381 Y114.718 E.01672
G1 X104.881 Y115.218 E.02218
G1 X104.881 Y115.752 E.01672
G1 X104.381 Y115.251 E.02218
G1 X104.381 Y115.785 E.01672
G1 X104.881 Y116.285 E.02218
G1 X104.881 Y116.818 E.01672
G1 X104.381 Y116.318 E.02218
G1 X104.381 Y116.851 E.01672
G1 X104.881 Y117.352 E.02218
G1 X104.881 Y117.885 E.01672
G1 X104.381 Y117.385 E.02218
G1 X104.381 Y117.918 E.01672
G1 X104.881 Y118.418 E.02218
G1 X104.881 Y118.952 E.01672
G1 X104.381 Y118.451 E.02218
G1 X104.381 Y118.985 E.01672
G1 X104.881 Y119.485 E.02218
G1 X104.881 Y120.018 E.01672
