; generated by PrusaSlicer 2.4.2+win64 on 2022-07-16 at 01:33:22 UTC


;
;

;
;
; 

; external perimeters extrusion width = 0.45mm
; perimeters extrusion width = 0.45mm
; infill extrusion width = 0.45mm
; solid infill extrusion width = 0.45mm
; top infill extrusion width = 0.40mm
; first layer extrusion width = 0.42mm

; external perimeters extrusion width = 0.45mm
; perimeters extrusion width = 0.45mm
; infill extrusion width = 0.45mm
; solid infill extrusion width = 0.45mm
; top infill extrusion width = 0.40mm
; first layer extrusion width = 0.42mm

; external perimeters extrusion width = 0.45mm
; perimeters extrusion width = 0.45mm
; infill extrusion width = 0.45mm
; solid infill extrusion width = 0.45mm
; top infill extrusion width = 0.40mm
; first layer extrusion width = 0.42mm

; external perimeters extrusion width = 0.45mm
; perimeters extrusion width = 0.45mm
; infill extrusion width = 0.45mm
; solid infill extrusion width = 0.45mm
; top infill extrusion width = 0.40mm
; first layer extrusion width = 0.42mm

; external perimeters extrusion width = 0.45mm
; perimeters extrusion width = 0.45mm
; infill extrusion width = 0.45mm
; solid infill extrusion width = 0.45mm
; top infill extrusion width = 0.40mm
; first layer extrusion width = 0.42mm

; external perimeters extrusion width = 0.45mm
; perimeters extrusion width = 0.45mm
; infill extrusion width = 0.45mm
; solid infill extrusion width = 0.45mm
; top infill extrusion width = 0.40mm
; first layer extrusion width = 0.42mm

; external perimeters extrusion width = 0.45mm
; perimeters extrusion width = 0.45mm
; infill extrusion width = 0.45mm
; solid infill extrusion width = 0.45mm
; top infill extrusion width = 0.40mm
; first layer extrusion width = 0.42mm

M73 P0 R21
M201 X2500 Y2500 Z400 E5000 ; sets maximum accelerations, mm/sec^2
M203 X180 Y180 Z12 E80 ; sets maximum feedrates, mm / sec
M204 P1250 R1250 T2500 ; sets acceleration (P, T) and retract acceleration (R), mm/sec^2
M205 X8.00 Y8.00 Z2.00 E10.00 ; sets the jerk limits, mm/sec
M205 S0 T0 ; sets the minimum extruding and travel feed rate, mm/sec
M107
;TYPE:Custom
M862.3 P "MINI" ; printer model check
G90 ; use absolute coordinates
M83 ; extruder relative mode
M104 S170 ; set extruder temp for bed leveling
M140 S85 ; set bed temp
M109 R170 ; wait for bed leveling temp
M190 S85 ; wait for bed temp
M204 T1250 ; set travel acceleration
G28 ; home all without mesh bed level
G29 ; mesh bed leveling 
M204 T2500 ; restore travel acceleration
M104 S240 ; set extruder temp
G92 E0
G1 Y-2 X179 F2400
G1 Z3 F720
M109 S240 ; wait for extruder temp

; intro line
G1 X170 F1000
G1 Z0.2 F720
G1 X110 E8 F900
G1 X40 E10 F700
G92 E0

M221 S95 ; set flow
G21 ; set units to millimeters
G90 ; use absolute coordinates
M83 ; use relative distances for extrusion
M900 K0.2 ; Filament gcode
M107
;LAYER_CHANGE
;Z:0.2
;HEIGHT:0.2
;BEFORE_LAYER_CHANGE
G92 E0.0
;0.2


G1 E-3.2 F2400
M73 P1 R20
G1 Z.2 F720
;AFTER_LAYER_CHANGE
;0.2
G1 Z.4
G1 X61.941 Y73.083 F9000
G1 Z.2 F720
G1 E3.2 F1500
M204 P800
;TYPE:Skirt/Brim
;WIDTH:0.42
G1 F1200
G1 X63.034 Y72.628 E.03713
G1 X63.949 Y72.445 E.02923
G1 X76.867 Y72.448 E.40505
G1 X132.206 Y75.302 E1.73741
G1 X132.998 Y75.482 E.02546
G1 X134.091 Y75.938 E.03713
G1 X135.371 Y77.218 E.05676
G1 X135.826 Y78.311 E.03713
G1 X136.009 Y79.225 E.02923
G1 X135.97 Y81.261 E.06386
G1 X134.272 Y90.536 E.29564
G1 X133.754 Y91.919 E.04629
G1 X108.981 Y134.406 E1.54207
G1 X107.842 Y135.402 E.04743
G1 X106.946 Y135.775 E.03045
G1 X106.032 Y135.958 E.02923
G1 X96.075 Y135.958 E.31219
G1 X72.437 Y134.685 E.74222
G1 X71.651 Y134.506 E.02528
G1 X70.754 Y134.132 E.03045
G1 X69.474 Y132.852 E.05676
G1 X68.957 Y131.47 E.04629
G1 X67.251 Y122.152 E.29699
M73 P2 R20
G1 X60.054 Y78.364 E1.39136
G1 X60.023 Y76.371 E.06252
G1 X60.206 Y75.456 E.02923
G1 X60.661 Y74.363 E.03713
G1 X61.899 Y73.126 E.05488
M204 P1000
; printing object shotglasssizeconnector id:3 copy 0
G1 E-2.24 F2400
;WIPE_START
G1 F7200
G1 X63.034 Y72.628 E-.39266
G1 X63.949 Y72.445 E-.29524
G1 X64.656 Y72.445 E-.2241
;WIPE_END
G1 E-.048 F2400
G1 Z.4 F720
G1 X72.684 Y81.971 F9000
G1 Z.2 F720
G1 E3.2 F1500
M204 P800
;TYPE:Perimeter
G1 F1200
G1 X72.684 Y84.312 E.07342
G1 X73.242 Y85.653 E.04555
G1 X74.583 Y86.212 E.04555
G1 X75.168 Y86.212 E.01832
G1 X75.62 Y86.4 E.01535
G1 X75.808 Y86.852 E.01535
G1 X75.808 Y87.096 E.00765
G1 X75.62 Y87.548 E.01535
G1 X75.168 Y87.736 E.01535
G1 X65.526 Y87.736 E.30232
G1 X65.074 Y87.548 E.01535
G1 X64.885 Y87.096 E.01535
G1 X64.885 Y86.852 E.00765
G1 X65.074 Y86.4 E.01535
G1 X65.526 Y86.212 E.01535
G1 X66.11 Y86.212 E.01832
G1 X67.451 Y85.653 E.04555
G1 X68.009 Y84.312 E.04555
G1 X68.009 Y81.971 E.07342
G1 X67.233 Y81.971 E.02436
G1 X67.186 Y81.924 E.00208
G1 X67.186 Y81.02 E.02832
G1 X66.515 Y79.411 E.05467
G1 X64.906 Y78.74 E.05467
G1 X64.106 Y78.74 E.02508
G1 X63.457 Y78.47 E.02204
G1 X63.187 Y77.821 E.02204
G1 X63.187 Y76.528 E.04055
G1 X63.457 Y75.879 E.02204
G1 X64.106 Y75.609 E.02204
G1 X76.587 Y75.609 E.39134
G1 X77.236 Y75.879 E.02204
G1 X77.506 Y76.528 E.02204
G1 X77.506 Y77.821 E.04055
G1 X77.236 Y78.47 E.02204
G1 X76.587 Y78.74 E.02204
G1 X75.787 Y78.74 E.02508
G1 X74.178 Y79.411 E.05467
G1 X73.507 Y81.02 E.05467
G1 X73.507 Y81.924 E.02832
G1 X73.46 Y81.971 E.00208
G1 X72.744 Y81.971 E.02248
M204 P1000
G1 X73.061 Y82.348 F9000
M204 P800
;TYPE:External perimeter
G1 F1200
G1 X73.061 Y84.237 E.05923
G1 X73.531 Y85.365 E.03832
G1 X74.659 Y85.835 E.03832
G1 X75.243 Y85.835 E.01832
G1 X75.908 Y86.112 E.02259
G1 X76.185 Y86.777 E.02259
G1 X76.185 Y87.172 E.01238
G1 X75.908 Y87.836 E.02259
G1 X75.243 Y88.114 E.02259
G1 X65.45 Y88.114 E.30705
G1 X64.785 Y87.836 E.02259
G1 X64.508 Y87.172 E.02259
G1 X64.508 Y86.777 E.01238
G1 X64.785 Y86.112 E.02259
G1 X65.45 Y85.835 E.02259
G1 X66.034 Y85.835 E.01832
G1 X67.162 Y85.365 E.03832
G1 X67.632 Y84.237 E.03832
G1 X67.632 Y82.348 E.05923
G1 X67.076 Y82.348 E.01743
G1 X66.809 Y82.08 E.01188
G1 X66.809 Y81.096 E.03086
G1 X66.227 Y79.699 E.04743
G1 X64.83 Y79.117 E.04743
G1 X64.031 Y79.117 E.02508
G1 X63.169 Y78.758 E.02927
G1 X62.81 Y77.897 E.02927
G1 X62.81 Y76.453 E.04528
G1 X63.169 Y75.591 E.02927
G1 X64.031 Y75.232 E.02927
G1 X76.663 Y75.232 E.39607
G1 X77.524 Y75.591 E.02927
G1 X77.883 Y76.453 E.02927
G1 X77.883 Y77.897 E.04528
G1 X77.524 Y78.758 E.02927
G1 X76.663 Y79.117 E.02927
G1 X75.863 Y79.117 E.02508
G1 X74.466 Y79.699 E.04743
G1 X73.885 Y81.096 E.04743
G1 X73.885 Y82.08 E.03086
G1 X73.617 Y82.348 E.01188
G1 X73.121 Y82.348 E.01555
M204 P1000
G1 X72.663 Y82.39 F9000
G1 E-2.24 F2400
;WIPE_START
G1 F7200
G1 X73.061 Y84.237 E-.59848
G1 X73.442 Y85.151 E-.31352
;WIPE_END
G1 E-.048 F2400
G1 Z.4 F720
G1 X77.393 Y76.983 F9000
G1 Z.2 F720
G1 E3.2 F1500
M204 P800
;TYPE:Solid infill
;WIDTH:0.421266
G1 F1200
G1 X76.302 Y75.892 E.04856
G1 X75.766 Y75.892 E.01683
G1 X77.223 Y77.349 E.06482
G1 X77.223 Y77.765 E.01309
G1 X77.188 Y77.849 E.00286
G1 X75.231 Y75.892 E.08707
G1 X74.696 Y75.892 E.01683
G1 X77.031 Y78.226 E.10387
G1 X77.02 Y78.254 E.00093
G1 X76.669 Y78.4 E.01194
G1 X74.161 Y75.892 E.11158
G1 X73.626 Y75.892 E.01683
G1 X76.192 Y78.458 E.11415
G1 X75.731 Y78.458 E.01451
G1 X75.679 Y78.479 E.00178
G1 X73.091 Y75.892 E.11512
G1 X72.556 Y75.892 E.01683
G1 X75.301 Y78.637 E.12212
G1 X74.923 Y78.794 E.01287
G1 X72.021 Y75.892 E.12912
G1 X71.486 Y75.892 E.01683
G1 X74.546 Y78.951 E.13612
G1 X74.168 Y79.109 E.01287
G1 X70.951 Y75.892 E.14312
G1 X70.416 Y75.892 E.01683
G1 X73.89 Y79.366 E.15458
G1 X73.733 Y79.744 E.01287
G1 X69.881 Y75.892 E.17138
G1 X69.346 Y75.892 E.01683
M73 P3 R20
G1 X73.576 Y80.122 E.18819
G1 X73.418 Y80.499 E.01287
G1 X68.811 Y75.892 E.20499
G1 X68.276 Y75.892 E.01683
G1 X73.261 Y80.877 E.22179
G1 X73.225 Y80.964 E.00296
G1 X73.225 Y81.376 E.01296
G1 X67.741 Y75.892 E.24399
G1 X67.205 Y75.892 E.01683
G1 X73.001 Y81.688 E.25787
G1 X72.466 Y81.688 E.01683
G1 X66.67 Y75.892 E.25787
G1 X66.135 Y75.892 E.01683
G1 X72.401 Y82.157 E.27876
G1 X72.401 Y82.692 E.01683
G1 X65.6 Y75.892 E.30256
G1 X65.065 Y75.892 E.01683
G1 X72.401 Y83.227 E.32637
G1 X72.401 Y83.763 E.01683
G1 X64.53 Y75.892 E.35017
G1 X64.163 Y75.892 E.01157
G1 X64.044 Y75.941 E.00403
G1 X72.665 Y84.562 E.38355
M204 P1000
G1 E-2.24 F2400
;WIPE_START
G1 F7200
G1 X70.629 Y82.525 E-.912
;WIPE_END
G1 E-.048 F2400
G1 Z.4 F720
G1 X74.963 Y86.325 F9000
G1 Z.2 F720
G1 E3.2 F1500
M204 P800
G1 F1200
G1 X75.509 Y86.871 E.0243
G1 X75.525 Y87.04 E.00532
G1 X75.413 Y87.309 E.0092
G1 X74.334 Y86.23 E.04801
M204 P1000
G1 E-2.24 F2400
;WIPE_START
G1 F7200
G1 X75.413 Y87.309 E-.48327
G1 X75.525 Y87.04 E-.09257
G1 X75.509 Y86.871 E-.05359
G1 X74.963 Y86.325 E-.24458
;WIPE_END
G1 E-.086 F2400
G1 Z.4 F720
G1 X75.178 Y87.61 F9000
G1 Z.2 F720
G1 E3.2 F1500
M204 P800
G1 F1200
G1 X73.731 Y86.163 E.06435
G1 X73.026 Y85.869 E.02404
G1 X72.732 Y85.164 E.02404
G1 X63.671 Y76.102 E.40316
G1 X63.513 Y76.48 E.01287
G1 X65.868 Y78.835 E.10477
G1 X66.731 Y79.195 E.02942
G1 X67.091 Y80.058 E.02942
G1 X74.487 Y87.454 E.32904
G1 X73.952 Y87.454 E.01683
G1 X67.468 Y80.97 E.28844
G1 X67.468 Y81.505 E.01683
G1 X67.821 Y81.858 E.01566
M204 P1000
G1 X68.123 Y82.159 F9000
M204 P800
G1 F1200
G1 X73.417 Y87.454 E.23554
G1 X72.882 Y87.454 E.01683
G1 X68.292 Y82.864 E.20418
G1 X68.292 Y83.399 E.01683
G1 X72.347 Y87.454 E.18038
G1 X71.811 Y87.454 E.01683
G1 X68.292 Y83.934 E.15657
G1 X68.292 Y84.369 E.01366
G1 X68.263 Y84.44 E.00242
G1 X71.276 Y87.454 E.13409
G1 X70.741 Y87.454 E.01683
G1 X68.105 Y84.817 E.11728
G1 X67.948 Y85.195 E.01287
G1 X70.206 Y87.454 E.10048
G1 X69.671 Y87.454 E.01683
G1 X67.79 Y85.573 E.08368
G1 X67.667 Y85.869 E.0101
G1 X67.586 Y85.903 E.00277
G1 X69.136 Y87.454 E.06898
G1 X68.601 Y87.454 E.01683
G1 X67.208 Y86.061 E.06198
G1 X66.83 Y86.218 E.01287
G1 X68.066 Y87.454 E.05498
G1 X67.531 Y87.454 E.01683
G1 X66.453 Y86.375 E.04798
G1 X66.166 Y86.495 E.00976
G1 X66.037 Y86.495 E.00407
G1 X66.996 Y87.454 E.04267
G1 X66.461 Y87.454 E.01683
G1 X65.525 Y86.518 E.04162
G1 X65.29 Y86.616 E.00803
G1 X65.231 Y86.758 E.00484
G1 X66.095 Y87.623 E.03848
M204 P1000
G1 E-2.24 F2400
;WIPE_START
G1 F7200
G1 X65.231 Y86.758 E-.38732
G1 X65.29 Y86.616 E-.04874
G1 X65.525 Y86.518 E-.08083
G1 X66.408 Y87.4 E-.39511
;WIPE_END
G1 E-.048 F2400
G1 Z.4 F720
G1 X65.266 Y78.768 F9000
G1 Z.2 F720
G1 E3.2 F1500
M204 P800
G1 F1200
G1 X63.47 Y76.972 E.07992
G1 X63.47 Y77.507 E.01683
G1 X64.421 Y78.458 E.04231
G1 X64.163 Y78.458 E.00812
G1 X63.688 Y78.26 E.01618
G1 X63.352 Y77.924 E.01492
M204 P1000
; stop printing object shotglasssizeconnector id:3 copy 0
; printing object shotglasssizeconnector id:5 copy 0
G1 E-2.24 F2400
;WIPE_START
G1 F7200
G1 X63.688 Y78.26 E-.1502
G1 X64.163 Y78.458 E-.16285
G1 X64.421 Y78.458 E-.08174
G1 X63.47 Y77.507 E-.42585
M73 P4 R20
G1 X63.47 Y77.218 E-.09135
;WIPE_END
G1 E-.048 F2400
G1 Z.4 F720
G1 X103.39 Y127.028 F9000
G1 Z.2 F720
G1 E3.2 F1500
M204 P800
;TYPE:Perimeter
;WIDTH:0.42
G1 F1200
G1 X103.39 Y129.369 E.07342
G1 X103.949 Y130.71 E.04555
G1 X105.29 Y131.269 E.04555
G1 X105.874 Y131.269 E.01832
G1 X106.326 Y131.457 E.01535
G1 X106.514 Y131.909 E.01535
G1 X106.514 Y132.153 E.00765
G1 X106.326 Y132.605 E.01535
G1 X105.874 Y132.794 E.01535
G1 X96.232 Y132.794 E.30232
G1 X95.78 Y132.605 E.01535
G1 X95.592 Y132.153 E.01535
G1 X95.592 Y131.909 E.00765
G1 X95.78 Y131.457 E.01535
G1 X96.232 Y131.269 E.01535
G1 X96.816 Y131.269 E.01832
G1 X98.157 Y130.71 E.04555
G1 X98.716 Y129.369 E.04555
G1 X98.716 Y127.028 E.07342
G1 X97.939 Y127.028 E.02436
G1 X97.892 Y126.981 E.00208
G1 X97.892 Y126.078 E.02832
G1 X97.222 Y124.468 E.05467
G1 X95.612 Y123.798 E.05467
G1 X94.813 Y123.798 E.02508
G1 X94.164 Y123.527 E.02204
G1 X93.894 Y122.879 E.02204
G1 X93.894 Y121.585 E.04055
G1 X94.164 Y120.937 E.02204
G1 X94.813 Y120.666 E.02204
G1 X107.294 Y120.666 E.39134
G1 X107.942 Y120.937 E.02204
G1 X108.213 Y121.585 E.02204
G1 X108.213 Y122.879 E.04055
G1 X107.942 Y123.527 E.02204
G1 X107.294 Y123.798 E.02204
G1 X106.494 Y123.798 E.02508
G1 X104.885 Y124.468 E.05467
G1 X104.214 Y126.078 E.05467
G1 X104.214 Y126.981 E.02832
G1 X104.167 Y127.028 E.00208
G1 X103.45 Y127.028 E.02248
M204 P1000
G1 X103.767 Y127.405 F9000
M204 P800
;TYPE:External perimeter
G1 F1200
G1 X103.767 Y129.294 E.05923
G1 X104.237 Y130.422 E.03832
G1 X105.365 Y130.892 E.03832
G1 X105.95 Y130.892 E.01832
G1 X106.614 Y131.169 E.02259
G1 X106.892 Y131.834 E.02259
G1 X106.892 Y132.229 E.01238
G1 X106.614 Y132.894 E.02259
G1 X105.95 Y133.171 E.02259
G1 X96.157 Y133.171 E.30705
G1 X95.492 Y132.894 E.02259
G1 X95.215 Y132.229 E.02259
G1 X95.215 Y131.834 E.01238
G1 X95.492 Y131.169 E.02259
G1 X96.157 Y130.892 E.02259
G1 X96.741 Y130.892 E.01832
G1 X97.869 Y130.422 E.03832
G1 X98.339 Y129.294 E.03832
G1 X98.339 Y127.405 E.05923
G1 X97.783 Y127.405 E.01743
G1 X97.515 Y127.137 E.01188
G1 X97.515 Y126.153 E.03086
G1 X96.933 Y124.757 E.04743
G1 X95.537 Y124.175 E.04743
G1 X94.737 Y124.175 E.02508
G1 X93.875 Y123.816 E.02927
G1 X93.516 Y122.954 E.02927
G1 X93.516 Y121.51 E.04528
G1 X93.875 Y120.648 E.02927
G1 X94.737 Y120.289 E.02927
G1 X107.369 Y120.289 E.39607
G1 X108.231 Y120.648 E.02927
G1 X108.59 Y121.51 E.02927
G1 X108.59 Y122.954 E.04528
G1 X108.231 Y123.816 E.02927
G1 X107.369 Y124.175 E.02927
G1 X106.569 Y124.175 E.02508
G1 X105.173 Y124.757 E.04743
G1 X104.591 Y126.153 E.04743
G1 X104.591 Y127.137 E.03086
G1 X104.323 Y127.405 E.01188
G1 X103.827 Y127.405 E.01555
M204 P1000
G1 X103.37 Y127.447 F9000
G1 E-2.24 F2400
;WIPE_START
G1 F7200
G1 X103.767 Y129.294 E-.59848
G1 X104.148 Y130.208 E-.31352
;WIPE_END
G1 E-.048 F2400
G1 Z.4 F720
G1 X108.1 Y122.041 F9000
G1 Z.2 F720
G1 E3.2 F1500
M204 P800
;TYPE:Solid infill
;WIDTH:0.421266
G1 F1200
G1 X107.008 Y120.949 E.04856
G1 X106.473 Y120.949 E.01683
G1 X107.93 Y122.406 E.06482
G1 X107.93 Y122.822 E.01309
G1 X107.895 Y122.906 E.00286
G1 X105.938 Y120.949 E.08707
G1 X105.403 Y120.949 E.01683
G1 X107.738 Y123.284 E.10387
G1 X107.726 Y123.311 E.00093
G1 X107.376 Y123.457 E.01194
G1 X104.868 Y120.949 E.11158
G1 X104.333 Y120.949 E.01683
G1 X106.899 Y123.515 E.11415
G1 X106.437 Y123.515 E.01451
G1 X106.385 Y123.537 E.00178
G1 X103.798 Y120.949 E.11512
G1 X103.263 Y120.949 E.01683
G1 X106.008 Y123.694 E.12212
G1 X105.63 Y123.851 E.01287
G1 X102.728 Y120.949 E.12912
G1 X102.193 Y120.949 E.01683
G1 X105.252 Y124.009 E.13612
G1 X104.874 Y124.166 E.01287
G1 X101.658 Y120.949 E.14312
G1 X101.122 Y120.949 E.01683
G1 X104.597 Y124.424 E.15458
G1 X104.439 Y124.801 E.01287
G1 X100.587 Y120.949 E.17138
G1 X100.052 Y120.949 E.01683
G1 X104.282 Y125.179 E.18819
G1 X104.125 Y125.557 E.01287
G1 X99.517 Y120.949 E.20499
G1 X98.982 Y120.949 E.01683
G1 X103.967 Y125.934 E.22179
G1 X103.931 Y126.021 E.00296
G1 X103.931 Y126.433 E.01296
G1 X98.447 Y120.949 E.24399
G1 X97.912 Y120.949 E.01683
G1 X103.708 Y126.745 E.25787
G1 X103.173 Y126.745 E.01683
G1 X97.377 Y120.949 E.25787
G1 X96.842 Y120.949 E.01683
G1 X103.107 Y127.215 E.27876
G1 X103.107 Y127.75 E.01683
M73 P5 R20
G1 X96.307 Y120.949 E.30256
G1 X95.772 Y120.949 E.01683
G1 X103.107 Y128.285 E.32637
G1 X103.107 Y128.82 E.01683
G1 X95.237 Y120.949 E.35017
G1 X94.869 Y120.949 E.01157
G1 X94.751 Y120.998 E.00403
G1 X103.372 Y129.619 E.38355
M204 P1000
G1 E-2.24 F2400
;WIPE_START
G1 F7200
G1 X101.335 Y127.583 E-.912
;WIPE_END
G1 E-.048 F2400
G1 Z.4 F720
G1 X105.67 Y131.382 F9000
G1 Z.2 F720
G1 E3.2 F1500
M204 P800
G1 F1200
G1 X106.216 Y131.928 E.0243
G1 X106.232 Y132.097 E.00532
G1 X106.119 Y132.367 E.0092
G1 X105.04 Y131.288 E.04801
M204 P1000
G1 E-2.24 F2400
;WIPE_START
G1 F7200
G1 X106.119 Y132.367 E-.48327
G1 X106.232 Y132.097 E-.09257
G1 X106.216 Y131.928 E-.05359
G1 X105.67 Y131.382 E-.24458
;WIPE_END
G1 E-.086 F2400
G1 Z.4 F720
G1 X105.884 Y132.667 F9000
G1 Z.2 F720
G1 E3.2 F1500
M204 P800
G1 F1200
G1 X104.438 Y131.221 E.06435
G1 X103.733 Y130.927 E.02404
G1 X103.439 Y130.221 E.02404
G1 X94.377 Y121.16 E.40316
G1 X94.22 Y121.537 E.01287
G1 X96.575 Y123.892 E.10477
G1 X97.438 Y124.252 E.02942
G1 X97.798 Y125.115 E.02942
G1 X105.193 Y132.511 E.32904
G1 X104.658 Y132.511 E.01683
