; generated by PrusaSlicer 2.4.2+win64 on 2022-07-23 at 16:54:49 UTC


;
;

;
;
; 

; external perimeters extrusion width = 0.45mm
; perimeters extrusion width = 0.45mm
; infill extrusion width = 0.45mm
; solid infill extrusion width = 0.45mm
; top infill extrusion width = 0.40mm
; first layer extrusion width = 0.42mm

M73 P0 R42
M201 X2500 Y2500 Z400 E5000 ; sets maximum accelerations, mm/sec^2
M203 X180 Y180 Z12 E80 ; sets maximum feedrates, mm / sec
M204 P1250 R1250 T2500 ; sets acceleration (P, T) and retract acceleration (R), mm/sec^2
M205 X8.00 Y8.00 Z2.00 E10.00 ; sets the jerk limits, mm/sec
M205 S0 T0 ; sets the minimum extruding and travel feed rate, mm/sec
M107
;TYPE:Custom
M862.3 P "MINI" ; printer model check
G90 ; use absolute coordinates
M83 ; extruder relative mode
M104 S170 ; set extruder temp for bed leveling
M140 S85 ; set bed temp
M109 R170 ; wait for bed leveling temp
M190 S85 ; wait for bed temp
M204 T1250 ; set travel acceleration
G28 ; home all without mesh bed level
G29 ; mesh bed leveling 
M204 T2500 ; restore travel acceleration
M104 S240 ; set extruder temp
G92 E0
G1 Y-2 X179 F2400
G1 Z3 F720
M109 S240 ; wait for extruder temp

; intro line
G1 X170 F1000
G1 Z0.2 F720
G1 X110 E8 F900
G1 X40 E10 F700
G92 E0

M221 S95 ; set flow
G21 ; set units to millimeters
G90 ; use absolute coordinates
M83 ; use relative distances for extrusion
M900 K0.2 ; Filament gcode
M107
;LAYER_CHANGE
;Z:0.2
;HEIGHT:0.2
;BEFORE_LAYER_CHANGE
G92 E0.0
;0.2


G1 E-3.2 F2400
G1 Z.2 F720
;AFTER_LAYER_CHANGE
;0.2
G1 Z.4
G1 X72.185 Y64.437 F9000
G1 Z.2 F720
G1 E3.2 F1500
M204 P800
;TYPE:Skirt/Brim
;WIDTH:0.42
G1 F1200
G1 X74.35 Y62.203 E.09756
G1 X75.415 Y61.587 E.03858
G1 X77.955 Y60.907 E.08243
G1 X78.57 Y60.826 E.01946
G1 X101.43 Y60.826 E.71676
G1 X102.045 Y60.907 E.01946
G1 X104.585 Y61.587 E.08243
G1 X105.65 Y62.203 E.03858
G1 X107.815 Y64.437 E.09756
M73 P0 R41
G1 X120.515 Y83.741 E.7245
G1 X120.826 Y84.432 E.02376
G1 X121.506 Y86.972 E.08243
G1 X121.587 Y87.587 E.01946
G1 X121.587 Y88.603 E.03186
G1 X121.506 Y89.218 E.01946
G1 X120.826 Y91.758 E.08243
G1 X120.515 Y92.449 E.02376
G1 X107.815 Y111.753 E.7245
G1 X105.65 Y113.987 E.09756
G1 X104.585 Y114.603 E.03858
G1 X102.045 Y115.283 E.08243
G1 X101.43 Y115.364 E.01946
G1 X78.57 Y115.364 E.71676
G1 X77.955 Y115.283 E.01946
G1 X75.415 Y114.603 E.08243
G1 X74.35 Y113.987 E.03858
G1 X72.185 Y111.753 E.09756
G1 X59.485 Y92.449 E.7245
G1 X59.174 Y91.758 E.02376
G1 X58.494 Y89.218 E.08243
G1 X58.413 Y88.603 E.01946
G1 X58.413 Y87.587 E.03186
G1 X58.494 Y86.972 E.01946
G1 X59.174 Y84.432 E.08243
G1 X59.485 Y83.741 E.02376
G1 X72.152 Y64.487 E.72262
M204 P1000
; printing object hw-sc8-mount id:0 copy 0
G1 E-2.24 F2400
;WIPE_START
M73 P1 R41
G1 F7200
G1 X74.148 Y62.412 E-.912
;WIPE_END
G1 E-.048 F2400
G1 Z.4 F720
G1 X87.341 Y104.347 F9000
G1 Z.2 F720
G1 E3.2 F1500
M204 P800
;TYPE:Perimeter
G1 F1200
G1 X87.962 Y104.47 E.01987
G1 X88.1 Y104.563 E.0052
G1 X89.354 Y105.082 E.04257
G1 X89.706 Y105.609 E.01986
G1 X89.738 Y105.771 E.00519
G1 X90.258 Y107.026 E.04257
G1 X90.135 Y107.647 E.01987
G1 X90.042 Y107.785 E.0052
G1 X89.523 Y109.039 E.04257
G1 X88.996 Y109.391 E.01986
G1 X88.834 Y109.423 E.00519
G1 X87.579 Y109.943 E.04257
G1 X86.958 Y109.82 E.01987
G1 X86.82 Y109.727 E.0052
G1 X85.566 Y109.208 E.04257
G1 X85.214 Y108.681 E.01986
G1 X85.182 Y108.519 E.00519
G1 X84.662 Y107.264 E.04257
G1 X84.785 Y106.643 E.01987
G1 X84.878 Y106.505 E.0052
G1 X85.397 Y105.251 E.04257
G1 X85.85 Y104.948 E.01708
G1 X87.285 Y104.37 E.04851
M204 P1000
G1 X87.379 Y104.739 F9000
M204 P800
G1 F1200
G1 X87.815 Y104.826 E.01393
G1 X87.921 Y104.897 E.00401
G1 X89.104 Y105.387 E.04015
G1 X89.351 Y105.756 E.01392
G1 X89.376 Y105.881 E.004
G1 X89.866 Y107.064 E.04015
G1 X89.779 Y107.5 E.01393
G1 X89.708 Y107.606 E.00401
G1 X89.218 Y108.789 E.04015
G1 X88.849 Y109.036 E.01392
G1 X88.724 Y109.061 E.004
G1 X87.541 Y109.551 E.04015
G1 X87.105 Y109.464 E.01393
G1 X86.999 Y109.393 E.00401
G1 X85.816 Y108.903 E.04015
G1 X85.569 Y108.534 E.01392
G1 X85.544 Y108.409 E.004
G1 X85.054 Y107.226 E.04015
G1 X85.141 Y106.79 E.01393
G1 X85.212 Y106.684 E.00401
G1 X85.702 Y105.501 E.04015
G1 X86.026 Y105.284 E.01223
G1 X87.324 Y104.762 E.04386
M204 P1000
G1 X87.418 Y105.131 F9000
M204 P800
;TYPE:External perimeter
G1 F1200
G1 X87.668 Y105.181 E.00799
G1 X87.743 Y105.231 E.00282
G1 X88.854 Y105.692 E.03773
G1 X88.996 Y105.903 E.00798
G1 X89.013 Y105.991 E.00282
G1 X89.474 Y107.103 E.03773
G1 X89.424 Y107.353 E.00799
G1 X89.374 Y107.428 E.00282
G1 X88.913 Y108.539 E.03773
G1 X88.702 Y108.681 E.00798
G1 X88.614 Y108.698 E.00282
G1 X87.502 Y109.159 E.03773
G1 X87.252 Y109.109 E.00799
G1 X87.177 Y109.059 E.00282
G1 X86.066 Y108.598 E.03773
G1 X85.924 Y108.387 E.00798
G1 X85.907 Y108.299 E.00282
G1 X85.446 Y107.187 E.03773
G1 X85.496 Y106.937 E.00799
G1 X85.546 Y106.862 E.00282
G1 X86.007 Y105.751 E.03773
G1 X86.202 Y105.62 E.00738
G1 X87.363 Y105.154 E.03921
M204 P1000
G1 X87.544 Y104.91 F9000
G1 E-2.24 F2400
;WIPE_START
G1 F7200
G1 X87.668 Y105.181 E-.09704
G1 X87.743 Y105.231 E-.0285
G1 X88.854 Y105.692 E-.38102
G1 X88.996 Y105.903 E-.08064
G1 X89.013 Y105.991 E-.02846
G1 X89.371 Y106.856 E-.29634
;WIPE_END
G1 E-.048 F2400
G1 Z.4 F720
G1 X70.429 Y90.114 F9000
G1 Z.2 F720
G1 E3.2 F1500
M204 P800
;TYPE:Perimeter
G1 F1200
G1 X68.642 Y90.854 E.06065
G1 X64.686 Y90.854 E.12404
G1 X62.899 Y90.114 E.06065
G1 X62.062 Y88.095 E.06851
G1 X62.899 Y86.076 E.06851
G1 X64.686 Y85.336 E.06065
G1 X68.642 Y85.336 E.12404
G1 X70.429 Y86.076 E.06065
G1 X71.265 Y88.095 E.06851
G1 X70.452 Y90.058 E.06663
M204 P1000
G1 X70.14 Y89.825 F9000
M204 P800
G1 F1200
G1 X68.567 Y90.477 E.0534
G1 X64.761 Y90.477 E.11933
G1 X63.188 Y89.825 E.0534
G1 X62.47 Y88.095 E.05872
G1 X63.188 Y86.365 E.05872
G1 X64.761 Y85.713 E.0534
G1 X68.567 Y85.713 E.11933
G1 X70.14 Y86.365 E.0534
G1 X70.857 Y88.095 E.05872
G1 X70.163 Y89.77 E.05684
M204 P1000
G1 X69.851 Y89.536 F9000
M204 P800
;TYPE:External perimeter
G1 F1200
G1 X68.492 Y90.1 E.04615
G1 X64.836 Y90.1 E.11462
G1 X63.476 Y89.536 E.04615
G1 X62.879 Y88.095 E.04892
G1 X63.476 Y86.654 E.04892
G1 X64.836 Y86.09 E.04615
G1 X68.492 Y86.09 E.11462
G1 X69.851 Y86.654 E.04615
G1 X70.449 Y88.095 E.04892
G1 X69.874 Y89.481 E.04704
M204 P1000
G1 X69.955 Y89.923 F9000
G1 E-2.24 F2400
;WIPE_START
G1 F7200
G1 X68.492 Y90.1 E-.47977
G1 X67.127 Y90.1 E-.43223
;WIPE_END
G1 E-.048 F2400
G1 Z.4 F720
G1 X85.566 Y71.108 F9000
G1 Z.2 F720
G1 E3.2 F1500
M204 P800
;TYPE:Perimeter
G1 F1200
G1 X85.214 Y70.581 E.01986
G1 X85.182 Y70.419 E.00519
G1 X84.662 Y69.164 E.04257
G1 X84.785 Y68.543 E.01987
G1 X84.878 Y68.405 E.0052
G1 X85.397 Y67.151 E.04257
G1 X85.85 Y66.848 E.01708
G1 X87.341 Y66.247 E.05039
G1 X87.962 Y66.37 E.01987
G1 X88.1 Y66.463 E.0052
G1 X89.354 Y66.982 E.04257
G1 X89.706 Y67.509 E.01986
G1 X89.738 Y67.671 E.00519
G1 X90.258 Y68.926 E.04257
G1 X90.135 Y69.547 E.01987
G1 X90.042 Y69.685 E.0052
G1 X89.523 Y70.939 E.04257
G1 X88.996 Y71.291 E.01986
G1 X88.834 Y71.323 E.00519
G1 X87.579 Y71.843 E.04257
G1 X86.958 Y71.72 E.01987
G1 X86.82 Y71.627 E.0052
G1 X85.621 Y71.131 E.04069
M204 P1000
G1 X85.816 Y70.803 F9000
M204 P800
G1 F1200
G1 X85.569 Y70.434 E.01392
G1 X85.544 Y70.309 E.004
G1 X85.054 Y69.126 E.04015
G1 X85.141 Y68.69 E.01393
G1 X85.212 Y68.584 E.00401
G1 X85.702 Y67.401 E.04015
G1 X86.026 Y67.184 E.01223
G1 X87.379 Y66.639 E.04574
G1 X87.815 Y66.726 E.01393
G1 X87.921 Y66.797 E.00401
G1 X89.104 Y67.287 E.04015
G1 X89.351 Y67.656 E.01392
G1 X89.376 Y67.781 E.004
G1 X89.866 Y68.964 E.04015
G1 X89.779 Y69.4 E.01393
G1 X89.708 Y69.506 E.00401
G1 X89.218 Y70.689 E.04015
G1 X88.849 Y70.936 E.01392
G1 X88.724 Y70.961 E.004
G1 X87.541 Y71.451 E.04015
G1 X87.105 Y71.364 E.01393
G1 X86.999 Y71.293 E.00401
G1 X85.871 Y70.826 E.03827
M204 P1000
G1 X86.066 Y70.498 F9000
M204 P800
;TYPE:External perimeter
G1 F1200
G1 X85.924 Y70.287 E.00798
G1 X85.907 Y70.199 E.00282
G1 X85.446 Y69.087 E.03773
G1 X85.496 Y68.837 E.00799
G1 X85.546 Y68.762 E.00282
G1 X86.007 Y67.651 E.03773
G1 X86.202 Y67.52 E.00738
G1 X87.418 Y67.031 E.04109
G1 X87.668 Y67.081 E.00799
G1 X87.743 Y67.131 E.00282
G1 X88.854 Y67.592 E.03773
G1 X88.996 Y67.803 E.00798
G1 X89.013 Y67.891 E.00282
G1 X89.474 Y69.003 E.03773
G1 X89.424 Y69.253 E.00799
G1 X89.374 Y69.328 E.00282
G1 X88.913 Y70.439 E.03773
G1 X88.702 Y70.581 E.00798
G1 X88.614 Y70.598 E.00282
G1 X87.502 Y71.059 E.03773
G1 X87.252 Y71.009 E.00799
G1 X87.177 Y70.959 E.00282
G1 X86.121 Y70.521 E.03584
M204 P1000
G1 X85.82 Y70.563 F9000
G1 E-2.24 F2400
;WIPE_START
G1 F7200
G1 X85.924 Y70.287 E-.09701
G1 X85.907 Y70.199 E-.02847
G1 X85.446 Y69.087 E-.38102
G1 X85.496 Y68.837 E-.08067
G1 X85.546 Y68.762 E-.0285
G1 X85.904 Y67.898 E-.29633
;WIPE_END
G1 E-.048 F2400
G1 Z.4 F720
G1 X109.571 Y86.076 F9000
G1 Z.2 F720
G1 E3.2 F1500
M204 P800
;TYPE:Perimeter
G1 F1200
G1 X111.358 Y85.336 E.06065
G1 X115.314 Y85.336 E.12404
G1 X117.101 Y86.076 E.06065
G1 X117.938 Y88.095 E.06851
G1 X117.101 Y90.114 E.06851
G1 X115.314 Y90.854 E.06065
G1 X111.358 Y90.854 E.12404
G1 X109.571 Y90.114 E.06065
G1 X108.735 Y88.095 E.06851
G1 X109.548 Y86.132 E.06663
M204 P1000
G1 X109.86 Y86.365 F9000
M204 P800
G1 F1200
G1 X111.433 Y85.713 E.0534
G1 X115.239 Y85.713 E.11933
G1 X116.812 Y86.365 E.0534
G1 X117.53 Y88.095 E.05872
G1 X116.812 Y89.825 E.05872
G1 X115.239 Y90.477 E.0534
G1 X111.433 Y90.477 E.11933
G1 X109.86 Y89.825 E.0534
G1 X109.143 Y88.095 E.05872
G1 X109.837 Y86.42 E.05684
M204 P1000
G1 X110.149 Y86.654 F9000
M204 P800
;TYPE:External perimeter
G1 F1200
G1 X111.508 Y86.09 E.04615
G1 X115.164 Y86.09 E.11462
G1 X116.524 Y86.654 E.04615
G1 X117.121 Y88.095 E.04892
G1 X116.524 Y89.536 E.04892
G1 X115.164 Y90.1 E.04615
G1 X111.508 Y90.1 E.11462
G1 X110.149 Y89.536 E.04615
G1 X109.551 Y88.095 E.04892
G1 X110.126 Y86.709 E.04704
M204 P1000
G1 X110.045 Y86.267 F9000
G1 E-2.24 F2400
;WIPE_START
G1 F7200
G1 X111.508 Y86.09 E-.47977
G1 X112.873 Y86.09 E-.43223
;WIPE_END
G1 E-.048 F2400
G1 Z.4 F720
G1 X105.934 Y81.363 F9000
G1 Z.2 F720
G1 E3.2 F1500
M204 P800
;TYPE:Perimeter
G1 F1200
G1 X107.654 Y83.083 E.07627
G1 X109.849 Y83.671 E.07125
G1 X113.977 Y83.671 E.12941
G1 X116.067 Y84.231 E.06784
G1 X117.486 Y85.65 E.06293
G1 X118.046 Y87.74 E.06784
G1 X118.046 Y88.45 E.02224
G1 X117.486 Y90.54 E.06784
G1 X116.067 Y91.959 E.06293
G1 X113.977 Y92.519 E.06784
G1 X109.849 Y92.519 E.12941
G1 X107.654 Y93.107 E.07125
G1 X105.934 Y94.827 E.07627
G1 X105.346 Y97.022 E.07125
G1 X105.346 Y107.754 E.33648
G1 X104.786 Y109.844 E.06784
G1 X103.367 Y111.263 E.06293
G1 X101.277 Y111.823 E.06784
G1 X78.723 Y111.823 E.70715
G1 X76.633 Y111.263 E.06784
G1 X75.214 Y109.844 E.06293
G1 X74.654 Y107.754 E.06784
G1 X74.654 Y97.022 E.33648
G1 X74.066 Y94.827 E.07125
G1 X72.346 Y93.107 E.07627
G1 X70.151 Y92.519 E.07125
G1 X66.023 Y92.519 E.12941
G1 X63.933 Y91.959 E.06784
G1 X62.514 Y90.54 E.06293
G1 X61.954 Y88.45 E.06784
G1 X61.954 Y87.74 E.02224
G1 X62.514 Y85.65 E.06784
G1 X63.933 Y84.231 E.06293
G1 X66.023 Y83.671 E.06784
G1 X70.151 Y83.671 E.12941
G1 X72.346 Y83.083 E.07125
G1 X74.066 Y81.363 E.07627
G1 X74.654 Y79.168 E.07125
G1 X74.654 Y68.436 E.33648
G1 X75.214 Y66.346 E.06784
G1 X76.633 Y64.927 E.06293
G1 X78.723 Y64.367 E.06784
G1 X101.277 Y64.367 E.70715
G1 X103.367 Y64.927 E.06784
G1 X104.786 Y66.346 E.06293
G1 X105.346 Y68.436 E.06784
G1 X105.346 Y79.168 E.33648
G1 X105.919 Y81.305 E.06937
M204 P1000
G1 X106.246 Y81.07 F9000
M204 P800
G1 F1200
G1 X106.272 Y81.168 E.00317
G1 X107.849 Y82.745 E.06994
G1 X109.899 Y83.294 E.06653
G1 X114.026 Y83.294 E.12941
G1 X116.262 Y83.893 E.07256
G1 X117.824 Y85.455 E.06926
G1 X118.423 Y87.691 E.07256
G1 X118.423 Y88.499 E.02536
G1 X117.824 Y90.735 E.07256
G1 X116.262 Y92.297 E.06926
G1 X114.026 Y92.896 E.07256
G1 X109.899 Y92.896 E.12941
G1 X107.849 Y93.445 E.06653
G1 X106.272 Y95.022 E.06994
M73 P2 R41
G1 X105.723 Y97.072 E.06653
G1 X105.723 Y107.803 E.33648
G1 X105.124 Y110.039 E.07256
G1 X103.562 Y111.601 E.06926
G1 X101.326 Y112.2 E.07256
G1 X78.674 Y112.2 E.71026
G1 X76.438 Y111.601 E.07256
G1 X74.876 Y110.039 E.06926
G1 X74.277 Y107.803 E.07256
G1 X74.277 Y97.072 E.33648
G1 X73.728 Y95.022 E.06653
G1 X72.151 Y93.445 E.06994
G1 X70.101 Y92.896 E.06653
G1 X65.974 Y92.896 E.12941
G1 X63.738 Y92.297 E.07256
G1 X62.176 Y90.735 E.06926
G1 X61.577 Y88.499 E.07256
G1 X61.577 Y87.691 E.02536
G1 X62.176 Y85.455 E.07256
G1 X63.738 Y83.893 E.06926
G1 X65.974 Y83.294 E.07256
G1 X70.101 Y83.294 E.12941
G1 X72.151 Y82.745 E.06653
G1 X73.728 Y81.168 E.06994
G1 X74.277 Y79.118 E.06653
G1 X74.277 Y68.387 E.33648
G1 X74.876 Y66.151 E.07256
G1 X76.438 Y64.589 E.06926
G1 X78.674 Y63.99 E.07256
G1 X101.326 Y63.99 E.71026
G1 X103.562 Y64.589 E.07256
G1 X105.124 Y66.151 E.06926
G1 X105.723 Y68.387 E.07256
G1 X105.723 Y79.118 E.33648
G1 X106.23 Y81.012 E.06148
M204 P1000
G1 X106.61 Y80.972 F9000
M204 P800
;TYPE:External perimeter
G1 F1200
G1 X108.045 Y82.407 E.0636
G1 X109.949 Y82.917 E.0618
G1 X114.076 Y82.917 E.12941
G1 X116.457 Y83.555 E.07729
G1 X118.162 Y85.26 E.0756
G1 X118.8 Y87.641 E.07729
G1 X118.8 Y88.549 E.02847
G1 X118.162 Y90.93 E.07729
G1 X116.457 Y92.635 E.0756
G1 X114.076 Y93.273 E.07729
G1 X109.949 Y93.273 E.12941
G1 X108.045 Y93.783 E.0618
G1 X106.61 Y95.218 E.0636
G1 X106.1 Y97.122 E.0618
G1 X106.1 Y107.853 E.33648
G1 X105.462 Y110.234 E.07729
G1 X103.757 Y111.939 E.0756
G1 X101.376 Y112.577 E.07729
G1 X78.624 Y112.577 E.71337
G1 X76.243 Y111.939 E.07729
G1 X74.538 Y110.234 E.0756
G1 X73.9 Y107.853 E.07729
G1 X73.9 Y97.122 E.33648
G1 X73.39 Y95.218 E.0618
G1 X71.955 Y93.783 E.0636
G1 X70.051 Y93.273 E.0618
G1 X65.924 Y93.273 E.12941
G1 X63.543 Y92.635 E.07729
G1 X61.838 Y90.93 E.0756
G1 X61.2 Y88.549 E.07729
G1 X61.2 Y87.641 E.02847
G1 X61.838 Y85.26 E.07729
G1 X63.543 Y83.555 E.0756
G1 X65.924 Y82.917 E.07729
G1 X70.051 Y82.917 E.12941
G1 X71.955 Y82.407 E.0618
G1 X73.39 Y80.972 E.0636
G1 X73.9 Y79.068 E.0618
G1 X73.9 Y68.337 E.33648
G1 X74.538 Y65.956 E.07729
G1 X76.243 Y64.251 E.0756
G1 X78.624 Y63.613 E.07729
G1 X101.376 Y63.613 E.71337
G1 X103.757 Y64.251 E.07729
G1 X105.462 Y65.956 E.0756
G1 X106.1 Y68.337 E.07729
G1 X106.1 Y79.068 E.33648
G1 X106.595 Y80.915 E.05992
M204 P1000
G1 X106.415 Y81.322 F9000
G1 E-2.24 F2400
;WIPE_START
G1 F7200
G1 X108.045 Y82.407 E-.65886
G1 X108.817 Y82.614 E-.25314
;WIPE_END
G1 E-.048 F2400
G1 Z.4 F720
G1 X117.103 Y85.578 F9000
G1 Z.2 F720
G1 E3.2 F1500
M204 P800
;TYPE:Gap fill
;WIDTH:0.187931
G1 F1200
G1 X117.299 Y85.91 E.00465
M204 P1000
M204 P800
;WIDTH:0.160085
G1 X117.385 Y86.163 E.0026
M204 P1000
M204 P800
;WIDTH:0.126703
G1 X117.471 Y86.416 E.00186
M204 P1000
G1 E-2.24 F2400
;WIPE_START
G1 F7200
G1 X117.385 Y86.163 E-.08465
;WIPE_END
G1 E-.87535 F2400
G1 Z.4 F720
G1 X117.471 Y89.774 F9000
G1 Z.2 F720
G1 E3.2 F1500
M204 P800
;WIDTH:0.126702
G1 F1200
G1 X117.385 Y90.027 E.00186
M204 P1000
M204 P800
;WIDTH:0.160085
G1 X117.299 Y90.28 E.0026
M204 P1000
M204 P800
;WIDTH:0.187932
G1 X117.103 Y90.612 E.00465
M204 P1000
G1 E-2.24 F2400
;WIPE_START
G1 F7200
G1 X117.299 Y90.28 E-.12206
;WIPE_END
G1 E-.83794 F2400
G1 Z.4 F720
G1 X102.979 Y64.94 F9000
G1 Z.2 F720
G1 E3.2 F1500
M204 P800
;TYPE:Solid infill
;WIDTH:0.421442
G1 F1200
G1 X104.533 Y66.494 E.06916
G1 X104.729 Y67.225 E.02383
G1 X102.488 Y64.984 E.09975
G1 X101.756 Y64.788 E.02383
G1 X104.925 Y67.957 E.14103
G1 X105.063 Y68.474 E.01684
G1 X105.063 Y68.631 E.00494
G1 X101.082 Y64.65 E.17718
G1 X100.547 Y64.65 E.01685
G1 X105.063 Y69.166 E.20101
G1 X105.063 Y69.701 E.01685
G1 X100.012 Y64.65 E.22484
G1 X99.477 Y64.65 E.01685
G1 X105.063 Y70.236 E.24866
G1 X105.063 Y70.772 E.01685
G1 X98.941 Y64.65 E.27249
G1 X98.406 Y64.65 E.01685
G1 X105.063 Y71.307 E.29632
G1 X105.063 Y71.842 E.01685
G1 X97.871 Y64.65 E.32015
G1 X97.335 Y64.65 E.01685
G1 X105.063 Y72.378 E.34397
G1 X105.063 Y72.913 E.01685
G1 X96.8 Y64.65 E.3678
G1 X96.265 Y64.65 E.01685
G1 X105.063 Y73.448 E.39163
G1 X105.063 Y73.984 E.01685
G1 X95.729 Y64.65 E.41546
G1 X95.194 Y64.65 E.01685
G1 X105.063 Y74.519 E.43928
G1 X105.063 Y75.054 E.01685
