; generated by PrusaSlicer 2.4.2+win64 on 2022-08-13 at 14:13:50 UTC


;
;

;
;
; 

; external perimeters extrusion width = 0.45mm
; perimeters extrusion width = 0.45mm
; infill extrusion width = 0.45mm
; solid infill extrusion width = 0.45mm
; top infill extrusion width = 0.40mm
; first layer extrusion width = 0.42mm

M73 P0 R143
M201 X2500 Y2500 Z400 E5000 ; sets maximum accelerations, mm/sec^2
M203 X180 Y180 Z12 E80 ; sets maximum feedrates, mm / sec
M204 P1250 R1250 T2500 ; sets acceleration (P, T) and retract acceleration (R), mm/sec^2
M205 X8.00 Y8.00 Z2.00 E10.00 ; sets the jerk limits, mm/sec
M205 S0 T0 ; sets the minimum extruding and travel feed rate, mm/sec
M107
;TYPE:Custom
M862.3 P "MINI" ; printer model check
G90 ; use absolute coordinates
M83 ; extruder relative mode
M104 S170 ; set extruder temp for bed leveling
M140 S60 ; set bed temp
M109 R170 ; wait for bed leveling temp
M190 S60 ; wait for bed temp
M204 T1250 ; set travel acceleration
G28 ; home all without mesh bed level
G29 ; mesh bed leveling 
M204 T2500 ; restore travel acceleration
M104 S215 ; set extruder temp
G92 E0
G1 Y-2 X179 F2400
G1 Z3 F720
M109 S215 ; wait for extruder temp

; intro line
G1 X170 F1000
G1 Z0.2 F720
G1 X110 E8 F900
G1 X40 E10 F700
G92 E0

M221 S95 ; set flow
G21 ; set units to millimeters
G90 ; use absolute coordinates
M83 ; use relative distances for extrusion
M900 K0.2 ; Filament gcode LA 1.5
; ; Filament gcode LA 1.0
M107
;LAYER_CHANGE
;Z:0.2
;HEIGHT:0.2
;BEFORE_LAYER_CHANGE
G92 E0.0
;0.2


G1 E-3.2 F4200
G1 Z.2 F720
;AFTER_LAYER_CHANGE
;0.2
G1 Z.4
G1 X67.657 Y83.097 F9000
G1 Z.2 F720
G1 E3.2 F2400
M204 P800
;TYPE:Skirt/Brim
;WIDTH:0.42
G1 F1200
G1 X68.264 Y82.636 E.02389
G1 X68.97 Y82.317 E.02428
G1 X70.442 Y82.026 E.04705
G1 X109.558 Y82.026 E1.22645
G1 X110.123 Y82.094 E.01783
G1 X110.979 Y82.304 E.02766
G1 X111.736 Y82.636 E.0259
G1 X112.757 Y83.511 E.04216
G1 X113.217 Y84.118 E.02389
G1 X113.537 Y84.824 E.02428
G1 X113.827 Y86.296 E.04705
G1 X113.827 Y100.012 E.43006
G1 X113.55 Y101.433 E.04541
G1 X113.217 Y102.189 E.0259
G1 X112.343 Y103.21 E.04216
G1 X111.736 Y103.671 E.02389
G1 X111.03 Y103.991 E.02428
G1 X109.558 Y104.281 E.04705
G1 X70.442 Y104.281 E1.22645
G1 X69.021 Y104.004 E.04541
G1 X68.264 Y103.671 E.0259
G1 X67.657 Y103.21 E.02389
G1 X66.783 Y102.189 E.04216
G1 X66.463 Y101.484 E.02428
G1 X66.173 Y100.012 E.04705
G1 X66.173 Y86.296 E.43006
G1 X66.45 Y84.874 E.04541
G1 X66.783 Y84.118 E.0259
G1 X67.618 Y83.142 E.04028
M204 P1000
; printing object 2-appletvtableremoteholder id:0 copy 0
G1 E-2.24 F4200
;WIPE_START
G1 F7200
G1 X68.264 Y82.636 E-.45487
G1 X68.97 Y82.317 E-.42916
G1 X69.019 Y82.307 E-.02796
;WIPE_END
G1 E-.048 F4200
G1 Z.4 F720
G1 X70.087 Y85.68 F9000
G1 Z.2 F720
G1 E3.2 F2400
M204 P800
;TYPE:Perimeter
G1 F1200
G1 X70.538 Y85.571 E.01456
G1 X109.481 Y85.571 E1.22101
G1 X109.901 Y85.672 E.01356
G1 X109.957 Y85.71 E.00212
G1 X110.173 Y85.941 E.00991
G1 X110.282 Y86.392 E.01456
G1 X110.282 Y99.922 E.42424
G1 X110.177 Y100.361 E.01415
G1 X109.913 Y100.627 E.01174
G1 X109.462 Y100.736 E.01456
G1 X70.531 Y100.736 E1.22064
G1 X70.092 Y100.631 E.01415
G1 X69.827 Y100.367 E.01174
G1 X69.718 Y99.915 E.01456
G1 X69.718 Y86.385 E.42424
G1 X69.823 Y85.946 E.01415
G1 X70.038 Y85.715 E.0099
M204 P1000
G1 X69.934 Y85.33 F9000
M204 P800
;TYPE:External perimeter
G1 F1200
G1 X70.493 Y85.194 E.01806
G1 X109.518 Y85.194 E1.22358
G1 X110.059 Y85.324 E.01744
G1 X110.198 Y85.417 E.00524
G1 X110.437 Y85.656 E.0106
G1 X110.524 Y85.787 E.00494
G1 X110.659 Y86.347 E.01806
G1 X110.659 Y99.967 E.42705
G1 X110.528 Y100.515 E.01765
G1 X110.437 Y100.651 E.00515
G1 X110.198 Y100.89 E.0106
G1 X110.066 Y100.978 E.00494
G1 X109.507 Y101.113 E.01806
G1 X70.487 Y101.113 E1.22345
G1 X69.939 Y100.982 E.01765
G1 X69.802 Y100.89 E.00515
G1 X69.563 Y100.651 E.0106
G1 X69.476 Y100.52 E.00494
G1 X69.341 Y99.96 E.01806
G1 X69.341 Y86.34 E.42705
G1 X69.472 Y85.793 E.01765
G1 X69.563 Y85.656 E.00515
G1 X69.802 Y85.417 E.0106
G1 X69.884 Y85.363 E.00306
M204 P1000
G1 X70.252 Y85.571 F9000
G1 E-2.24 F4200
;WIPE_START
G1 F7200
G1 X70.493 Y85.194 E-.35058
G1 X71.506 Y85.194 E-.56142
;WIPE_END
G1 E-.048 F4200
G1 Z.4 F720
G1 X108.997 Y85.684 F9000
G1 Z.2 F720
G1 E3.2 F2400
M204 P800
;TYPE:Solid infill
;WIDTH:0.420882
G1 F1200
G1 X110 Y86.687 E.04455
G1 X110 Y87.221 E.0168
G1 X108.632 Y85.854 E.06077
G1 X108.098 Y85.854 E.0168
G1 X110 Y87.756 E.08453
G1 X110 Y88.29 E.0168
G1 X107.563 Y85.854 E.10828
G1 X107.029 Y85.854 E.0168
G1 X110 Y88.825 E.13204
G1 X110 Y89.359 E.0168
G1 X106.494 Y85.854 E.1558
G1 X105.96 Y85.854 E.0168
G1 X110 Y89.894 E.17955
G1 X110 Y90.428 E.0168
G1 X105.425 Y85.854 E.20331
G1 X104.891 Y85.854 E.0168
G1 X110 Y90.963 E.22707
G1 X110 Y91.498 E.0168
G1 X104.356 Y85.854 E.25082
G1 X103.822 Y85.854 E.0168
G1 X110 Y92.032 E.27458
G1 X110 Y92.567 E.0168
G1 X103.287 Y85.854 E.29834
G1 X102.753 Y85.854 E.0168
G1 X110 Y93.101 E.32209
G1 X110 Y93.636 E.0168
G1 X102.218 Y85.854 E.34585
G1 X101.684 Y85.854 E.0168
G1 X110 Y94.17 E.36961
G1 X110 Y94.705 E.0168
G1 X101.149 Y85.854 E.39337
G1 X100.614 Y85.854 E.0168
G1 X110 Y95.239 E.41712
G1 X110 Y95.774 E.0168
G1 X100.08 Y85.854 E.44088
G1 X99.545 Y85.854 E.0168
G1 X110 Y96.308 E.46464
G1 X110 Y96.843 E.0168
G1 X99.011 Y85.854 E.48839
G1 X98.476 Y85.854 E.0168
G1 X110 Y97.377 E.51215
G1 X110 Y97.912 E.0168
G1 X97.942 Y85.854 E.53591
G1 X97.407 Y85.854 E.0168
G1 X110 Y98.446 E.55966
G1 X110 Y98.981 E.0168
G1 X96.873 Y85.854 E.58342
G1 X96.338 Y85.854 E.0168
G1 X110 Y99.515 E.60718
G1 X110 Y99.889 E.01174
G1 X109.968 Y100.019 E.00419
G1 X95.804 Y85.854 E.62955
G1 X95.269 Y85.854 E.0168
G1 X109.769 Y100.371 E.64482
G1 X109.428 Y100.453 E.01102
G1 X109.334 Y100.453 E.00296
G1 X94.735 Y85.854 E.64886
G1 X94.2 Y85.854 E.0168
G1 X108.799 Y100.453 E.64886
G1 X108.265 Y100.453 E.0168
G1 X93.666 Y85.854 E.64886
G1 X93.131 Y85.854 E.0168
G1 X107.73 Y100.453 E.64886
G1 X107.196 Y100.453 E.0168
M73 P0 R142
G1 X92.597 Y85.854 E.64886
G1 X92.062 Y85.854 E.0168
G1 X106.661 Y100.453 E.64886
G1 X106.127 Y100.453 E.0168
G1 X91.528 Y85.854 E.64886
G1 X90.993 Y85.854 E.0168
G1 X105.592 Y100.453 E.64886
G1 X105.058 Y100.453 E.0168
G1 X90.459 Y85.854 E.64886
G1 X89.924 Y85.854 E.0168
G1 X104.523 Y100.453 E.64886
G1 X103.989 Y100.453 E.0168
G1 X89.39 Y85.854 E.64886
G1 X88.855 Y85.854 E.0168
G1 X103.454 Y100.453 E.64886
G1 X102.92 Y100.453 E.0168
G1 X88.321 Y85.854 E.64886
G1 X87.786 Y85.854 E.0168
G1 X102.385 Y100.453 E.64886
G1 X101.851 Y100.453 E.0168
G1 X87.252 Y85.854 E.64886
G1 X86.717 Y85.854 E.0168
G1 X101.316 Y100.453 E.64886
G1 X100.782 Y100.453 E.0168
G1 X86.182 Y85.854 E.64886
G1 X85.648 Y85.854 E.0168
G1 X100.247 Y100.453 E.64886
G1 X99.713 Y100.453 E.0168
G1 X85.113 Y85.854 E.64886
G1 X84.579 Y85.854 E.0168
G1 X99.178 Y100.453 E.64886
G1 X98.643 Y100.453 E.0168
G1 X84.044 Y85.854 E.64886
G1 X83.51 Y85.854 E.0168
G1 X98.109 Y100.453 E.64886
G1 X97.574 Y100.453 E.0168
G1 X82.975 Y85.854 E.64886
G1 X82.441 Y85.854 E.0168
G1 X97.04 Y100.453 E.64886
G1 X96.505 Y100.453 E.0168
G1 X81.906 Y85.854 E.64886
G1 X81.372 Y85.854 E.0168
G1 X95.971 Y100.453 E.64886
G1 X95.436 Y100.453 E.0168
G1 X80.837 Y85.854 E.64886
G1 X80.303 Y85.854 E.0168
G1 X94.902 Y100.453 E.64886
G1 X94.367 Y100.453 E.0168
G1 X79.768 Y85.854 E.64886
G1 X79.234 Y85.854 E.0168
G1 X93.833 Y100.453 E.64886
G1 X93.298 Y100.453 E.0168
G1 X78.699 Y85.854 E.64886
G1 X78.165 Y85.854 E.0168
G1 X92.764 Y100.453 E.64886
G1 X92.229 Y100.453 E.0168
G1 X77.63 Y85.854 E.64886
G1 X77.096 Y85.854 E.0168
M73 P1 R142
G1 X91.695 Y100.453 E.64886
G1 X91.16 Y100.453 E.0168
G1 X76.561 Y85.854 E.64886
G1 X76.027 Y85.854 E.0168
G1 X90.626 Y100.453 E.64886
G1 X90.091 Y100.453 E.0168
G1 X75.492 Y85.854 E.64886
G1 X74.958 Y85.854 E.0168
G1 X89.557 Y100.453 E.64886
G1 X89.022 Y100.453 E.0168
G1 X74.423 Y85.854 E.64886
G1 X73.889 Y85.854 E.0168
G1 X88.488 Y100.453 E.64886
G1 X87.953 Y100.453 E.0168
G1 X73.354 Y85.854 E.64886
G1 X72.82 Y85.854 E.0168
G1 X87.419 Y100.453 E.64886
G1 X86.884 Y100.453 E.0168
G1 X72.285 Y85.854 E.64886
G1 X71.75 Y85.854 E.0168
G1 X86.35 Y100.453 E.64886
G1 X85.815 Y100.453 E.0168
G1 X71.216 Y85.854 E.64886
G1 X70.681 Y85.854 E.0168
G1 X85.281 Y100.453 E.64886
G1 X84.746 Y100.453 E.0168
G1 X70.23 Y85.937 E.64516
G1 X70.08 Y86.089 E.00672
G1 X70.035 Y86.276 E.00605
G1 X84.211 Y100.453 E.6301
G1 X83.677 Y100.453 E.0168
G1 X70 Y86.777 E.60786
G1 X70 Y87.311 E.0168
G1 X83.142 Y100.453 E.5841
G1 X82.608 Y100.453 E.0168
G1 X70 Y87.846 E.56034
G1 X70 Y88.38 E.0168
G1 X82.073 Y100.453 E.53659
G1 X81.539 Y100.453 E.0168
G1 X70 Y88.915 E.51283
G1 X70 Y89.449 E.0168
G1 X81.004 Y100.453 E.48907
G1 X80.47 Y100.453 E.0168
G1 X70 Y89.984 E.46532
G1 X70 Y90.518 E.0168
G1 X79.935 Y100.453 E.44156
G1 X79.401 Y100.453 E.0168
G1 X70 Y91.053 E.4178
G1 X70 Y91.587 E.0168
G1 X78.866 Y100.453 E.39405
G1 X78.332 Y100.453 E.0168
G1 X70 Y92.122 E.37029
G1 X70 Y92.656 E.0168
G1 X77.797 Y100.453 E.34653
G1 X77.263 Y100.453 E.0168
G1 X70 Y93.191 E.32278
G1 X70 Y93.725 E.0168
G1 X76.728 Y100.453 E.29902
G1 X76.194 Y100.453 E.0168
G1 X70 Y94.26 E.27526
G1 X70 Y94.794 E.0168
G1 X75.659 Y100.453 E.2515
G1 X75.125 Y100.453 E.0168
G1 X70 Y95.329 E.22775
G1 X70 Y95.864 E.0168
M73 P1 R141
G1 X74.59 Y100.453 E.20399
G1 X74.056 Y100.453 E.0168
G1 X70 Y96.398 E.18023
G1 X70 Y96.933 E.0168
G1 X73.521 Y100.453 E.15648
G1 X72.987 Y100.453 E.0168
G1 X70 Y97.467 E.13272
G1 X70 Y98.002 E.0168
G1 X72.452 Y100.453 E.10896
G1 X71.918 Y100.453 E.0168
G1 X70 Y98.536 E.08521
G1 X70 Y99.071 E.0168
G1 X71.383 Y100.453 E.06145
G1 X70.849 Y100.453 E.0168
G1 X70 Y99.605 E.03769
G1 X70 Y99.882 E.00869
G1 X70.083 Y100.222 E.011
G1 X70.464 Y100.604 E.01697
M204 P1000
; stop printing object 2-appletvtableremoteholder id:0 copy 0
M106 S84.15
;LAYER_CHANGE
;Z:0.35
;HEIGHT:0.15
;BEFORE_LAYER_CHANGE
G92 E0.0
;0.35


G1 E-2.24 F4200
;WIPE_START
G1 F7200
G1 X70.083 Y100.222 E-.29918
G1 X70 Y99.882 E-.19393
G1 X70 Y99.605 E-.15326
G1 X70.339 Y99.944 E-.26563
;WIPE_END
G1 E-.048 F4200
G1 Z.4 F720
;AFTER_LAYER_CHANGE
;0.35
G1 X66.316 Y100.738 F9000
G1 Z.35 F720
G1 E3.2 F2400
;TYPE:Skirt/Brim
;WIDTH:0.42
G1 X66.173 Y100.012 E.01791
G1 X66.173 Y86.296 E.33172
G1 X66.45 Y84.874 E.03503
G1 X66.783 Y84.118 E.01998
G1 X67.657 Y83.097 E.03252
G1 X68.264 Y82.636 E.01843
G1 X68.97 Y82.317 E.01873
G1 X70.442 Y82.026 E.03629
G1 X109.558 Y82.026 E.94602
G1 X110.123 Y82.094 E.01375
G1 X110.979 Y82.304 E.02133
G1 X111.736 Y82.636 E.01998
G1 X112.757 Y83.511 E.03252
G1 X113.217 Y84.118 E.01843
G1 X113.537 Y84.824 E.01873
G1 X113.827 Y86.296 E.03629
G1 X113.827 Y100.012 E.33172
G1 X113.55 Y101.433 E.03503
G1 X113.217 Y102.189 E.01998
G1 X112.343 Y103.21 E.03252
G1 X111.736 Y103.671 E.01843
G1 X111.03 Y103.991 E.01873
G1 X109.558 Y104.281 E.03629
G1 X70.442 Y104.281 E.94602
G1 X69.021 Y104.004 E.03503
G1 X68.264 Y103.671 E.01998
G1 X67.657 Y103.21 E.01843
G1 X66.783 Y102.189 E.03252
G1 X66.463 Y101.484 E.01873
G1 X66.327 Y100.797 E.01693
; printing object 2-appletvtableremoteholder id:0 copy 0
G1 E-2.24 F4200
;WIPE_START
G1 F7200
G1 X66.173 Y100.012 E-.44356
G1 X66.173 Y99.166 E-.46844
;WIPE_END
G1 E-.048 F4200
G1 Z.55 F720
G1 X69.431 Y100.601 F9000
G1 Z.35 F720
G1 E3.2 F2400
M204 P800
;TYPE:Perimeter
;WIDTH:0.45
G1 X69.255 Y99.929 E.01811
G1 X69.255 Y86.379 E.35306
G1 X69.431 Y85.706 E.01811
G1 X69.853 Y85.284 E.01555
G1 X70.525 Y85.108 E.01811
G1 X109.473 Y85.108 E1.01483
G1 X110.153 Y85.29 E.01834
G1 X110.569 Y85.706 E.01533
G1 X110.745 Y86.379 E.01811
G1 X110.745 Y99.929 E.35306
G1 X110.569 Y100.601 E.01811
G1 X110.147 Y101.023 E.01555
G1 X109.475 Y101.199 E.01811
G1 X70.525 Y101.199 E1.01488
G1 X69.853 Y101.023 E.01811
G1 X69.473 Y100.643 E.01399
M204 P1000
G1 X69.054 Y100.81 F9000
M204 P800
;TYPE:External perimeter
G1 F1800
G1 X68.837 Y99.983 E.02229
G1 X68.837 Y86.325 E.35587
G1 X69.054 Y85.497 E.02229
G1 X69.643 Y84.907 E.02173
G1 X70.471 Y84.69 E.02229
G1 X109.528 Y84.69 E1.01767
G1 X110.362 Y84.911 E.02248
G1 X110.946 Y85.497 E.02155
G1 X111.163 Y86.325 E.02229
G1 X111.163 Y99.983 E.35587
G1 X110.946 Y100.81 E.02229
G1 X110.357 Y101.4 E.02173
G1 X109.529 Y101.617 E.02229
G1 X70.471 Y101.617 E1.01769
G1 X69.643 Y101.4 E.02229
G1 X69.094 Y100.855 E.02017
M204 P1000
G1 X69.254 Y100.464 F9000
G1 E-2.24 F4200
;WIPE_START
G1 F7200
G1 X68.837 Y99.983 E-.50381
G1 X68.837 Y99.246 E-.40819
;WIPE_END
G1 E-.048 F4200
G1 Z.55 F720
G1 X109.721 Y101.005 F9000
G1 Z.35 F720
G1 E3.2 F2400
;TYPE:Solid infill
;WIDTH:0.451471
G1 F4800
G1 X110.288 Y100.438 E.02098
G1 X110.432 Y99.888 E.01485
G1 X110.432 Y99.701 E.0049
G1 X109.247 Y100.886 E.04382
G1 X108.654 Y100.886 E.0155
G1 X110.432 Y99.108 E.06574
G1 X110.432 Y98.515 E.0155
G1 X108.061 Y100.886 E.08767
G1 X107.468 Y100.886 E.0155
G1 X110.432 Y97.922 E.10959
G1 X110.432 Y97.329 E.0155
G1 X106.875 Y100.886 E.13152
G1 X106.282 Y100.886 E.0155
G1 X110.432 Y96.736 E.15345
G1 X110.432 Y96.143 E.0155
G1 X105.69 Y100.886 E.17537
G1 X105.097 Y100.886 E.0155
G1 X110.432 Y95.55 E.1973
G1 X110.432 Y94.957 E.0155
G1 X104.504 Y100.886 E.21923
G1 X103.911 Y100.886 E.0155
G1 X110.432 Y94.364 E.24115
G1 X110.432 Y93.771 E.0155
G1 X103.318 Y100.886 E.26308
G1 X102.725 Y100.886 E.0155
G1 X110.432 Y93.178 E.285
G1 X110.432 Y92.585 E.0155
G1 X102.132 Y100.886 E.30693
G1 X101.539 Y100.886 E.0155
G1 X110.432 Y91.992 E.32886
G1 X110.432 Y91.4 E.0155
G1 X100.946 Y100.886 E.35078
G1 X100.353 Y100.886 E.0155
G1 X110.432 Y90.807 E.37271
G1 X110.432 Y90.214 E.0155
G1 X99.76 Y100.886 E.39464
G1 X99.167 Y100.886 E.0155
G1 X110.432 Y89.621 E.41656
G1 X110.432 Y89.028 E.0155
G1 X98.574 Y100.886 E.43849
G1 X97.981 Y100.886 E.0155
G1 X110.432 Y88.435 E.46042
G1 X110.432 Y87.842 E.0155
G1 X97.388 Y100.886 E.48234
G1 X96.795 Y100.886 E.0155
G1 X110.432 Y87.249 E.50427
G1 X110.432 Y86.656 E.0155
G1 X96.202 Y100.886 E.52619
G1 X95.609 Y100.886 E.0155
G1 X110.358 Y86.137 E.54539
G1 X110.288 Y85.868 E.00727
G1 X110.161 Y85.741 E.00469
G1 X95.016 Y100.886 E.56002
G1 X94.423 Y100.886 E.0155
G1 X109.791 Y85.518 E.56828
G1 X109.432 Y85.422 E.00973
G1 X109.295 Y85.422 E.00359
G1 X93.83 Y100.886 E.57184
G1 X93.237 Y100.886 E.0155
G1 X108.702 Y85.422 E.57184
G1 X108.109 Y85.422 E.0155
G1 X92.645 Y100.886 E.57184
G1 X92.052 Y100.886 E.0155
G1 X107.516 Y85.422 E.57184
G1 X106.923 Y85.422 E.0155
G1 X91.459 Y100.886 E.57184
G1 X90.866 Y100.886 E.0155
G1 X106.33 Y85.422 E.57184
G1 X105.737 Y85.422 E.0155
G1 X90.273 Y100.886 E.57184
G1 X89.68 Y100.886 E.0155
G1 X105.144 Y85.422 E.57184
G1 X104.551 Y85.422 E.0155
G1 X89.087 Y100.886 E.57184
G1 X88.494 Y100.886 E.0155
G1 X103.958 Y85.422 E.57184
G1 X103.365 Y85.422 E.0155
G1 X87.901 Y100.886 E.57184
G1 X87.308 Y100.886 E.0155
G1 X102.772 Y85.422 E.57184
G1 X102.179 Y85.422 E.0155
G1 X86.715 Y100.886 E.57184
G1 X86.122 Y100.886 E.0155
G1 X101.586 Y85.422 E.57184
G1 X100.993 Y85.422 E.0155
G1 X85.529 Y100.886 E.57184
G1 X84.936 Y100.886 E.0155
G1 X100.4 Y85.422 E.57184
G1 X99.807 Y85.422 E.0155
G1 X84.343 Y100.886 E.57184
G1 X83.75 Y100.886 E.0155
G1 X99.214 Y85.422 E.57184
G1 X98.622 Y85.422 E.0155
G1 X83.157 Y100.886 E.57184
G1 X82.564 Y100.886 E.0155
G1 X98.029 Y85.422 E.57184
G1 X97.436 Y85.422 E.0155
G1 X81.971 Y100.886 E.57184
G1 X81.378 Y100.886 E.0155
G1 X96.843 Y85.422 E.57184
G1 X96.25 Y85.422 E.0155
G1 X80.785 Y100.886 E.57184
G1 X80.193 Y100.886 E.0155
G1 X95.657 Y85.422 E.57184
G1 X95.064 Y85.422 E.0155
G1 X79.6 Y100.886 E.57184
G1 X79.007 Y100.886 E.0155
G1 X94.471 Y85.422 E.57184
G1 X93.878 Y85.422 E.0155
G1 X78.414 Y100.886 E.57184
G1 X77.821 Y100.886 E.0155
G1 X93.285 Y85.422 E.57184
G1 X92.692 Y85.422 E.0155
G1 X77.228 Y100.886 E.57184
G1 X76.635 Y100.886 E.0155
G1 X92.099 Y85.422 E.57184
G1 X91.506 Y85.422 E.0155
G1 X76.042 Y100.886 E.57184
G1 X75.449 Y100.886 E.0155
G1 X90.913 Y85.422 E.57184
G1 X90.32 Y85.422 E.0155
G1 X74.856 Y100.886 E.57184
G1 X74.263 Y100.886 E.0155
G1 X89.727 Y85.422 E.57184
G1 X89.134 Y85.422 E.0155
G1 X73.67 Y100.886 E.57184
G1 X73.077 Y100.886 E.0155
G1 X88.541 Y85.422 E.57184
G1 X87.948 Y85.422 E.0155
