; generated by PrusaSlicer 2.4.2+win64 on 2022-08-11 at 00:42:02 UTC


;
;

;
;
; 

; external perimeters extrusion width = 0.45mm
; perimeters extrusion width = 0.45mm
; infill extrusion width = 0.45mm
; solid infill extrusion width = 0.45mm
; top infill extrusion width = 0.40mm
; first layer extrusion width = 0.42mm

M73 P0 R144
M201 X2500 Y2500 Z400 E5000 ; sets maximum accelerations, mm/sec^2
M203 X180 Y180 Z12 E80 ; sets maximum feedrates, mm / sec
M204 P1250 R1250 T2500 ; sets acceleration (P, T) and retract acceleration (R), mm/sec^2
M205 X8.00 Y8.00 Z2.00 E10.00 ; sets the jerk limits, mm/sec
M205 S0 T0 ; sets the minimum extruding and travel feed rate, mm/sec
M107
;TYPE:Custom
M862.3 P "MINI" ; printer model check
G90 ; use absolute coordinates
M83 ; extruder relative mode
M104 S170 ; set extruder temp for bed leveling
M140 S60 ; set bed temp
M109 R170 ; wait for bed leveling temp
M190 S60 ; wait for bed temp
M204 T1250 ; set travel acceleration
G28 ; home all without mesh bed level
G29 ; mesh bed leveling 
M204 T2500 ; restore travel acceleration
M104 S215 ; set extruder temp
G92 E0
G1 Y-2 X179 F2400
G1 Z3 F720
M109 S215 ; wait for extruder temp

; intro line
G1 X170 F1000
G1 Z0.2 F720
G1 X110 E8 F900
G1 X40 E10 F700
G92 E0

M221 S95 ; set flow
G21 ; set units to millimeters
G90 ; use absolute coordinates
M83 ; use relative distances for extrusion
M900 K0.2 ; Filament gcode LA 1.5
; ; Filament gcode LA 1.0
M107
;LAYER_CHANGE
;Z:0.2
;HEIGHT:0.2
;BEFORE_LAYER_CHANGE
G92 E0.0
;0.2


G1 E-3.2 F4200
G1 Z.2 F720
;AFTER_LAYER_CHANGE
;0.2
G1 Z.4
G1 X67.391 Y80.403 F9000
G1 Z.2 F720
G1 E3.2 F2400
M204 P800
;TYPE:Skirt/Brim
;WIDTH:0.42
G1 F1200
G1 X67.808 Y80.06 E.01693
G1 X68.872 Y79.525 E.03735
G1 X70.442 Y79.222 E.05013
G1 X109.558 Y79.222 E1.22645
G1 X110.212 Y79.3 E.02066
G1 X111.069 Y79.51 E.02766
G1 X111.945 Y79.895 E.03001
G1 X113.023 Y80.817 E.04448
G1 X113.531 Y81.481 E.02621
G1 X113.901 Y82.298 E.02813
G1 X114.205 Y83.868 E.05013
G1 X114.205 Y93.774 E.3106
G1 X114.126 Y94.428 E.02066
G1 X113.916 Y95.285 E.02766
G1 X113.366 Y96.408 E.03921
G1 X112.609 Y97.24 E.03525
G1 X112.192 Y97.582 E.01693
G1 X111.128 Y98.117 E.03735
G1 X109.558 Y98.421 E.05013
G1 X70.442 Y98.421 E1.22645
G1 X68.931 Y98.132 E.04823
G1 X67.808 Y97.582 E.03921
G1 X67.391 Y97.24 E.01693
G1 X66.634 Y96.408 E.03525
G1 X66.099 Y95.344 E.03735
G1 X65.795 Y93.774 E.05013
G1 X65.795 Y83.868 E.3106
G1 X65.874 Y83.214 E.02066
G1 X66.084 Y82.357 E.02766
G1 X66.634 Y81.234 E.03921
G1 X67.35 Y80.447 E.03337
M204 P1000
G1 X67.647 Y80.744 F9000
M204 P800
G1 F1200
G1 X68.018 Y80.374 E.01642
G1 X68.97 Y79.889 E.0335
G1 X70.442 Y79.599 E.04705
G1 X109.558 Y79.599 E1.22645
G1 X110.123 Y79.667 E.01783
G1 X110.979 Y79.876 E.02766
G1 X111.736 Y80.209 E.0259
G1 X112.757 Y81.083 E.04216
G1 X113.217 Y81.691 E.02389
G1 X113.537 Y82.396 E.02428
G1 X113.827 Y83.868 E.04705
G1 X113.827 Y93.774 E.3106
G1 X113.759 Y94.339 E.01783
G1 X113.55 Y95.196 E.02766
G1 X113.052 Y96.199 E.03511
G1 X111.982 Y97.269 E.04744
G1 X111.03 Y97.753 E.0335
G1 X109.558 Y98.044 E.04705
G1 X70.442 Y98.044 E1.22645
G1 X69.021 Y97.766 E.04541
G1 X68.018 Y97.269 E.03511
G1 X66.948 Y96.199 E.04744
G1 X66.463 Y95.246 E.0335
G1 X66.173 Y93.774 E.04705
G1 X66.173 Y83.868 E.3106
G1 X66.241 Y83.304 E.01783
G1 X66.45 Y82.447 E.02766
G1 X66.948 Y81.444 E.03511
G1 X67.605 Y80.786 E.02914
M204 P1000
; printing object appletvtableremoteholder id:0 copy 0
G1 E-2.24 F4200
;WIPE_START
G1 F7200
G1 X68.018 Y80.374 E-.32346
G1 X68.964 Y79.892 E-.58854
;WIPE_END
G1 E-.048 F4200
G1 Z.4 F720
G1 X70.259 Y83.599 F9000
G1 Z.2 F720
G1 E3.2 F2400
M204 P800
;TYPE:Perimeter
G1 F1200
G1 X70.583 Y83.521 E.01045
G1 X109.444 Y83.521 E1.21844
G1 X109.56 Y83.544 E.00373
G1 X109.732 Y83.59 E.00556
G1 X109.827 Y83.685 E.00423
G1 X109.905 Y84.009 E.01045
G1 X109.905 Y93.64 E.30197
G1 X109.83 Y93.954 E.01012
G1 X109.741 Y94.043 E.00394
G1 X109.417 Y94.121 E.01045
G1 X70.576 Y94.121 E1.21783
G1 X70.262 Y94.046 E.01012
G1 X70.173 Y93.957 E.00394
G1 X70.095 Y93.633 E.01045
G1 X70.095 Y84.002 E.30197
G1 X70.17 Y83.688 E.01012
G1 X70.217 Y83.642 E.00206
M204 P1000
G1 X70.087 Y83.253 F9000
M204 P800
G1 F1200
G1 X70.538 Y83.144 E.01456
G1 X109.481 Y83.144 E1.22101
G1 X109.901 Y83.245 E.01356
G1 X109.957 Y83.282 E.00212
G1 X110.173 Y83.513 E.00991
G1 X110.282 Y83.964 E.01456
G1 X110.282 Y93.685 E.30478
G1 X110.177 Y94.124 E.01415
G1 X109.913 Y94.389 E.01174
G1 X109.462 Y94.498 E.01456
G1 X70.531 Y94.498 E1.22064
G1 X70.092 Y94.393 E.01415
G1 X69.827 Y94.129 E.01174
G1 X69.718 Y93.678 E.01456
G1 X69.718 Y83.957 E.30478
G1 X69.823 Y83.519 E.01415
G1 X70.038 Y83.287 E.0099
M204 P1000
G1 X69.934 Y82.902 F9000
M204 P800
;TYPE:External perimeter
G1 F1200
G1 X70.493 Y82.767 E.01806
G1 X109.518 Y82.767 E1.22358
G1 X110.059 Y82.897 E.01744
G1 X110.198 Y82.989 E.00524
G1 X110.437 Y83.229 E.0106
G1 X110.524 Y83.36 E.00494
G1 X110.659 Y83.919 E.01806
G1 X110.659 Y93.73 E.30759
G1 X110.528 Y94.277 E.01765
G1 X110.437 Y94.414 E.00515
G1 X110.198 Y94.653 E.0106
G1 X110.066 Y94.74 E.00494
G1 X109.507 Y94.876 E.01806
G1 X70.487 Y94.876 E1.22345
G1 X69.939 Y94.744 E.01765
G1 X69.802 Y94.653 E.00515
G1 X69.563 Y94.414 E.0106
G1 X69.476 Y94.283 E.00494
G1 X69.341 Y93.723 E.01806
G1 X69.341 Y83.913 E.30759
G1 X69.472 Y83.365 E.01765
G1 X69.563 Y83.229 E.00515
G1 X69.802 Y82.989 E.0106
G1 X69.884 Y82.935 E.00306
M204 P1000
G1 X70.252 Y83.144 F9000
G1 E-2.24 F4200
;WIPE_START
G1 F7200
G1 X70.493 Y82.767 E-.35058
G1 X71.506 Y82.767 E-.56142
;WIPE_END
G1 E-.048 F4200
G1 Z.4 F720
G1 X109.792 Y84.585 F9000
G1 Z.2 F720
G1 E3.2 F2400
M204 P800
;TYPE:Solid infill
;WIDTH:0.420493
G1 F1200
G1 X109.011 Y83.804 E.03468
G1 X108.477 Y83.804 E.01676
G1 X109.622 Y84.949 E.05085
G1 X109.622 Y85.483 E.01676
G1 X107.943 Y83.804 E.07456
G1 X107.409 Y83.804 E.01676
G1 X109.622 Y86.017 E.09827
G1 X109.622 Y86.551 E.01676
G1 X106.875 Y83.804 E.12198
G1 X106.341 Y83.804 E.01676
G1 X109.622 Y87.085 E.14569
G1 X109.622 Y87.619 E.01676
G1 X105.807 Y83.804 E.16939
G1 X105.273 Y83.804 E.01676
G1 X109.622 Y88.153 E.1931
G1 X109.622 Y88.687 E.01676
G1 X104.739 Y83.804 E.21681
G1 X104.205 Y83.804 E.01676
G1 X109.622 Y89.221 E.24052
G1 X109.622 Y89.755 E.01676
G1 X103.671 Y83.804 E.26423
G1 X103.137 Y83.804 E.01676
G1 X109.622 Y90.289 E.28793
G1 X109.622 Y90.823 E.01676
G1 X102.603 Y83.804 E.31164
G1 X102.069 Y83.804 E.01676
G1 X109.622 Y91.357 E.33535
G1 X109.622 Y91.891 E.01676
G1 X101.536 Y83.804 E.35906
G1 X101.002 Y83.804 E.01676
G1 X109.622 Y92.425 E.38277
G1 X109.622 Y92.959 E.01676
G1 X100.468 Y83.804 E.40647
G1 X99.934 Y83.804 E.01676
G1 X109.622 Y93.493 E.43018
G1 X109.622 Y93.607 E.00359
G1 X109.578 Y93.792 E.00597
G1 X109.425 Y93.829 E.00496
G1 X99.4 Y83.804 E.4451
G1 X98.866 Y83.804 E.01676
G1 X108.901 Y93.839 E.44555
G1 X108.367 Y93.839 E.01676
G1 X98.332 Y83.804 E.44555
G1 X97.798 Y83.804 E.01676
G1 X107.833 Y93.839 E.44555
G1 X107.299 Y93.839 E.01676
G1 X97.264 Y83.804 E.44555
G1 X96.73 Y83.804 E.01676
M73 P0 R143
G1 X106.765 Y93.839 E.44555
G1 X106.231 Y93.839 E.01676
G1 X96.196 Y83.804 E.44555
G1 X95.662 Y83.804 E.01676
G1 X105.697 Y93.839 E.44555
G1 X105.163 Y93.839 E.01676
G1 X95.128 Y83.804 E.44555
G1 X94.594 Y83.804 E.01676
G1 X104.629 Y93.839 E.44555
G1 X104.095 Y93.839 E.01676
G1 X94.06 Y83.804 E.44555
G1 X93.526 Y83.804 E.01676
G1 X103.561 Y93.839 E.44555
G1 X103.027 Y93.839 E.01676
G1 X92.992 Y83.804 E.44555
G1 X92.458 Y83.804 E.01676
G1 X102.493 Y93.839 E.44555
G1 X101.959 Y93.839 E.01676
G1 X91.924 Y83.804 E.44555
G1 X91.39 Y83.804 E.01676
G1 X101.425 Y93.839 E.44555
G1 X100.891 Y93.839 E.01676
G1 X90.856 Y83.804 E.44555
G1 X90.322 Y83.804 E.01676
G1 X100.357 Y93.839 E.44555
G1 X99.823 Y93.839 E.01676
G1 X89.788 Y83.804 E.44555
G1 X89.254 Y83.804 E.01676
G1 X99.289 Y93.839 E.44555
G1 X98.755 Y93.839 E.01676
G1 X88.72 Y83.804 E.44555
G1 X88.186 Y83.804 E.01676
G1 X98.221 Y93.839 E.44555
G1 X97.687 Y93.839 E.01676
G1 X87.652 Y83.804 E.44555
G1 X87.118 Y83.804 E.01676
G1 X97.153 Y93.839 E.44555
G1 X96.619 Y93.839 E.01676
G1 X86.584 Y83.804 E.44555
G1 X86.05 Y83.804 E.01676
G1 X96.085 Y93.839 E.44555
G1 X95.551 Y93.839 E.01676
G1 X85.516 Y83.804 E.44555
G1 X84.982 Y83.804 E.01676
G1 X95.017 Y93.839 E.44555
G1 X94.483 Y93.839 E.01676
G1 X84.449 Y83.804 E.44555
G1 X83.915 Y83.804 E.01676
G1 X93.949 Y93.839 E.44555
G1 X93.415 Y93.839 E.01676
G1 X83.381 Y83.804 E.44555
G1 X82.847 Y83.804 E.01676
G1 X92.882 Y93.839 E.44555
G1 X92.348 Y93.839 E.01676
G1 X82.313 Y83.804 E.44555
G1 X81.779 Y83.804 E.01676
G1 X91.814 Y93.839 E.44555
G1 X91.28 Y93.839 E.01676
G1 X81.245 Y83.804 E.44555
G1 X80.711 Y83.804 E.01676
G1 X90.746 Y93.839 E.44555
G1 X90.212 Y93.839 E.01676
G1 X80.177 Y83.804 E.44555
G1 X79.643 Y83.804 E.01676
G1 X89.678 Y93.839 E.44555
G1 X89.144 Y93.839 E.01676
G1 X79.109 Y83.804 E.44555
G1 X78.575 Y83.804 E.01676
G1 X88.61 Y93.839 E.44555
G1 X88.076 Y93.839 E.01676
G1 X78.041 Y83.804 E.44555
G1 X77.507 Y83.804 E.01676
G1 X87.542 Y93.839 E.44555
G1 X87.008 Y93.839 E.01676
G1 X76.973 Y83.804 E.44555
G1 X76.439 Y83.804 E.01676
G1 X86.474 Y93.839 E.44555
G1 X85.94 Y93.839 E.01676
G1 X75.905 Y83.804 E.44555
G1 X75.371 Y83.804 E.01676
G1 X85.406 Y93.839 E.44555
G1 X84.872 Y93.839 E.01676
M73 P1 R143
G1 X74.837 Y83.804 E.44555
G1 X74.303 Y83.804 E.01676
G1 X84.338 Y93.839 E.44555
G1 X83.804 Y93.839 E.01676
G1 X73.769 Y83.804 E.44555
G1 X73.235 Y83.804 E.01676
G1 X83.27 Y93.839 E.44555
G1 X82.736 Y93.839 E.01676
G1 X72.701 Y83.804 E.44555
G1 X72.167 Y83.804 E.01676
G1 X82.202 Y93.839 E.44555
G1 X81.668 Y93.839 E.01676
G1 X71.633 Y83.804 E.44555
G1 X71.099 Y83.804 E.01676
G1 X81.134 Y93.839 E.44555
G1 X80.6 Y93.839 E.01676
G1 X70.575 Y83.814 E.4451
G1 X70.422 Y83.851 E.00495
G1 X70.378 Y84.036 E.00597
G1 X70.378 Y84.15 E.00359
G1 X80.066 Y93.839 E.43018
G1 X79.532 Y93.839 E.01676
G1 X70.378 Y84.684 E.40647
G1 X70.378 Y85.218 E.01676
G1 X78.998 Y93.839 E.38276
G1 X78.464 Y93.839 E.01676
G1 X70.378 Y85.752 E.35905
G1 X70.378 Y86.286 E.01676
G1 X77.93 Y93.839 E.33535
G1 X77.396 Y93.839 E.01676
G1 X70.378 Y86.82 E.31164
G1 X70.378 Y87.354 E.01676
G1 X76.862 Y93.839 E.28793
G1 X76.328 Y93.839 E.01676
G1 X70.378 Y87.888 E.26422
G1 X70.378 Y88.422 E.01676
G1 X75.795 Y93.839 E.24051
G1 X75.261 Y93.839 E.01676
G1 X70.378 Y88.956 E.2168
G1 X70.378 Y89.49 E.01676
G1 X74.727 Y93.839 E.1931
G1 X74.193 Y93.839 E.01676
G1 X70.378 Y90.024 E.16939
G1 X70.378 Y90.557 E.01676
G1 X73.659 Y93.839 E.14568
G1 X73.125 Y93.839 E.01676
G1 X70.378 Y91.091 E.12197
G1 X70.378 Y91.625 E.01676
G1 X72.591 Y93.839 E.09826
G1 X72.057 Y93.839 E.01676
G1 X70.378 Y92.159 E.07456
G1 X70.378 Y92.693 E.01676
G1 X71.523 Y93.839 E.05085
G1 X70.989 Y93.839 E.01676
G1 X70.208 Y93.058 E.03467
M204 P1000
; stop printing object appletvtableremoteholder id:0 copy 0
M106 S84.15
;LAYER_CHANGE
;Z:0.35
;HEIGHT:0.15
;BEFORE_LAYER_CHANGE
G92 E0.0
;0.35


G1 E-2.24 F4200
;WIPE_START
G1 F7200
G1 X70.989 Y93.839 E-.61204
G1 X71.523 Y93.839 E-.29591
G1 X71.518 Y93.833 E-.00405
;WIPE_END
G1 E-.048 F4200
G1 Z.4 F720
;AFTER_LAYER_CHANGE
;0.35
G1 X71.518 Y98.421 F9000
G1 Z.35 F720
G1 E3.2 F2400
;TYPE:Skirt/Brim
;WIDTH:0.42
G1 X70.442 Y98.421 E.02601
G1 X68.931 Y98.132 E.0372
G1 X67.808 Y97.582 E.03024
G1 X67.391 Y97.24 E.01306
G1 X66.634 Y96.408 E.02719
G1 X66.099 Y95.344 E.02881
G1 X65.795 Y93.774 E.03867
G1 X65.795 Y83.868 E.23958
G1 X65.874 Y83.214 E.01593
G1 X66.084 Y82.357 E.02133
G1 X66.634 Y81.234 E.03024
G1 X67.391 Y80.403 E.02719
G1 X67.808 Y80.06 E.01306
G1 X68.872 Y79.525 E.02881
G1 X70.442 Y79.222 E.03867
G1 X109.558 Y79.222 E.94602
G1 X110.212 Y79.3 E.01593
G1 X111.069 Y79.51 E.02133
G1 X111.945 Y79.895 E.02315
G1 X113.023 Y80.817 E.03431
G1 X113.531 Y81.481 E.02022
G1 X113.901 Y82.298 E.0217
G1 X114.205 Y83.868 E.03867
G1 X114.205 Y93.774 E.23958
G1 X114.126 Y94.428 E.01593
G1 X113.916 Y95.285 E.02133
G1 X113.366 Y96.408 E.03024
G1 X112.609 Y97.24 E.02719
G1 X112.192 Y97.582 E.01306
G1 X111.128 Y98.117 E.02881
G1 X109.558 Y98.421 E.03867
G1 X71.578 Y98.421 E.91855
G1 X71.578 Y98.044 F9000
G1 F2400
G1 X70.442 Y98.044 E.02746
G1 X69.021 Y97.766 E.03503
G1 X68.018 Y97.269 E.02708
G1 X66.948 Y96.199 E.03659
G1 X66.463 Y95.246 E.02584
G1 X66.173 Y93.774 E.03629
G1 X66.173 Y83.868 E.23958
G1 X66.241 Y83.304 E.01375
G1 X66.45 Y82.447 E.02133
G1 X66.948 Y81.444 E.02708
G1 X68.018 Y80.374 E.03659
G1 X68.97 Y79.889 E.02584
G1 X70.442 Y79.599 E.03629
G1 X109.558 Y79.599 E.94602
G1 X110.123 Y79.667 E.01375
G1 X110.979 Y79.876 E.02133
G1 X111.736 Y80.209 E.01998
G1 X112.757 Y81.083 E.03252
G1 X113.217 Y81.691 E.01843
G1 X113.537 Y82.396 E.01873
G1 X113.827 Y83.868 E.03629
G1 X113.827 Y93.774 E.23958
G1 X113.759 Y94.339 E.01375
G1 X113.55 Y95.196 E.02133
G1 X113.052 Y96.199 E.02708
G1 X111.982 Y97.269 E.03659
G1 X111.03 Y97.753 E.02584
G1 X109.558 Y98.044 E.03629
G1 X71.638 Y98.044 E.9171
; printing object appletvtableremoteholder id:0 copy 0
G1 E-2.24 F4200
;WIPE_START
G1 F7200
G1 X70.442 Y98.044 E-.66257
G1 X70 Y97.957 E-.24943
;WIPE_END
G1 E-.048 F4200
G1 Z.55 F720
G1 X70.068 Y94.41 F9000
G1 Z.35 F720
G1 E3.2 F2400
M204 P800
;TYPE:Perimeter
;WIDTH:0.45
G1 X69.806 Y94.148 E.00965
G1 X69.672 Y93.637 E.01375
G1 X69.672 Y84.005 E.25098
G1 X69.806 Y83.494 E.01375
G1 X70.068 Y83.232 E.00965
G1 X70.579 Y83.098 E.01375
G1 X109.418 Y83.098 E1.012
G1 X109.937 Y83.237 E.01399
G1 X110.194 Y83.494 E.00946
G1 X110.328 Y84.005 E.01375
G1 X110.328 Y93.637 E.25098
G1 X110.194 Y94.148 E.01375
G1 X109.932 Y94.41 E.00965
G1 X109.421 Y94.544 E.01375
G1 X70.579 Y94.544 E1.01207
G1 X70.126 Y94.425 E.01219
M204 P1000
G1 X69.853 Y94.785 F9000
M204 P800
G1 F2400
G1 X69.431 Y94.363 E.01555
G1 X69.255 Y93.691 E.01811
G1 X69.255 Y83.951 E.25379
G1 X69.431 Y83.279 E.01811
G1 X69.853 Y82.857 E.01555
G1 X70.525 Y82.681 E.01811
G1 X109.473 Y82.681 E1.01483
G1 X110.153 Y82.863 E.01834
G1 X110.569 Y83.279 E.01533
G1 X110.745 Y83.951 E.01811
G1 X110.745 Y93.691 E.25379
G1 X110.569 Y94.363 E.01811
G1 X110.147 Y94.785 E.01555
G1 X109.475 Y94.962 E.01811
G1 X70.525 Y94.962 E1.01488
G1 X69.911 Y94.801 E.01654
M204 P1000
G1 X69.643 Y95.162 F9000
M204 P800
;TYPE:External perimeter
G1 F1800
G1 X69.054 Y94.573 E.02173
G1 X68.837 Y93.745 E.02229
G1 X68.837 Y83.897 E.2566
G1 X69.054 Y83.07 E.02229
G1 X69.643 Y82.48 E.02173
G1 X70.471 Y82.263 E.02229
G1 X109.528 Y82.263 E1.01767
G1 X110.362 Y82.484 E.02248
G1 X110.946 Y83.07 E.02155
G1 X111.163 Y83.897 E.02229
G1 X111.163 Y93.745 E.2566
G1 X110.946 Y94.573 E.02229
M73 P1 R142
G1 X110.357 Y95.162 E.02173
G1 X109.529 Y95.379 E.02229
G1 X70.471 Y95.379 E1.01769
G1 X69.701 Y95.178 E.02073
M204 P1000
G1 X69.644 Y94.762 F9000
G1 E-2.24 F4200
;WIPE_START
G1 F7200
G1 X69.054 Y94.573 E-.49114
G1 X68.861 Y93.838 E-.42086
;WIPE_END
G1 E-.048 F4200
G1 Z.55 F720
G1 X110.177 Y93.719 F9000
G1 Z.35 F720
G1 E3.2 F2400
;TYPE:Solid infill
;WIDTH:0.45434
G1 F4800
G1 X109.766 Y94.129 E.01529
G1 X109.381 Y94.23 E.01048
G1 X109.068 Y94.23 E.00824
G1 X110.014 Y93.284 E.03523
G1 X110.014 Y92.687 E.01572
G1 X108.471 Y94.23 E.05746
G1 X107.874 Y94.23 E.01572
G1 X110.014 Y92.09 E.07968
G1 X110.014 Y91.493 E.01572
G1 X107.277 Y94.23 E.10191
G1 X106.68 Y94.23 E.01572
G1 X110.014 Y90.896 E.12414
G1 X110.014 Y90.299 E.01572
G1 X106.083 Y94.23 E.14637
G1 X105.486 Y94.23 E.01572
G1 X110.014 Y89.702 E.16859
G1 X110.014 Y89.105 E.01572
G1 X104.889 Y94.23 E.19082
G1 X104.292 Y94.23 E.01572
G1 X110.014 Y88.508 E.21305
G1 X110.014 Y87.911 E.01572
G1 X103.695 Y94.23 E.23528
G1 X103.098 Y94.23 E.01572
G1 X110.014 Y87.314 E.2575
G1 X110.014 Y86.717 E.01572
G1 X102.501 Y94.23 E.27973
G1 X101.904 Y94.23 E.01572
G1 X110.014 Y86.12 E.30196
G1 X110.014 Y85.523 E.01572
G1 X101.307 Y94.23 E.32419
G1 X100.71 Y94.23 E.01572
G1 X110.014 Y84.926 E.34641
G1 X110.014 Y84.329 E.01572
G1 X100.113 Y94.23 E.36864
G1 X99.516 Y94.23 E.01572
G1 X109.949 Y83.797 E.38845
G1 X109.912 Y83.656 E.00385
G1 X109.775 Y83.518 E.00512
G1 X109.661 Y83.488 E.00309
G1 X98.919 Y94.23 E.39995
G1 X98.322 Y94.23 E.01572
G1 X109.14 Y83.412 E.40279
G1 X108.543 Y83.412 E.01572
