; generated by PrusaSlicer 2.4.2+win64 on 2022-08-13 at 23:30:56 UTC


;
;

;
;
; 

; external perimeters extrusion width = 0.45mm
; perimeters extrusion width = 0.45mm
; infill extrusion width = 0.45mm
; solid infill extrusion width = 0.45mm
; top infill extrusion width = 0.40mm
; first layer extrusion width = 0.42mm

M73 P0 R47
M201 X2500 Y2500 Z400 E5000 ; sets maximum accelerations, mm/sec^2
M203 X180 Y180 Z12 E80 ; sets maximum feedrates, mm / sec
M204 P1250 R1250 T2500 ; sets acceleration (P, T) and retract acceleration (R), mm/sec^2
M205 X8.00 Y8.00 Z2.00 E10.00 ; sets the jerk limits, mm/sec
M205 S0 T0 ; sets the minimum extruding and travel feed rate, mm/sec
M107
;TYPE:Custom
M862.3 P "MINI" ; printer model check
G90 ; use absolute coordinates
M83 ; extruder relative mode
M104 S170 ; set extruder temp for bed leveling
M140 S85 ; set bed temp
M109 R170 ; wait for bed leveling temp
M190 S85 ; wait for bed temp
M204 T1250 ; set travel acceleration
G28 ; home all without mesh bed level
G29 ; mesh bed leveling 
M204 T2500 ; restore travel acceleration
M104 S240 ; set extruder temp
G92 E0
G1 Y-2 X179 F2400
G1 Z3 F720
M109 S240 ; wait for extruder temp

; intro line
M73 P0 R46
G1 X170 F1000
G1 Z0.2 F720
G1 X110 E8 F900
G1 X40 E10 F700
G92 E0

M221 S95 ; set flow
G21 ; set units to millimeters
G90 ; use absolute coordinates
M83 ; use relative distances for extrusion
M900 K0.2 ; Filament gcode
M107
;LAYER_CHANGE
;Z:0.2
;HEIGHT:0.2
;BEFORE_LAYER_CHANGE
G92 E0.0
;0.2


G1 E-3.2 F2400
G1 Z.2 F720
;AFTER_LAYER_CHANGE
;0.2
G1 Z.4
G1 X69.78 Y75.678 F9000
G1 Z.2 F720
G1 E3.2 F1500
M204 P800
;TYPE:Skirt/Brim
;WIDTH:0.42
G1 F1200
G1 X70.377 Y75.206 E.0239
G1 X79.7 Y70.041 E.33415
G1 X80.389 Y69.764 E.02328
G1 X81.493 Y69.464 E.03589
G1 X83.202 Y69.316 E.05379
G1 X84.738 Y69.498 E.04849
G1 X86.366 Y70.04 E.05379
G1 X98.934 Y75.704 E.43226
G1 X99.92 Y76.26 E.03548
G1 X100.838 Y76.966 E.0363
G1 X119.752 Y95.349 E.82698
G1 X120.416 Y96.541 E.04278
G1 X120.064 Y98.384 E.05884
G1 X118.563 Y100.603 E.08399
G1 X117.064 Y101.599 E.05644
G1 X72.301 Y110.572 E1.43143
G1 X70.916 Y110.682 E.04357
G1 X69.526 Y110.65 E.04357
G1 X68.148 Y110.476 E.04357
G1 X66.794 Y110.162 E.04357
G1 X65.479 Y109.711 E.04357
G1 X64.193 Y109.115 E.04447
G1 X62.551 Y108.093 E.06062
G1 X61.47 Y107.219 E.04357
G1 X59.954 Y105.619 E.06913
G1 X58.776 Y103.9 E.06532
G1 X57.866 Y101.995 E.06622
G1 X57.44 Y100.702 E.04267
G1 X57.162 Y99.465 E.03976
G1 X56.959 Y97.391 E.06532
G1 X57.092 Y95.191 E.06913
G1 X57.359 Y93.827 E.04357
G1 X57.723 Y92.612 E.03976
G1 X58.619 Y90.598 E.06913
G1 X59.347 Y89.414 E.04357
G1 X67.326 Y78.386 E.42678
G1 X69.739 Y75.723 E.11268
M204 P1000
; printing object sunglasses-clip-v2-nolettering id:0 copy 0
G1 E-2.24 F2400
;WIPE_START
G1 F7200
G1 X70.377 Y75.206 E-.26009
G1 X72.178 Y74.208 E-.65191
;WIPE_END
G1 E-.048 F2400
G1 Z.4 F720
G1 X72.647 Y78.958 F9000
G1 Z.2 F720
G1 E3.2 F1500
M204 P800
;TYPE:Perimeter
G1 F1200
G1 X72.785 Y78.83 E.00589
G1 X73.894 Y77.622 E.05142
G1 X74.556 Y77.411 E.02178
G1 X75.559 Y76.996 E.03405
G1 X76.38 Y76.57 E.029
G1 X77.316 Y75.978 E.03471
G1 X77.771 Y75.643 E.01772
G1 X78.204 Y75.291 E.01751
G1 X78.62 Y74.919 E.01749
G1 X79.018 Y74.529 E.01747
G1 X79.638 Y73.865 E.02849
G1 X79.893 Y73.633 E.01081
G1 X80.165 Y73.418 E.01087
G1 X80.751 Y73.049 E.02173
G1 X81.385 Y72.767 E.02173
G1 X82.051 Y72.579 E.02173
G1 X82.393 Y72.521 E.01087
G1 X83.085 Y72.478 E.02173
G1 X83.775 Y72.535 E.02173
G1 X84.451 Y72.69 E.02173
G1 X84.779 Y72.803 E.01087
G1 X85.097 Y72.939 E.01087
G1 X85.702 Y73.277 E.02173
G1 X86.252 Y73.699 E.02172
G1 X86.502 Y73.937 E.01082
G1 X87.114 Y74.618 E.02871
G1 X87.511 Y75.019 E.01771
G1 X87.929 Y75.401 E.01775
G1 X88.365 Y75.761 E.01775
G1 X88.824 Y76.102 E.01791
G1 X89.537 Y76.559 E.02654
G1 X90.274 Y76.963 E.02638
G1 X90.792 Y77.204 E.0179
G1 X91.317 Y77.415 E.01776
G1 X91.862 Y77.603 E.01807
G1 X92.396 Y77.757 E.01741
G1 X92.947 Y77.886 E.01775
G1 X93.504 Y77.986 E.01775
G1 X94.066 Y78.058 E.01775
G1 X94.632 Y78.102 E.01783
G1 X95.95 Y78.124 E.04133
G1 X96.288 Y78.166 E.01066
G1 X96.63 Y78.233 E.01095
G1 X96.967 Y78.325 E.01094
G1 X97.296 Y78.441 E.01095
G1 X97.616 Y78.581 E.01094
G1 X97.925 Y78.744 E.01095
G1 X98.221 Y78.929 E.01094
G1 X98.503 Y79.135 E.01095
G1 X98.769 Y79.36 E.01094
G1 X99.018 Y79.605 E.01095
G1 X99.249 Y79.867 E.01095
G1 X99.46 Y80.145 E.01094
G1 X99.65 Y80.438 E.01095
G1 X99.818 Y80.744 E.01095
G1 X99.964 Y81.061 E.01094
G1 X100.086 Y81.388 E.01094
G1 X100.184 Y81.723 E.01095
G1 X100.258 Y82.064 E.01094
G1 X100.306 Y82.41 E.01095
G1 X100.33 Y82.758 E.01094
G1 X100.327 Y83.107 E.01094
G1 X100.3 Y83.455 E.01095
G1 X100.247 Y83.8 E.01094
G1 X100.17 Y84.14 E.01094
G1 X100.067 Y84.474 E.01095
G1 X99.941 Y84.8 E.01095
G1 X99.792 Y85.115 E.01094
G1 X99.619 Y85.419 E.01095
G1 X99.426 Y85.709 E.01094
G1 X99.211 Y85.985 E.01095
G1 X98.978 Y86.244 E.01095
G1 X98.726 Y86.486 E.01095
G1 X98.457 Y86.708 E.01094
G1 X98.172 Y86.911 E.01095
G1 X97.874 Y87.092 E.01094
G1 X97.563 Y87.251 E.01094
G1 X97.242 Y87.387 E.01095
G1 X96.911 Y87.499 E.01094
G1 X96.573 Y87.587 E.01095
G1 X96.23 Y87.65 E.01095
G1 X95.883 Y87.688 E.01094
G1 X95.52 Y87.701 E.0114
G1 X70.523 Y87.701 E.78377
G1 X69.987 Y87.717 E.01682
M73 P1 R46
G1 X69.441 Y87.765 E.01718
G1 X68.898 Y87.845 E.01719
G1 X68.351 Y87.958 E.01752
G1 X67.832 Y88.097 E.01683
G1 X67.312 Y88.27 E.01718
G1 X66.803 Y88.473 E.01718
G1 X66.307 Y88.705 E.01718
G1 X65.824 Y88.965 E.01718
G1 X65.358 Y89.253 E.01718
G1 X64.909 Y89.568 E.01718
G1 X64.48 Y89.908 E.01718
G1 X64.071 Y90.273 E.01718
G1 X63.684 Y90.661 E.01718
G1 X63.32 Y91.071 E.01718
G1 X62.981 Y91.501 E.01718
G1 X62.667 Y91.95 E.01719
G1 X62.374 Y92.427 E.01752
G1 X62.12 Y92.9 E.01683
G1 X61.89 Y93.397 E.01718
G1 X61.688 Y93.906 E.01718
G1 X61.517 Y94.427 E.01718
G1 X61.376 Y94.957 E.01718
G1 X61.266 Y95.493 E.01718
G1 X61.188 Y96.036 E.01718
G1 X61.141 Y96.582 E.01718
G1 X61.126 Y97.13 E.01718
G1 X61.143 Y97.678 E.01719
G1 X61.194 Y98.234 E.01752
G1 X61.273 Y98.765 E.01683
G1 X61.385 Y99.302 E.01718
G1 X61.528 Y99.831 E.01718
G1 X61.702 Y100.351 E.01718
G1 X61.906 Y100.859 E.01718
G1 X62.139 Y101.355 E.01718
G1 X62.4 Y101.837 E.01718
G1 X62.689 Y102.303 E.01718
G1 X63.005 Y102.751 E.01718
G1 X63.346 Y103.179 E.01718
G1 X63.712 Y103.588 E.01718
G1 X64.1 Y103.974 E.01718
G1 X64.511 Y104.337 E.01719
G1 X64.951 Y104.682 E.01752
G1 X65.392 Y104.988 E.01683
G1 X65.86 Y105.274 E.01718
G1 X66.343 Y105.532 E.01718
G1 X66.84 Y105.762 E.01718
G1 X67.351 Y105.963 E.01718
G1 X67.871 Y106.133 E.01718
G1 X68.401 Y106.273 E.01718
G1 X68.938 Y106.381 E.01718
G1 X69.481 Y106.459 E.01718
G1 X70.027 Y106.504 E.01718
G1 X70.575 Y106.518 E.01718
G1 X71.123 Y106.499 E.01718
G1 X71.668 Y106.449 E.01718
G1 X72.21 Y106.367 E.01718
G1 X72.735 Y106.256 E.01682
G1 X109.673 Y97.321 E1.19155
G1 X110.277 Y97.188 E.01941
G1 X110.879 Y97.084 E.01914
G1 X111.484 Y97.006 E.01914
G1 X112.092 Y96.954 E.01914
G1 X112.702 Y96.929 E.01913
G1 X113.312 Y96.93 E.01914
G1 X113.922 Y96.958 E.01914
G1 X114.53 Y97.013 E.01914
G1 X115.618 Y97.18 E.03453
G1 X114.995 Y98.1 E.03486
G1 X114.38 Y98.008 E.0195
G1 X113.737 Y97.955 E.02022
G1 X113.096 Y97.933 E.02011
G1 X112.455 Y97.943 E.02011
G1 X111.815 Y97.984 E.02011
G1 X111.178 Y98.057 E.02011
G1 X110.545 Y98.162 E.02011
G1 X109.927 Y98.295 E.01981
G1 X72.993 Y107.23 E1.19145
G1 X72.462 Y107.344 E.01703
G1 X71.936 Y107.429 E.01672
G1 X71.406 Y107.487 E.01671
G1 X70.873 Y107.518 E.01672
G1 X70.34 Y107.522 E.01672
G1 X69.808 Y107.498 E.01671
G1 X69.277 Y107.448 E.01672
G1 X68.75 Y107.37 E.01672
G1 X68.227 Y107.265 E.01672
G1 X67.71 Y107.134 E.01672
G1 X67.201 Y106.976 E.01672
G1 X66.7 Y106.792 E.01672
G1 X66.21 Y106.584 E.01672
G1 X65.731 Y106.35 E.01671
G1 X65.264 Y106.092 E.01672
G1 X64.811 Y105.81 E.01672
G1 X64.374 Y105.506 E.01672
G1 X63.952 Y105.18 E.01672
G1 X63.548 Y104.832 E.01672
G1 X63.162 Y104.465 E.01672
G1 X62.795 Y104.078 E.01672
G1 X62.448 Y103.673 E.01672
G1 X62.123 Y103.25 E.01673
G1 X61.82 Y102.812 E.0167
G1 X61.54 Y102.358 E.01672
G1 X61.283 Y101.891 E.01671
G1 X61.05 Y101.412 E.01672
G1 X60.842 Y100.921 E.01671
G1 X60.66 Y100.42 E.01672
G1 X60.504 Y99.91 E.01671
G1 X60.373 Y99.392 E.01674
G1 X60.27 Y98.87 E.0167
G1 X60.193 Y98.342 E.01672
G1 X60.144 Y97.812 E.01672
G1 X60.121 Y97.279 E.01672
G1 X60.126 Y96.746 E.01672
G1 X60.159 Y96.214 E.01672
G1 X60.218 Y95.684 E.01672
G1 X60.304 Y95.158 E.01671
G1 X60.418 Y94.637 E.01672
G1 X60.558 Y94.122 E.01672
G1 X60.723 Y93.616 E.01671
G1 X60.915 Y93.118 E.01672
G1 X61.132 Y92.631 E.01672
G1 X61.373 Y92.156 E.01671
G1 X61.639 Y91.694 E.01672
G1 X61.928 Y91.246 E.01672
G1 X62.239 Y90.813 E.01672
G1 X62.572 Y90.397 E.01672
G1 X62.926 Y89.998 E.01672
G1 X63.3 Y89.618 E.01672
G1 X63.693 Y89.258 E.01671
G1 X64.104 Y88.918 E.01672
G1 X64.531 Y88.599 E.01671
G1 X64.975 Y88.303 E.01671
G1 X65.432 Y88.03 E.01672
G1 X65.904 Y87.781 E.01674
G1 X66.387 Y87.556 E.0167
G1 X66.882 Y87.357 E.01672
G1 X67.385 Y87.182 E.01672
G1 X67.897 Y87.034 E.01672
G1 X68.417 Y86.913 E.01671
G1 X68.941 Y86.818 E.01672
G1 X69.47 Y86.75 E.01671
G1 X70.001 Y86.709 E.01672
G1 X70.544 Y86.695 E.01703
G1 X95.554 Y86.695 E.78415
G1 X95.906 Y86.677 E.01106
G1 X96.274 Y86.623 E.01167
G1 X96.635 Y86.532 E.01167
G1 X96.986 Y86.407 E.01167
G1 X97.322 Y86.248 E.01167
G1 X97.641 Y86.057 E.01167
G1 X97.94 Y85.835 E.01167
G1 X98.216 Y85.585 E.01167
G1 X98.466 Y85.309 E.01167
G1 X98.687 Y85.01 E.01167
G1 X98.879 Y84.691 E.01167
G1 X99.038 Y84.355 E.01167
G1 X99.163 Y84.004 E.01167
G1 X99.254 Y83.643 E.01167
G1 X99.308 Y83.275 E.01167
G1 X99.327 Y82.903 E.01167
G1 X99.308 Y82.532 E.01167
G1 X99.254 Y82.164 E.01167
G1 X99.163 Y81.803 E.01167
G1 X99.038 Y81.452 E.01167
G1 X98.879 Y81.116 E.01167
G1 X98.687 Y80.797 E.01167
G1 X98.466 Y80.498 E.01167
G1 X98.216 Y80.222 E.01167
G1 X97.94 Y79.972 E.01167
G1 X97.641 Y79.75 E.01167
G1 X97.322 Y79.559 E.01167
G1 X96.986 Y79.4 E.01167
G1 X96.635 Y79.275 E.01167
G1 X96.274 Y79.184 E.01167
G1 X95.901 Y79.129 E.01183
G1 X94.965 Y79.099 E.02936
G1 X94.391 Y79.061 E.01802
G1 X93.823 Y78.997 E.01794
G1 X93.257 Y78.909 E.01794
G1 X92.697 Y78.795 E.01794
G1 X92.141 Y78.656 E.01794
G1 X91.593 Y78.493 E.01794
G1 X91.052 Y78.305 E.01794
G1 X90.521 Y78.094 E.01794
G1 X89.999 Y77.859 E.01794
G1 X89.492 Y77.603 E.01781
G1 X88.746 Y77.169 E.02704
G1 X88.028 Y76.692 E.02704
G1 X87.574 Y76.35 E.01781
G1 X87.133 Y75.986 E.01794
G1 X86.709 Y75.602 E.01794
G1 X86.3 Y75.198 E.01802
G1 X85.665 Y74.524 E.02904
G1 X85.386 Y74.287 E.01148
G1 X85.09 Y74.079 E.01133
G1 X84.776 Y73.901 E.01133
G1 X84.446 Y73.752 E.01133
G1 X84.104 Y73.635 E.01133
G1 X83.753 Y73.551 E.01133
G1 X83.395 Y73.501 E.01133
G1 X83.034 Y73.484 E.01133
G1 X82.673 Y73.501 E.01133
G1 X82.316 Y73.551 E.01133
G1 X81.964 Y73.635 E.01133
G1 X81.622 Y73.752 E.01133
G1 X81.293 Y73.901 E.01133
G1 X80.979 Y74.079 E.01133
G1 X80.683 Y74.287 E.01133
G1 X80.404 Y74.524 E.01148
G1 X79.762 Y75.205 E.02935
G1 X79.346 Y75.616 E.01832
G1 X78.913 Y76.005 E.01825
G1 X78.464 Y76.374 E.01825
G1 X77.998 Y76.723 E.01825
G1 X77.516 Y77.05 E.01825
G1 X77.02 Y77.355 E.01827
G1 X76.512 Y77.637 E.01823
G1 X75.994 Y77.894 E.01811
G1 X75.187 Y78.237 E.02751
G1 X74.36 Y78.529 E.0275
G1 X73.806 Y78.688 E.01805
G1 X72.706 Y78.944 E.03544
M204 P1000
G1 E-2.24 F2400
;WIPE_START
G1 F7200
G1 X72.785 Y78.83 E-.04398
G1 X73.894 Y77.622 E-.5193
G1 X74.556 Y77.411 E-.21998
G1 X74.932 Y77.256 E-.12874
;WIPE_END
G1 E-.048 F2400
G1 Z.4 F720
G1 X71.275 Y79.647 F9000
G1 Z.2 F720
G1 E3.2 F1500
M204 P800
;TYPE:External perimeter
G1 F1200
G1 X71.495 Y79.404 E.01027
G1 X71.816 Y79.137 E.01308
G1 X72.181 Y78.874 E.01412
G1 X72.518 Y78.564 E.01436
G1 X73.684 Y77.293 E.05407
G1 X74.426 Y77.057 E.02442
G1 X75.4 Y76.653 E.03304
G1 X76.193 Y76.243 E.02799
G1 X77.103 Y75.667 E.03378
G1 X77.54 Y75.345 E.01702
G1 X77.96 Y75.004 E.01695
G1 X78.362 Y74.644 E.01694
G1 X78.748 Y74.265 E.01694
G1 X79.373 Y73.597 E.0287
G1 X79.649 Y73.345 E.01169
G1 X79.942 Y73.114 E.01172
G1 X80.251 Y72.904 E.01171
G1 X80.574 Y72.716 E.01172
G1 X80.91 Y72.552 E.01172
G1 X81.256 Y72.412 E.01172
G1 X81.612 Y72.298 E.01172
G1 X81.975 Y72.209 E.01172
G1 X82.343 Y72.147 E.01172
G1 X82.715 Y72.111 E.01171
G1 X83.089 Y72.101 E.01172
G1 X83.462 Y72.118 E.01172
G1 X83.833 Y72.162 E.01172
G1 X84.2 Y72.232 E.01172
G1 X84.561 Y72.329 E.01172
G1 X84.914 Y72.45 E.01172
G1 X85.258 Y72.597 E.01171
G1 X85.59 Y72.768 E.01172
G1 X85.909 Y72.962 E.01172
G1 X86.214 Y73.179 E.01171
G1 X86.502 Y73.416 E.01171
G1 X86.772 Y73.674 E.0117
G1 X87.388 Y74.359 E.02889
G1 X87.772 Y74.748 E.01713
G1 X88.176 Y75.116 E.01714
G1 X88.598 Y75.464 E.01714
G1 X89.038 Y75.791 E.0172
G1 X89.729 Y76.234 E.02574
G1 X90.444 Y76.627 E.02557
G1 X90.942 Y76.857 E.0172
G1 X91.449 Y77.062 E.01715
G1 X91.976 Y77.243 E.01747
G1 X92.491 Y77.392 E.01682
G1 X93.024 Y77.516 E.01714
G1 X93.562 Y77.613 E.01714
G1 X94.104 Y77.683 E.01714
G1 X94.65 Y77.725 E.01717
G1 X95.977 Y77.748 E.04159
G1 X96.347 Y77.793 E.0117
G1 X96.717 Y77.866 E.01181
G1 X97.08 Y77.965 E.0118
G1 X97.435 Y78.09 E.01181
G1 X97.78 Y78.241 E.0118
G1 X98.113 Y78.417 E.01181
G1 X98.432 Y78.616 E.0118
G1 X98.736 Y78.838 E.01181
G1 X99.023 Y79.082 E.0118
G1 X99.292 Y79.346 E.01181
G1 X99.541 Y79.628 E.01181
G1 X99.768 Y79.928 E.0118
G1 X99.973 Y80.244 E.01181
G1 X100.155 Y80.574 E.01181
G1 X100.312 Y80.916 E.01181
G1 X100.444 Y81.269 E.01181
G1 X100.55 Y81.63 E.01181
G1 X100.629 Y81.998 E.0118
G1 X100.682 Y82.371 E.01181
G1 X100.707 Y82.747 E.01181
G1 X100.704 Y83.123 E.01181
G1 X100.675 Y83.499 E.01181
G1 X100.618 Y83.871 E.01181
G1 X100.534 Y84.238 E.01181
G1 X100.424 Y84.598 E.01181
G1 X100.288 Y84.949 E.01181
G1 X100.126 Y85.289 E.0118
G1 X99.941 Y85.617 E.01181
G1 X99.732 Y85.93 E.01181
G1 X99.501 Y86.227 E.01181
G1 X99.249 Y86.507 E.01181
G1 X98.977 Y86.767 E.01181
G1 X98.687 Y87.007 E.01181
G1 X98.38 Y87.226 E.01181
G1 X98.058 Y87.421 E.0118
G1 X97.723 Y87.593 E.01181
G1 X97.376 Y87.739 E.01181
G1 X97.02 Y87.861 E.01181
G1 X96.655 Y87.955 E.01181
G1 X96.285 Y88.024 E.01181
G1 X95.911 Y88.065 E.0118
G1 X95.527 Y88.079 E.01204
G1 X70.528 Y88.079 E.78381
G1 X70.009 Y88.094 E.01631
G1 X69.484 Y88.14 E.01649
G1 X68.964 Y88.216 E.0165
G1 X68.438 Y88.325 E.01683
G1 X67.941 Y88.459 E.01615
G1 X67.441 Y88.624 E.01649
G1 X66.953 Y88.819 E.01649
G1 X66.476 Y89.042 E.01649
G1 X66.013 Y89.292 E.01649
G1 X65.566 Y89.568 E.01649
G1 X65.135 Y89.87 E.01649
G1 X64.723 Y90.197 E.01649
G1 X64.33 Y90.547 E.01649
G1 X63.958 Y90.919 E.01649
G1 X63.609 Y91.313 E.01649
G1 X63.283 Y91.726 E.01649
G1 X62.982 Y92.157 E.0165
G1 X62.702 Y92.615 E.01683
G1 X62.458 Y93.069 E.01615
G1 X62.236 Y93.546 E.01649
G1 X62.043 Y94.035 E.01649
G1 X61.878 Y94.534 E.01649
G1 X61.743 Y95.043 E.01649
G1 X61.638 Y95.558 E.01649
G1 X61.562 Y96.079 E.01649
G1 X61.518 Y96.603 E.01649
G1 X61.503 Y97.129 E.01649
G1 X61.52 Y97.655 E.0165
G1 X61.568 Y98.189 E.01683
G1 X61.644 Y98.699 E.01615
G1 X61.752 Y99.214 E.01649
G1 X61.889 Y99.722 E.01649
G1 X62.056 Y100.221 E.01649
G1 X62.252 Y100.709 E.01649
G1 X62.475 Y101.185 E.01649
G1 X62.726 Y101.647 E.01649
G1 X63.004 Y102.094 E.01649
G1 X63.307 Y102.524 E.01649
G1 X63.634 Y102.936 E.01649
G1 X63.985 Y103.328 E.01649
G1 X64.358 Y103.699 E.01649
G1 X64.753 Y104.047 E.0165
G1 X65.175 Y104.378 E.01683
G1 X65.598 Y104.672 E.01615
G1 X66.047 Y104.947 E.01649
G1 X66.511 Y105.195 E.01649
G1 X66.989 Y105.415 E.01649
G1 X67.478 Y105.608 E.01649
G1 X67.978 Y105.771 E.01649
G1 X68.487 Y105.905 E.01649
G1 X69.002 Y106.01 E.01649
G1 X69.523 Y106.084 E.01649
G1 X70.047 Y106.127 E.01649
G1 X70.573 Y106.14 E.01649
G1 X71.099 Y106.123 E.01649
G1 X71.623 Y106.075 E.01649
G1 X72.143 Y105.996 E.01649
G1 X72.652 Y105.888 E.01631
G1 X109.588 Y96.953 E1.19151
G1 X110.205 Y96.818 E.01979
G1 X110.822 Y96.711 E.01965
G1 X111.444 Y96.631 E.01965
G1 X112.068 Y96.578 E.01965
G1 X112.695 Y96.552 E.01965
G1 X113.321 Y96.553 E.01965
G1 X113.948 Y96.582 E.01965
G1 X114.572 Y96.638 E.01965
G1 X115.193 Y96.721 E.01965
G1 X115.811 Y96.831 E.01968
G1 X116.243 Y96.93 E.0139
